Der-mark/objtrans/data/sim/qpos_trajectory.csv
q0,q1,q2,q3,q4,q5
0.0,0.0,0.0,0.0,0.0,0.0
-4.953647294314578e-05,-4.4887219701195136e-05,4.269232522347011e-05,6.268551078392193e-05,-6.615478923777118e-05,6.665231194347143e-05
-6.614354788325727e-05,-6.166918319649994e-05,6.933997792657465e-05,6.577161548193544e-05,-0.00019805083866231143,0.00019998764037154615
-1.6576203051954508e-05,-1.1885122148669325e-05,3.655129694379866e-05,2.2926317342353286e-06,-0.0003961139591410756,0.0003999937034677714
9.94441652437672e-05,0.00010507224214961752,-6.131245027063414e-05,-0.00012779998360201716,-0.0006606584065593779,0.0006666718982160091
0.0002731929416768253,0.00028623122489079833,-0.0002284878137288615,-0.00032456257031299174,-0.0009219071944244206,0.0010000301990658045
0.0004781988973263651,0.0005322268698364496,-0.00046390152419917285,-0.0005889376043342054,-0.00116311467718333,0.0014000607188791037
0.0007042184006422758,0.0008443775586783886,-0.0007662918069399893,-0.000920111546292901,-0.0013886597007513046,0.0018667664844542742
0.000948851986322552,0.0012229506392031908,-0.001135416910983622,-0.0013179749948903918,-0.001598998554982245,0.002400148194283247
0.0012115740682929754,0.0016681443667039275,-0.0015710509615018964,-0.0017824895912781358,-0.0017978869145736098,0.003000205848366022
0.0014935078797861934,0.0021801127586513758,-0.0020730190444737673,-0.002313606906682253,-0.001991512253880501,0.0036669387482106686
0.001796168857254088,0.002729319501668215,-0.0026360787451267242,-0.0029116980731487274,-0.0021940276492387056,0.004400339443236589
0.0021173288114368916,0.0032812561839818954,-0.003259406890720129,-0.003576921997591853,-0.00241923239082098,0.0052004060707986355
0.0024540256708860397,0.00382555671967566,-0.003946904093027115,-0.004308982752263546,-0.002671899739652872,0.006067145615816116
0.0028065615333616734,0.004361566621810198,-0.0047004311345517635,-0.0051076714880764484,-0.0029527824372053146,0.007000559475272894
0.00317616225220263,0.0048880320973694324,-0.005520189646631479,-0.005973001942038536,-0.0032639235723763704,0.008000646717846394
0.003563673933967948,0.005402741488069296,-0.006406045518815517,-0.006904986221343279,-0.0036086004693061113,0.009058567695319653
0.003972286824136972,0.00590234762057662,-0.007357752416282892,-0.007903413847088814,-0.003991508390754461,0.010095125995576382
0.004416100215166807,0.0063766795210540295,-0.008373678661882877,-0.008968004956841469,-0.0044242762960493565,0.011100996285676956
0.004896592348814011,0.006815890781581402,-0.009454085491597652,-0.010099394246935844,-0.0049146381206810474,0.012072835117578506
0.0054100435227155685,0.0072160447016358376,-0.010600241832435131,-0.011297488585114479,-0.00546242855489254,0.013007290661334991
0.0059542665258049965,0.007575941737741232,-0.011812656186521053,-0.012562154792249203,-0.006067576818168163,0.01390003226697445
0.006527455989271402,0.00789607223123312,-0.01309168804436922,-0.013893350027501583,-0.0067294263280928135,0.014750972390174866
0.007127205841243267,0.008179394528269768,-0.014437848702073097,-0.015291045419871807,-0.007445144467055798,0.015566520392894745
0.007749960757791996,0.00842943787574768,-0.015851160511374474,-0.01675528474152088,-0.008213969878852367,0.016355907544493675
0.008391842246055603,0.00864947959780693,-0.01733160763978958,-0.018286047503352165,-0.009034855291247368,0.017126159742474556
0.009050092659890652,0.008842584677040577,-0.018879041075706482,-0.019883275032043457,-0.009908308275043964,0.0178813636302948
0.00972281489521265,0.00901133380830288,-0.02049337700009346,-0.02154693566262722,-0.010834417305886745,0.018624579533934593
0.010408617556095123,0.009157906286418438,-0.022174566984176636,-0.023276997730135918,-0.011812317185103893,0.019358275458216667
0.011106546968221664,0.009283934719860554,-0.023922469466924667,-0.025073440745472908,-0.012841965071856976,0.020084191113710403
0.011815665289759636,0.009390351362526417,-0.025736911222338676,-0.026936260983347893,-0.01392393745481968,0.020804177969694138
0.012534823268651962,0.009477455168962479,-0.027617743238806725,-0.028865471482276917,-0.015059121884405613,0.021520545706152916
0.013263273984193802,0.009545767679810524,-0.02956508658826351,-0.030861014500260353,-0.016246125102043152,0.022233491763472557
0.014000872150063515,0.009595920331776142,-0.03157902508974075,-0.03292285278439522,-0.017481954768300056,0.022943155840039253
0.014746781438589096,0.00962834618985653,-0.03365955129265785,-0.03505101054906845,-0.01876325160264969,0.023650290444493294
0.015500008128583431,0.009643683210015297,-0.03580668568611145,-0.037245478481054306,-0.020087117329239845,0.02435476891696453
0.016260165721178055,0.009643479250371456,-0.038009997457265854,-0.03950609266757965,-0.021452385932207108,0.025056153535842896
0.017024720087647438,0.009628969244658947,-0.04023450240492821,-0.04183297976851463,-0.022856704890727997,0.02575315721333027
0.01778743974864483,0.009602039121091366,-0.04245831444859505,-0.04422657564282417,-0.024295594543218613,0.026437824591994286
0.01854623667895794,0.009567013941705227,-0.04467714950442314,-0.04668677970767021,-0.025765076279640198,0.02711063250899315
0.019300639629364014,0.009524885565042496,-0.04688996076583862,-0.04921363294124603,-0.02726070024073124,0.027774417772889137
0.020050358027219772,0.009475923143327236,-0.04909656196832657,-0.05180714651942253,-0.028779100626707077,0.028430625796318054
0.020795274525880814,0.009420300833880901,-0.051297128200531006,-0.05446730554103851,-0.030317725613713264,0.02908012643456459
0.021535303443670273,0.009358170442283154,-0.05349191650748253,-0.057194121181964874,-0.03187436982989311,0.02972325310111046
0.02227037027478218,0.009289715439081192,-0.05568109452724457,-0.05998757854104042,-0.03344687819480896,0.03036000207066536
0.023000283166766167,0.009215138852596283,-0.0578644797205925,-0.06284768134355545,-0.035032618790864944,0.03099028207361698
0.023724639788269997,0.009134650230407715,-0.06004096567630768,-0.06577444821596146,-0.0366276316344738,0.031614117324352264
0.024442557245492935,0.009048394858837128,-0.06220733001828194,-0.06876787543296814,-0.03822484239935875,0.032232001423835754
0.025152195245027542,0.008956479839980602,-0.06435590982437134,-0.07182800769805908,-0.03981051966547966,0.03284566476941109
0.025852156803011894,0.008860722184181213,-0.06647974997758865,-0.07495487481355667,-0.0413782112300396,0.03345497325062752
0.026541978120803833,0.008763143792748451,-0.06857676804065704,-0.07814852148294449,-0.04292710870504379,0.03405885770916939
0.02722153067588806,0.00866476260125637,-0.07064692676067352,-0.08140894025564194,-0.04445534572005272,0.034656837582588196
0.0278907660394907,0.008566245436668396,-0.07269024848937988,-0.08473613113164902,-0.04596073552966118,0.03524854779243469
0.028549950569868088,0.008468110114336014,-0.07470671832561493,-0.08813010156154633,-0.047440655529499054,0.03583412989974022
0.02919946424663067,0.008370736613869667,-0.07669645547866821,-0.09159085899591446,-0.048892904072999954,0.03641381114721298
0.029839495196938515,0.00827436987310648,-0.07866007089614868,-0.09511837363243103,-0.05031687766313553,0.03698738291859627
0.030470123514533043,0.00817909836769104,-0.08059853315353394,-0.09871266782283783,-0.05171198025345802,0.03755448758602142
0.0310913547873497,0.00808499101549387,-0.08251281082630157,-0.10237371921539307,-0.05307770147919655,0.03811474144458771
0.03170311450958252,0.007992134429514408,-0.08440382033586502,-0.10610155016183853,-0.05441361293196678,0.038667719811201096
0.032305315136909485,0.007900583557784557,-0.08627243340015411,-0.10989616066217422,-0.0557192787528038,0.03921312838792801
0.03289782628417015,0.007810364942997694,-0.08811940252780914,-0.11375752836465836,-0.056994229555130005,0.039750732481479645
0.03348047658801079,0.0077215214259922504,-0.08994538336992264,-0.11768564581871033,-0.05823809653520584,0.04028024896979332
0.0340530201792717,0.00763414241373539,-0.0917511060833931,-0.12168052047491074,-0.059450604021549225,0.04080116003751755
0.03461514785885811,0.0075483196415007114,-0.09353721141815186,-0.12574215233325958,-0.06063145771622658,0.04131295159459114
0.035166431218385696,0.00746414577588439,-0.09530427306890488,-0.12987056374549866,-0.06178027391433716,0.0418151430785656
0.03570626676082611,0.00738171162083745,-0.09705271571874619,-0.13406574726104736,-0.06289656460285187,0.04230726137757301
0.03623384237289429,0.007301090285181999,-0.09878278523683548,-0.1383276879787445,-0.0639796257019043,0.042788952589035034
0.03674805536866188,0.007222349755465984,-0.10049454867839813,-0.14265640079975128,-0.06502848863601685,0.04325995221734047
0.03724819794297218,0.007145922631025314,-0.10218837857246399,-0.1470518559217453,-0.06604314595460892,0.04371911287307739
0.03773384541273117,0.007072266191244125,-0.10386501997709274,-0.15151406824588776,-0.06702373176813126,0.044165462255477905
0.03820459172129631,0.007001768331974745,-0.10552521049976349,-0.15604306757450104,-0.06797028332948685,0.04459810256958008
0.03866017237305641,0.006934677250683308,-0.10716960579156876,-0.16063879430294037,-0.06888267397880554,0.04501654952764511
0.03910031542181969,0.006870851386338472,-0.10879865288734436,-0.16530126333236694,-0.06976017355918884,0.04542118310928345
0.039524443447589874,0.006809790153056383,-0.11041262000799179,-0.17003050446510315,-0.07060116529464722,0.04581389203667641
0.03993097320199013,0.006750364322215319,-0.11201175302267075,-0.1748265027999878,-0.07140236347913742,0.04619956761598587
0.04031671956181526,0.00668986514210701,-0.11359591782093048,-0.17968937754631042,-0.07215623557567596,0.04658852145075798
0.04067948833107948,0.00662850821390748,-0.11516591906547546,-0.18461903929710388,-0.07286196947097778,0.04697812348604202
0.04101816937327385,0.006567340809851885,-0.11672281473875046,-0.18961547315120697,-0.07351930439472198,0.047367487102746964
0.041331637650728226,0.006507171783596277,-0.11826740950345993,-0.19467869400978088,-0.07412774115800858,0.04775521904230118
0.04161838814616203,0.006448888685554266,-0.11980042606592178,-0.19980868697166443,-0.07468637079000473,0.04813964292407036
0.04187655448913574,0.0063934652134776115,-0.12132255733013153,-0.20500548183918,-0.07519398629665375,0.04851916804909706
0.04210617393255234,0.006342042237520218,-0.12283430248498917,-0.21023628115653992,-0.07564959675073624,0.04889350384473801
0.042309410870075226,0.006295532453805208,-0.12433559447526932,-0.21546757221221924,-0.0760546624660492,0.049264732748270035
0.042488254606723785,0.006253866478800774,-0.12582579255104065,-0.2206987887620926,-0.07641061395406723,0.04963536560535431
0.042642831802368164,0.006216442212462425,-0.12730412185192108,-0.2259301245212555,-0.07671736925840378,0.05000677332282066
0.04277229309082031,0.006182685494422913,-0.12876981496810913,-0.23116156458854675,-0.07697605341672897,0.050380803644657135
0.04287659749388695,0.006152331829071045,-0.13022248446941376,-0.23639310896396637,-0.07718805223703384,0.05075807496905327
0.04295783117413521,0.006125492975115776,-0.13166238367557526,-0.2416246235370636,-0.07735588401556015,0.05113920569419861
0.04301908239722252,0.006101861596107483,-0.1330900639295578,-0.24685606360435486,-0.07748165726661682,0.05152515694499016
0.04306332767009735,0.00608083326369524,-0.1345060020685196,-0.25208741426467896,-0.077566958963871,0.05191653221845627
0.04309316724538803,0.006061806343495846,-0.13591063022613525,-0.2573187053203583,-0.07761301845312119,0.05231384560465813
0.04311086982488632,0.006044263020157814,-0.13730433583259583,-0.26255002617836,-0.0776219367980957,0.05271738022565842
0.04311839118599892,0.006027879659086466,-0.13868732750415802,-0.2677812874317169,-0.077598936855793,0.05312727019190788
0.04311877861618996,0.006012167781591415,-0.1400602161884308,-0.2730123698711395,-0.07753992080688477,0.05354326218366623
0.04311533644795418,0.00599589804187417,-0.14142277836799622,-0.2782435417175293,-0.0774444043636322,0.05396831035614014
0.04310713708400726,0.0059784529730677605,-0.14277514815330505,-0.28347471356391907,-0.07731279730796814,0.054401833564043045
0.04309406504034996,0.005959970410913229,-0.14411772787570953,-0.28870588541030884,-0.07714593410491943,0.0548439659178257
0.043076951056718826,0.005940296221524477,-0.1454506665468216,-0.2939370572566986,-0.0769442543387413,0.05529496446251869
0.04305659607052803,0.00591911980882287,-0.14677411317825317,-0.29916825890541077,-0.07670789211988449,0.055755019187927246
0.043033674359321594,0.005896144546568394,-0.14808809757232666,-0.3043994605541229,-0.07643690705299377,0.05622435361146927
0.04300881177186966,0.005871097557246685,-0.14939264953136444,-0.3096306622028351,-0.07613132894039154,0.0567031092941761
0.04298250749707222,0.005843727383762598,-0.15068766474723816,-0.31486186385154724,-0.0757911428809166,0.05719146132469177
0.042955219745635986,0.00581380445510149,-0.1519731879234314,-0.3200930655002594,-0.07541630417108536,0.05768953636288643
0.04292735829949379,0.005781147629022598,-0.15324917435646057,-0.32532426714897156,-0.07500691711902618,0.05819743499159813
0.04289926588535309,0.005745607893913984,-0.1545155942440033,-0.3305554687976837,-0.07456311583518982,0.058715153485536575
0.042871374636888504,0.005707409232854843,-0.15577246248722076,-0.3357866704463959,-0.07408645749092102,0.059242431074380875
0.042844150215387344,0.005667076911777258,-0.15701977908611298,-0.3410179018974304,-0.0735790953040123,0.05977870523929596
0.04281805083155632,0.0056251417845487595,-0.15825754404067993,-0.34624913334846497,-0.07304294407367706,0.06032339483499527
0.04279347136616707,0.005582064390182495,-0.15948577225208282,-0.3514803349971771,-0.07247968018054962,0.06087605655193329
0.04277072474360466,0.005538273137062788,-0.16070443391799927,-0.3567115366458893,-0.07189074158668518,0.061436351388692856
0.042750079184770584,0.0054941726848483086,-0.16191355884075165,-0.36194270849227905,-0.07127732038497925,0.06200404465198517
0.042731743305921555,0.005450125318020582,-0.16311314702033997,-0.3671738803386688,-0.07064049690961838,0.0625789687037468
0.042715903371572495,0.0054064467549324036,-0.16430316865444183,-0.3724050521850586,-0.06998123228549957,0.06316094845533371
0.04270268976688385,0.005363367963582277,-0.16548363864421844,-0.37763622403144836,-0.06930040568113327,0.06374961882829666
0.04269221052527428,0.005321053322404623,-0.16665463149547577,-0.38286739587783813,-0.06859882175922394,0.0643448457121849
0.04268456622958183,0.005279641132801771,-0.167816162109375,-0.3880985975265503,-0.06787718832492828,0.06494639813899994
0.042679816484451294,0.005239246878772974,-0.1689683049917221,-0.39332979917526245,-0.06713608652353287,0.06555414199829102
0.04267794266343117,0.0051999641582369804,-0.1701110601425171,-0.398561030626297,-0.06637608259916306,0.06616795808076859
0.042677804827690125,0.005161842331290245,-0.17124448716640472,-0.40379226207733154,-0.06559781730175018,0.06678762286901474
0.04267850145697594,0.005125158466398716,-0.1723688691854477,-0.40902355313301086,-0.06480184197425842,0.06741265207529068
0.04268134385347366,0.005090066697448492,-0.1734844297170639,-0.4142547845840454,-0.06398875266313553,0.0680430456995964
0.04268712177872658,0.005056336056441069,-0.17459100484848022,-0.41948604583740234,-0.0631590485572815,0.06867928057909012
0.042695656418800354,0.005024014040827751,-0.17568878829479218,-0.42471739649772644,-0.06231406331062317,0.0693211629986763
0.04270653799176216,0.004993329755961895,-0.17677801847457886,-0.4299488067626953,-0.06145525723695755,0.06996860355138779
0.042719367891550064,0.004964503925293684,-0.1778590828180313,-0.4351802468299866,-0.060583967715501785,0.07062163203954697
0.04273375868797302,0.004937725607305765,-0.1789323389530182,-0.44041168689727783,-0.059701401740312576,0.07128003984689713
0.04274938628077507,0.004913146607577801,-0.179997980594635,-0.44564318656921387,-0.05880862474441528,0.07194381207227707
0.04276594519615173,0.004890895448625088,-0.18105633556842804,-0.45087477564811707,-0.0579066202044487,0.0726129487156868
0.04278317466378212,0.004871077369898558,-0.1821075975894928,-0.45610639452934265,-0.05699627846479416,0.07328738272190094
0.04280083626508713,0.004853774793446064,-0.183151975274086,-0.46133801341056824,-0.056078385561704636,0.07396700978279114
0.042818713933229446,0.00483905291184783,-0.18418964743614197,-0.4665696322917938,-0.055153679102659225,0.07465187460184097
0.042836617678403854,0.004826959688216448,-0.18522073328495026,-0.4718013107776642,-0.05422281101346016,0.07534187287092209
0.042854391038417816,0.00481752771884203,-0.1862453818321228,-0.47703301906585693,-0.053286369889974594,0.0760369822382927
0.042871881276369095,0.004810774233192205,-0.18726366758346558,-0.4822647273540497,-0.052344910800457,0.07673709839582443
0.04288897663354874,0.00480670016258955,-0.18827570974826813,-0.48749643564224243,-0.05139891058206558,0.0774422213435173
0.04290558025240898,0.004805297125130892,-0.18928149342536926,-0.4927281439304352,-0.050448812544345856,0.07815223187208176
0.04292156174778938,0.004805386066436768,-0.19028078019618988,-0.49795985221862793,-0.04949493333697319,0.07886712998151779
0.0429367832839489,0.004806770011782646,-0.1912737786769867,-0.5031915903091431,-0.048537615686655045,0.07958681136369705
0.04295123368501663,0.0048106079921126366,-0.19226065278053284,-0.5084233283996582,-0.04757728427648544,0.08031148463487625
0.042964961379766464,0.004816994536668062,-0.19324122369289398,-0.5136550664901733,-0.046614211052656174,0.08104080706834793
0.042977992445230484,0.004825858864933252,-0.1942153424024582,-0.5188868045806885,-0.045648641884326935,0.08177467435598373
0.04299032688140869,0.004837118089199066,-0.19518280029296875,-0.5241185426712036,-0.04468079283833504,0.08251307159662247
0.04300200566649437,0.0048506795428693295,-0.1961434781551361,-0.5293502807617188,-0.04371083527803421,0.08325587958097458
0.043013039976358414,0.004866501782089472,-0.19709718227386475,-0.5345820188522339,-0.04273894801735878,0.08400297909975052
0.04302339628338814,0.004884615540504456,-0.1980438381433487,-0.539813756942749,-0.04176529496908188,0.08475425094366074
0.043033014982938766,0.004905066452920437,-0.1989833116531372,-0.5450454950332642,-0.04079002887010574,0.08550957590341568
0.04304186627268791,0.004927893169224262,-0.19991552829742432,-0.5502772331237793,-0.03981329873204231,0.08626871556043625
0.043049901723861694,0.004953108262270689,-0.20084048807621002,-0.5555089712142944,-0.038835279643535614,0.0870315358042717
0.043057069182395935,0.004980682861059904,-0.2017582654953003,-0.5607407093048096,-0.03785616159439087,0.08779770880937576
0.043063320219516754,0.005010579247027636,-0.2026689052581787,-0.5659724473953247,-0.03687610104680061,0.08856716006994247
0.04306861013174057,0.0050427550449967384,-0.20357245206832886,-0.5712041854858398,-0.035895250737667084,0.08933965116739273
0.043072931468486786,0.005077187437564135,-0.20446904003620148,-0.576435923576355,-0.03491376340389252,0.09011488407850266
0.0430762954056263,0.005113854538649321,-0.20535871386528015,-0.5816676616668701,-0.03393178433179855,0.0908927246928215
0.0430787168443203,0.0051527260802686214,-0.20624156296253204,-0.5868993997573853,-0.03294944763183594,0.09167284518480301
0.043080221861600876,0.005193769000470638,-0.2071176916360855,-0.5921311378479004,-0.031966887414455414,0.09245499223470688
0.043080832809209824,0.005236985627561808,-0.2079872041940689,-0.5973628759384155,-0.03098423406481743,0.0932389348745346
0.043081026524305344,0.005282376892864704,-0.2088502049446106,-0.6025946140289307,-0.030001629143953323,0.0940246433019638
0.04308097064495087,0.00532988365739584,-0.2097068578004837,-0.6078263521194458,-0.029019245877861977,0.09481191635131836
0.04308067634701729,0.005379502661526203,-0.21055728197097778,-0.6130580902099609,-0.028037179261446,0.09560060501098633
0.04307999089360237,0.0054311868734657764,-0.2114015519618988,-0.6182898283004761,-0.027055541053414345,0.0963904857635498
0.04307868704199791,0.005484839901328087,-0.2122398018836975,-0.6235215663909912,-0.026074368506669998,0.09718121588230133
0.043076783418655396,0.005540379323065281,-0.21307209134101868,-0.6287533044815063,-0.025093698874115944,0.09797254204750061
0.04307430982589722,0.005597675684839487,-0.2138984352350235,-0.6339850425720215,-0.024113602936267853,0.09876422584056854
0.04307124763727188,0.005656595807522535,-0.21471889317035675,-0.6392167806625366,-0.023134121671319008,0.09955602884292603
0.04306768998503685,0.0057169534265995026,-0.21553337574005127,-0.6444485187530518,-0.02215532213449478,0.10034793615341187
0.04306379705667496,0.0057785301469266415,-0.21634182333946228,-0.6496802568435669,-0.02117723412811756,0.10113972425460815
0.043059732764959335,0.005841076374053955,-0.21714407205581665,-0.654911994934082,-0.02019989863038063,0.10193128138780594
0.0430557057261467,0.0059043108485639095,-0.21793994307518005,-0.6601437330245972,-0.01922333799302578,0.10272236913442612
0.043051935732364655,0.005967909004539251,-0.21872927248477936,-0.6653754711151123,-0.0182475782930851,0.10351286083459854
0.04304862022399902,0.006031624507158995,-0.21951192617416382,-0.6706072092056274,-0.01727265492081642,0.10430251806974411
0.04304584115743637,0.00609537772834301,-0.22028788924217224,-0.6758389472961426,-0.016298627480864525,0.10509122163057327
0.04304362088441849,0.0061591318808496,-0.22105728089809418,-0.6810706853866577,-0.015325535088777542,0.10587907582521439
0.04304196313023567,0.006222852040082216,-0.2218201756477356,-0.6863024234771729,-0.014353415928781033,0.10666587948799133
0.04304075241088867,0.00628650514408946,-0.22257664799690247,-0.691534161567688,-0.01338230725377798,0.10745172202587128
0.04304004833102226,0.006350070703774691,-0.2233268916606903,-0.6967658996582031,-0.01241222582757473,0.10823659598827362
0.04303978383541107,0.006413507275283337,-0.22407092154026031,-0.7019976377487183,-0.011443214491009712,0.10902051627635956
0.043039679527282715,0.006476825103163719,-0.22480881214141846,-0.7072293758392334,-0.010475251823663712,0.10980324447154999
0.04303975775837898,0.0065400064922869205,-0.22554071247577667,-0.7124611139297485,-0.009508361108601093,0.11058489978313446
0.04304003715515137,0.006603025831282139,-0.2262667417526245,-0.7176928520202637,-0.008542554453015327,0.11136537790298462
0.043040573596954346,0.006665858905762434,-0.22698689997196198,-0.7229245901107788,-0.007577842567116022,0.11214478313922882
0.04304162785410881,0.006728479638695717,-0.2277013510465622,-0.728156328201294,-0.006614235695451498,0.11292311549186707
0.04304340109229088,0.006790818180888891,-0.22841013967990875,-0.7333880662918091,-0.005651792511343956,0.11370059847831726
0.04304590821266174,0.00685284286737442,-0.22911328077316284,-0.7386198043823242,-0.004690506961196661,0.11447712779045105
0.043049152940511703,0.00691452668979764,-0.2298109084367752,-0.7438515424728394,-0.0037303881254047155,0.11525282263755798
0.04305313155055046,0.0069758472964167595,-0.23050308227539062,-0.7490832805633545,-0.00277142645791173,0.11602768301963806
0.04305783286690712,0.007036776747554541,-0.23118990659713745,-0.7543150782585144,-0.001813616487197578,0.11680172383785248
0.04306324943900108,0.007097289431840181,-0.23187141120433807,-0.7595469355583191,-0.0008569422643631697,0.1175750344991684
0.04306938126683235,0.007157360203564167,-0.23254768550395966,-0.7647788524627686,9.866254549706355e-05,0.11834754049777985
0.04307624697685242,0.007216967176645994,-0.23321877419948578,-0.7700108289718628,0.0010533469030633569,0.1191193163394928
0.043083883821964264,0.007276084739714861,-0.23388467729091644,-0.7752428650856018,0.0020072467159479856,0.1198904812335968
0.04309232532978058,0.007334691006690264,-0.23454543948173523,-0.7804749011993408,0.002960493555292487,0.1206609383225441
0.04310156777501106,0.007392763160169125,-0.23520101606845856,-0.7857069373130798,0.003913212567567825,0.12143079191446304
0.04311163350939751,0.007450281176716089,-0.23585151135921478,-0.7909390330314636,0.0048655192367732525,0.12219994515180588
0.04312252625823021,0.007507249712944031,-0.23649689555168152,-0.7961711287498474,0.005817493423819542,0.12296827137470245
0.043134260922670364,0.0075636692345142365,-0.23713724315166473,-0.8014032244682312,0.006769201718270779,0.12373574078083038
0.04314685985445976,0.007619546726346016,-0.2377726435661316,-0.806635320186615,0.007720704190433025,0.12450213730335236
0.0431603342294693,0.007674888242036104,-0.23840312659740448,-0.8118674159049988,0.00867205299437046,0.12526723742485046
0.043174706399440765,0.007729706820100546,-0.23902876675128937,-0.8170995116233826,0.009623290970921516,0.12603089213371277
0.04318998008966446,0.007784017827361822,-0.23964965343475342,-0.8223316073417664,0.010574454441666603,0.12679290771484375
0.04320615902543068,0.007837843149900436,-0.24026592075824738,-0.8275637030601501,0.011525578796863556,0.12755322456359863
0.04322323948144913,0.007891210727393627,-0.24087756872177124,-0.8327957987785339,0.012476678937673569,0.1283113956451416
0.0432412326335907,0.007944154553115368,-0.24148474633693695,-0.8380278944969177,0.01342777255922556,0.12906718254089355
0.0432601198554039,0.00799672119319439,-0.24208758771419525,-0.8432599902153015,0.014378857798874378,0.1298203468322754
0.04327990114688873,0.008048965595662594,-0.24268615245819092,-0.8484921455383301,0.015329939313232899,0.130570650100708
0.0433005727827549,0.008100953884422779,-0.24328064918518066,-0.8537243604660034,0.016280999407172203,0.1313176155090332
0.04332210123538971,0.008152768947184086,-0.24387113749980927,-0.8589565753936768,0.0172320194542408,0.13206076622009277
0.04334449768066406,0.008204495534300804,-0.24445776641368866,-0.8641888499259949,0.018182974308729172,0.13279986381530762
0.04336775094270706,0.00825614482164383,-0.24504072964191437,-0.869421124458313,0.01913386769592762,0.13353466987609863
0.043391890823841095,0.008307703770697117,-0.24562007188796997,-0.8746534585952759,0.02008470892906189,0.13426494598388672
0.04341692849993706,0.008359142579138279,-0.24619591236114502,-0.8798857927322388,0.021035488694906235,0.13499045372009277
0.04344288259744644,0.008410426788032055,-0.24676838517189026,-0.8851181864738464,0.02198619954288006,0.1357109546661377
0.04346979036927223,0.008461489342153072,-0.24733752012252808,-0.8903505802154541,0.022936856374144554,0.13642668724060059
0.04349767044186592,0.008512277156114578,-0.24790334701538086,-0.8955829739570618,0.023887483403086662,0.13713744282722473
0.043526481837034225,0.008562731556594372,-0.24846602976322174,-0.9008153676986694,0.02483813464641571,0.13784363865852356
0.04355619102716446,0.00861281156539917,-0.2490256279706955,-0.9060478210449219,0.025788849219679832,0.13854509592056274
0.043586742132902145,0.008662457577884197,-0.24958224594593048,-0.9112803339958191,0.026739664375782013,0.1392422318458557
0.04361811652779579,0.00871162861585617,-0.25013604760169983,-0.9165128469467163,0.02769060619175434,0.13993485271930695
0.04365028440952301,0.008760286495089531,-0.2506871223449707,-0.9217453598976135,0.028641698881983757,0.14062316715717316
0.04368320479989052,0.008808422833681107,-0.2512355446815491,-0.9269778728485107,0.029592955484986305,0.14130719006061554
0.04371684417128563,0.008856031112372875,-0.2517813444137573,-0.932210385799408,0.030544400215148926,0.1419869214296341
0.04375116527080536,0.00890311412513256,-0.252324640750885,-0.9374428987503052,0.03149602934718132,0.14266236126422882
0.04378614202141762,0.008949666284024715,-0.2528654932975769,-0.9426754117012024,0.032447874546051025,0.14333350956439972
0.04382176324725151,0.008995688520371914,-0.2534039318561554,-0.9479079246520996,0.03339993581175804,0.1440003663301468
0.04385799542069435,0.009041180834174156,-0.25394004583358765,-0.9531404376029968,0.034352224320173264,0.14466293156147003
0.04389483854174614,0.009086143225431442,-0.25447386503219604,-0.958372950553894,0.03530475124716759,0.14532120525836945
0.04393228143453598,0.009130575694143772,-0.25500550866127014,-0.9636054635047913,0.03625752404332161,0.14597494900226593
0.04397030174732208,0.009174484759569168,-0.25553491711616516,-0.9688379764556885,0.037210557609796524,0.14662419259548187
0.04400890693068504,0.009217871353030205,-0.25606223940849304,-0.9740704894065857,0.03816385194659233,0.14726890623569489
0.044048089534044266,0.009260735474526882,-0.2565874755382538,-0.9793030023574829,0.03911742940545082,0.14790906012058258
0.04408785328269005,0.009303079918026924,-0.25711068511009216,-0.9845355153083801,0.04007129743695259,0.14854447543621063
0.0441281832754612,0.009344900026917458,-0.25763192772865295,-0.9897680282592773,0.041025470942258835,0.14917533099651337
0.04416907578706741,0.009386198595166206,-0.25815120339393616,-0.9950005412101746,0.04197995364665985,0.14980144798755646
0.044210515916347504,0.009426970034837723,-0.258668452501297,-1.0002330541610718,0.04293475300073624,0.15042300522327423
0.044252511113882065,0.009467219933867455,-0.25918370485305786,-1.0054649114608765,0.04388989880681038,0.15103979408740997
0.0442950502038002,0.009506944566965103,-0.2596970200538635,-1.0106967687606812,0.044845398515462875,0.15165181457996368
0.044338125735521317,0.00954615231603384,-0.260208398103714,-1.0159286260604858,0.04580126330256462,0.15225906670093536
0.04438173770904541,0.00958484411239624,-0.2607177495956421,-1.0211604833602905,0.04675750806927681,0.1528613418340683
0.04442587494850159,0.009623026475310326,-0.2612251937389374,-1.0263923406600952,0.047714151442050934,0.15345881879329681
0.04447053745388985,0.00966070219874382,-0.26173073053359985,-1.0316241979599,0.04867120087146759,0.1540512889623642
0.04451573267579079,0.009697879664599895,-0.26223427057266235,-1.0368560552597046,0.04962868243455887,0.15463875234127045
0.044561438262462616,0.009734565392136574,-0.26273590326309204,-1.0420879125595093,0.05058660730719566,0.15522120893001556
0.04460765793919563,0.009770771488547325,-0.26323550939559937,-1.047319769859314,0.05154499411582947,0.15579845011234283
0.04465440660715103,0.009806482121348381,-0.2637331783771515,-1.0525516271591187,0.05250385403633118,0.15637065470218658
0.04470169171690941,0.009841705672442913,-0.26422885060310364,-1.0577834844589233,0.05346319451928139,0.1569376289844513
0.04474952444434166,0.009876437485218048,-0.264722615480423,-1.063015341758728,0.05442303791642189,0.15749934315681458
0.04479793831706047,0.009910671040415764,-0.2652144730091095,-1.0682471990585327,0.05538341403007507,0.15805581212043762
0.044846948236227036,0.009944390505552292,-0.2657044231891632,-1.0734790563583374,0.05634433403611183,0.15860679745674133
0.04489659145474434,0.009977583773434162,-0.2661925256252289,-1.078710913658142,0.057305846363306046,0.1591522991657257
0.04494687169790268,0.010010209865868092,-0.2666788101196289,-1.0839427709579468,0.05826795846223831,0.15969257056713104
0.04499782621860504,0.010042169131338596,-0.2671631872653961,-1.0891746282577515,0.059230681508779526,0.16022926568984985
0.04504949226975441,0.010073427110910416,-0.26764583587646484,-1.0944064855575562,0.06019407883286476,0.16076309978961945
0.04510188102722168,0.010103873908519745,-0.26812678575515747,-1.0996383428573608,0.061158355325460434,0.16129525005817413
0.04515507072210312,0.010133398696780205,-0.26860612630844116,-1.1048702001571655,0.062123801559209824,0.1618259698152542
0.045209094882011414,0.010161876678466797,-0.26908397674560547,-1.1101020574569702,0.06309068948030472,0.16235600411891937
0.045264020562171936,0.010189230553805828,-0.2695603370666504,-1.115333914756775,0.0640593096613884,0.16288556158542633
0.04531994089484215,0.010215396992862225,-0.27003517746925354,-1.1205657720565796,0.0650300607085228,0.1634148806333542
0.045376941561698914,0.010240348055958748,-0.27050837874412537,-1.1257976293563843,0.06600327044725418,0.16394416987895966
0.04543507844209671,0.010264046490192413,-0.27098003029823303,-1.131029486656189,0.06697902083396912,0.16447345912456512
0.04549439251422882,0.010286479257047176,-0.27145010232925415,-1.1362613439559937,0.06795740127563477,0.16500255465507507
0.04555490240454674,0.010307620279490948,-0.27191853523254395,-1.1414932012557983,0.06893850117921829,0.16553184390068054
0.045616619288921356,0.01032746396958828,-0.27238544821739197,-1.146725058555603,0.06992236524820328,0.166061133146286
0.045679546892642975,0.01034601405262947,-0.2728508710861206,-1.1519569158554077,0.0709090605378151,0.16659042239189148
0.04574369266629219,0.010363280773162842,-0.2733147442340851,-1.1571887731552124,0.07189861685037613,0.16711974143981934
0.045809052884578705,0.010379274375736713,-0.2737770080566406,-1.162420630455017,0.07289110124111176,0.1676492691040039
0.045875634998083115,0.010394013486802578,-0.2742377519607544,-1.1676524877548218,0.07388651371002197,0.16817879676818848
0.04594343900680542,0.010407510213553905,-0.2746970057487488,-1.1728843450546265,0.07488495111465454,0.16870835423469543
0.04601248353719711,0.010419785045087337,-0.275154709815979,-1.1781162023544312,0.07588643580675125,0.1692381203174591
0.04608277603983879,0.010430853813886642,-0.2756107747554779,-1.1833480596542358,0.07689102739095688,0.16976791620254517
0.04615433141589165,0.010440735146403313,-0.27606526017189026,-1.1885799169540405,0.07789883017539978,0.17029792070388794
0.04622717946767807,0.010449450463056564,-0.2765180468559265,-1.1938117742538452,0.07890994846820831,0.1708279550075531
0.04630134254693985,0.010457022115588188,-0.27696913480758667,-1.19904363155365,0.07992447167634964,0.17135819792747498
0.046376872807741165,0.010463475249707699,-0.27741843461990356,-1.2042754888534546,0.08094260841608047,0.17188867926597595
0.04645382612943649,0.010468837805092335,-0.27786576747894287,-1.2095073461532593,0.08196455240249634,0.17241939902305603
0.046532269567251205,0.010473119094967842,-0.27831101417541504,-1.214739203453064,0.08299046754837036,0.1729503870010376
0.04661222919821739,0.010476285591721535,-0.27875417470932007,-1.2199710607528687,0.08402043581008911,0.17348185181617737
0.04669373482465744,0.010478257201611996,-0.279195100069046,-1.2252029180526733,0.08505459129810333,0.17401400208473206
0.046776823699474335,0.010478914715349674,-0.2796338200569153,-1.230434775352478,0.08609309792518616,0.17454689741134644
0.04686155170202255,0.010478748939931393,-0.28007039427757263,-1.2356666326522827,0.08713605254888535,0.17508095502853394
0.046948015689849854,0.010477221570909023,-0.2805042862892151,-1.2408984899520874,0.08818377554416656,0.17561739683151245
0.04703635349869728,0.010473816655576229,-0.28093570470809937,-1.246130347251892,0.08923672139644623,0.17615503072738647
0.04712657630443573,0.010467949323356152,-0.28136447072029114,-1.2513622045516968,0.09029512107372284,0.17669552564620972
0.04721876233816147,0.010459467768669128,-0.2817906439304352,-1.2565940618515015,0.0913592129945755,0.17723816633224487
0.04731285944581032,0.01044830959290266,-0.28221434354782104,-1.2618259191513062,0.09242890030145645,0.17778322100639343
0.04740888625383377,0.010434509254992008,-0.28263553977012634,-1.2670581340789795,0.09350422024726868,0.1783304214477539
0.04750683158636093,0.01041806023567915,-0.28305432200431824,-1.2722904682159424,0.0945851132273674,0.178879976272583
0.0476067028939724,0.0103989839553833,-0.28347066044807434,-1.2775229215621948,0.09567156434059143,0.17943167686462402
0.04770848900079727,0.01037728413939476,-0.2838846445083618,-1.2827553749084473,0.09676354378461838,0.17998552322387695
0.047812215983867645,0.010352973826229572,-0.28429630398750305,-1.2879878282546997,0.09786105155944824,0.18054130673408508
0.04791788384318352,0.010326064191758633,-0.28470563888549805,-1.2932202816009521,0.09896403551101685,0.18109920620918274
0.04802553355693817,0.010296610184013844,-0.2851126492023468,-1.2984527349472046,0.1000724658370018,0.1816585659980774
0.04813522472977638,0.010264698415994644,-0.2855174243450165,-1.303685188293457,0.10118626058101654,0.18221935629844666
0.04824702814221382,0.010230419225990772,-0.2859198749065399,-1.3089176416397095,0.1023053526878357,0.18278130888938904
0.048361022025346756,0.01019385177642107,-0.2863200902938843,-1.3141502141952515,0.10342967510223389,0.18334421515464783
0.04847729206085205,0.010155065916478634,-0.2867179811000824,-1.3193827867507935,0.10455915331840515,0.1839076280593872
0.048595886677503586,0.010114124976098537,-0.2871135175228119,-1.3246153593063354,0.1056937426328659,0.1844714879989624
0.04871685802936554,0.010071085765957832,-0.28750669956207275,-1.3298479318618774,0.10683340579271317,0.1850356012582779
0.04884018376469612,0.010026019997894764,-0.2878975570201874,-1.3350805044174194,0.10797812789678574,0.1855999380350113
0.04896588250994682,0.009978988207876682,-0.28828611969947815,-1.3403130769729614,0.10912789404392242,0.1861645132303238
0.04909395053982735,0.009930056519806385,-0.2886722981929779,-1.3455456495285034,0.11028271913528442,0.18672911822795868
0.049224380403757095,0.009879284538328648,-0.28905612230300903,-1.3507782220840454,0.11144258826971054,0.18729393184185028
0.049357157200574875,0.00982673279941082,-0.28943759202957153,-1.3560107946395874,0.11260752379894257,0.18785874545574188
0.049492280930280685,0.009772463701665401,-0.28981679677963257,-1.361243486404419,0.1137775257229805,0.18842355906963348
0.04962973669171333,0.009716539643704891,-0.29019367694854736,-1.3664761781692505,0.11495264619588852,0.18898816406726837
0.04976951330900192,0.009659032337367535,-0.2905682325363159,-1.3717089891433716,0.11613286286592484,0.18955273926258087
0.04991159215569496,0.009600016288459301,-0.29094043374061584,-1.3769418001174927,0.11731821298599243,0.19011713564395905
0.05005595460534096,0.009539577178657055,-0.2913103699684143,-1.3821747303009033,0.1185087114572525,0.19068147242069244
0.050202567130327225,0.00947781465947628,-0.2916780114173889,-1.387407660484314,0.11970438063144684,0.19124560058116913
0.05035141482949257,0.0094148525968194,-0.2920434772968292,-1.3926405906677246,0.12090525031089783,0.19180969893932343
0.050502438098192215,0.009350852109491825,-0.2924065887928009,-1.3978735208511353,0.12211135029792786,0.19237379729747772
0.05065557733178139,0.009286008775234222,-0.29276740550994873,-1.403106451034546,0.12332263588905334,0.19293813407421112
0.0508107952773571,0.009220528416335583,-0.29312586784362793,-1.4083393812179565,0.12453899532556534,0.193502739071846
0.05096804350614548,0.009154634550213814,-0.2934819757938385,-1.4135724306106567,0.1257602572441101,0.1940680295228958
0.05112728103995323,0.009088591672480106,-0.29383599758148193,-1.418805480003357,0.12698617577552795,0.1946340650320053
0.051288411021232605,0.009022708982229233,-0.29418808221817017,-1.4240386486053467,0.12821638584136963,0.19520126283168793
0.051451344043016434,0.00895736739039421,-0.2945386469364166,-1.4292718172073364,0.12945033609867096,0.19576989114284515
0.05161597579717636,0.008893044665455818,-0.29488810896873474,-1.4345051050186157,0.13068725168704987,0.1963404268026352
0.05178215354681015,0.008830342441797256,-0.29523715376853943,-1.439738392829895,0.13192632794380188,0.19691358506679535
0.05194965377449989,0.008770049549639225,-0.29558661580085754,-1.4449716806411743,0.1331663578748703,0.19749008119106293
0.052118293941020966,0.008712740615010262,-0.295937180519104,-1.4502049684524536,0.1344064325094223,0.19807086884975433
0.052288029342889786,0.008658463135361671,-0.29628893733024597,-1.455438256263733,0.13564671576023102,0.19865597784519196
0.05245884507894516,0.008607231080532074,-0.2966420352458954,-1.4606715440750122,0.13688702881336212,0.19924558699131012
0.0526307038962841,0.008559041656553745,-0.29699641466140747,-1.4659048318862915,0.13812749087810516,0.1998397260904312
0.05280361697077751,0.008513929322361946,-0.29735198616981506,-1.4711382389068604,0.1393679529428482,0.20043839514255524
0.052977554500103,0.008471901528537273,-0.2977088987827301,-1.4763716459274292,0.14060840010643005,0.2010418325662613
0.05315251648426056,0.008432985283434391,-0.2980670928955078,-1.481605052947998,0.14184868335723877,0.20164982974529266
0.053328484296798706,0.008397198282182217,-0.29842665791511536,-1.486838459968567,0.1430889517068863,0.20226280391216278
0.053505461663007736,0.00836456660181284,-0.2987874448299408,-1.4920718669891357,0.1443289965391159,0.20288057625293732
0.05368341878056526,0.008335103280842304,-0.29914960265159607,-1.4973052740097046,0.1455688178539276,0.2035035640001297
0.053862374275922775,0.008308829739689827,-0.2995131015777588,-1.5025386810302734,0.14680854976177216,0.20413155853748322
0.054042328149080276,0.008285759948194027,-0.29987797141075134,-1.5077720880508423,0.14804810285568237,0.20476482808589935
0.05422326549887657,0.008265926502645016,-0.3002440333366394,-1.5130054950714111,0.14928743243217468,0.20540355145931244
0.05440519005060196,0.008249365724623203,-0.3006114661693573,-1.51823890209198,0.15052653849124908,0.20604778826236725
0.05458809435367584,0.008236088789999485,-0.30098021030426025,-1.5234723091125488,0.15176555514335632,0.2066977471113205
0.05477200448513031,0.008226080797612667,-0.30135029554367065,-1.5287057161331177,0.15300434827804565,0.2073536366224289
0.05495695769786835,0.008219319395720959,-0.3017215430736542,-1.5339391231536865,0.1542428880929947,0.20801548659801483
0.05514298006892204,0.008215777575969696,-0.30209407210350037,-1.5391725301742554,0.15548104047775269,0.2086832970380783
0.05533010512590408,0.008215253241360188,-0.3024677634239197,-1.5444059371948242,0.15671893954277039,0.20935730636119843
0.05551832541823387,0.008217085152864456,-0.3028426468372345,-1.549639344215393,0.15795636177062988,0.21003703773021698
0.055707648396492004,0.008221893571317196,-0.3032189607620239,-1.554872751235962,0.1591932475566864,0.21072296798229218
0.05589815601706505,0.008229768835008144,-0.3035964369773865,-1.5601061582565308,0.1604296714067459,0.2114156037569046
0.05608995631337166,0.00824071280658245,-0.30397501587867737,-1.5653395652770996,0.16166545450687408,0.21211488544940948
0.056283093988895416,0.008254658430814743,-0.3043546974658966,-1.5705729722976685,0.16290074586868286,0.2128210812807083
0.0564776249229908,0.00827158335596323,-0.3047354221343994,-1.5758063793182373,0.16413532197475433,0.2135344296693802
0.05667363479733467,0.008291424252092838,-0.30511710047721863,-1.5810397863388062,0.1653691828250885,0.2142549604177475
0.05687117204070091,0.008314168080687523,-0.305499792098999,-1.586273193359375,0.16660232841968536,0.21498285233974457
0.057070277631282806,0.008339799009263515,-0.3058834373950958,-1.5915066003799438,0.16783452033996582,0.2157183736562729
0.05727099999785423,0.008368317037820816,-0.3062680959701538,-1.5967400074005127,0.16906583309173584,0.21646130084991455
0.05747338756918907,0.00839971099048853,-0.3066537082195282,-1.6019734144210815,0.17029611766338348,0.21721187233924866
0.057677485048770905,0.008433976210653782,-0.3070403039455414,-1.6072068214416504,0.17152538895606995,0.21797028183937073
0.057883359491825104,0.008471112698316574,-0.3074280023574829,-1.6124402284622192,0.1727534383535385,0.21873655915260315
0.05809105932712555,0.00851112324744463,-0.30781683325767517,-1.617673635482788,0.17398014664649963,0.21951070427894592
0.05830064415931702,0.0085540059953928,-0.3082067370414734,-1.6229071617126465,0.17520543932914734,0.22029271721839905
0.05851217731833458,0.008599765598773956,-0.3085978329181671,-1.6281406879425049,0.17642927169799805,0.22108283638954163
0.058725714683532715,0.008648405782878399,-0.3089900612831116,-1.6333742141723633,0.17765146493911743,0.22188106179237366
0.058941327035427094,0.008699932135641575,-0.3093835711479187,-1.6386077404022217,0.17887195944786072,0.22268739342689514
0.05915907397866249,0.008754349313676357,-0.3097783327102661,-1.64384126663208,0.18009057641029358,0.22350206971168518
0.059379030019044876,0.008811668492853642,-0.3101743757724762,-1.6490747928619385,0.18130728602409363,0.22432509064674377
0.05960125848650932,0.008871900849044323,-0.3105717599391937,-1.6543083190917969,0.18252184987068176,0.22515645623207092
0.05982581898570061,0.008935060352087021,-0.3109705150127411,-1.6595418453216553,0.18373426795005798,0.22599640488624573
0.0600527785718441,0.009001164697110653,-0.3113706707954407,-1.6647753715515137,0.18494433164596558,0.2268449366092682
0.06028221547603607,0.009070238098502159,-0.31177225708961487,-1.670008897781372,0.18615201115608215,0.2277020514011383
0.060514144599437714,0.009142286144196987,-0.31217527389526367,-1.6752424240112305,0.18735724687576294,0.22856798768043518
0.06074851006269455,0.009217297658324242,-0.3125797510147095,-1.6804759502410889,0.18855984508991241,0.229442298412323
0.060985226184129715,0.009295289404690266,-0.31298568844795227,-1.6857094764709473,0.18975965678691864,0.23032492399215698
0.06122417375445366,0.009376291185617447,-0.3133932650089264,-1.6909430027008057,0.19095660746097565,0.23121565580368042
0.06146520748734474,0.00946035422384739,-0.31380245089530945,-1.696176528930664,0.19215069711208344,0.2321142554283142
0.06170814111828804,0.009547552093863487,-0.3142131567001343,-1.7014100551605225,0.1933419108390808,0.23302048444747925
0.061952751129865646,0.009637990035116673,-0.3146253526210785,-1.7066435813903809,0.19453026354312897,0.23393410444259644
0.062198713421821594,0.009731815196573734,-0.3150389790534973,-1.7118771076202393,0.1957157552242279,0.23485511541366577
0.06244560703635216,0.009829246439039707,-0.3154539167881012,-1.7171106338500977,0.1968984752893448,0.23578304052352905
0.06269285082817078,0.009930580854415894,-0.31586989760398865,-1.7223440408706665,0.19807860255241394,0.23671765625476837
0.0629395917057991,0.010036244988441467,-0.31628650426864624,-1.7275774478912354,0.19925633072853088,0.23765893280506134
0.06318463385105133,0.010146835818886757,-0.31670334935188293,-1.7328107357025146,0.20043198764324188,0.23860640823841095
0.06342720985412598,0.010262856259942055,-0.3171200454235077,-1.738044023513794,0.20160582661628723,0.23955963551998138
0.06366706639528275,0.01038447767496109,-0.31753650307655334,-1.7432773113250732,0.20277781784534454,0.24051879346370697
0.06390412151813507,0.010511697269976139,-0.3179526627063751,-1.7485105991363525,0.20394788682460785,0.2414834350347519
0.06413833796977997,0.010644469410181046,-0.3183686137199402,-1.7537438869476318,0.2051158845424652,0.24245356023311615
0.06436966359615326,0.01078274380415678,-0.31878435611724854,-1.7589771747589111,0.20628173649311066,0.24342893064022064
0.06459808349609375,0.010926466435194016,-0.3192000985145569,-1.7642104625701904,0.20744533836841583,0.24440930783748627
0.06482355296611786,0.011075572110712528,-0.31961584091186523,-1.7694437503814697,0.20860655605793,0.24539469182491302
0.06504606455564499,0.011229992844164371,-0.32003161311149597,-1.7746771574020386,0.2097652405500412,0.24638484418392181
0.06526564806699753,0.011389663442969322,-0.32044750452041626,-1.7799105644226074,0.2109212726354599,0.24737952649593353
0.06548231095075607,0.011554510332643986,-0.3208636939525604,-1.7851439714431763,0.21207454800605774,0.24837873876094818
0.0656961128115654,0.011724459007382393,-0.321280300617218,-1.7903773784637451,0.21322493255138397,0.24938224256038666
0.0659070834517479,0.011899434030056,-0.3216973841190338,-1.7956109046936035,0.21437235176563263,0.25038981437683105
0.06611527502536774,0.012079364620149136,-0.3221149742603302,-1.800844430923462,0.21551665663719177,0.2514016628265381
0.0663207545876503,0.012264170683920383,-0.32253336906433105,-1.8060779571533203,0.21665771305561066,0.25241732597351074
0.06652365624904633,0.012453786097466946,-0.322952538728714,-1.8113114833831787,0.21779538691043854,0.2534363567829132
0.06672403961420059,0.012648144736886024,-0.3233726918697357,-1.816545009613037,0.21892960369586945,0.2544591724872589
0.06692197918891907,0.01284718792885542,-0.3237939476966858,-1.8217785358428955,0.22006016969680786,0.25548580288887024
0.0671176090836525,0.013050861656665802,-0.32421648502349854,-1.827012062072754,0.22118701040744781,0.256515771150589
0.06731108576059341,0.013259110040962696,-0.3246404528617859,-1.8322455883026123,0.22230999171733856,0.25754907727241516
0.06750250607728958,0.013471879996359348,-0.325065940618515,-1.8374791145324707,0.22342896461486816,0.25858572125434875
0.06769195199012756,0.013689151033759117,-0.32549312710762024,-1.842712640762329,0.2245437353849411,0.25962522625923157
0.06787945330142975,0.013910936191678047,-0.3259221315383911,-1.8479461669921875,0.22565408051013947,0.2606675922870636
0.0680651068687439,0.014137259684503078,-0.32635298371315,-1.853179693222046,0.22675980627536774,0.26171281933784485
0.0682489424943924,0.014368156902492046,-0.32678577303886414,-1.8584132194519043,0.2278607189655304,0.2627604305744171
0.06843101233243942,0.014603637158870697,-0.32722052931785583,-1.8636467456817627,0.2289566695690155,0.2638099491596222
0.06861130148172379,0.014843623153865337,-0.32765719294548035,-1.868880271911621,0.23004773259162903,0.2648613750934601
0.06878971308469772,0.015088003128767014,-0.3280957043170929,-1.8741137981414795,0.2311338633298874,0.2659147083759308
0.06896611303091049,0.01533668301999569,-0.3285360336303711,-1.879347324371338,0.23221512138843536,0.2669694721698761
0.06914031505584717,0.015589533373713493,-0.3289780914783478,-1.8845808506011963,0.23329153656959534,0.268025666475296
0.06931222230195999,0.015846405178308487,-0.32942184805870056,-1.8898143768310547,0.23436327278614044,0.26908281445503235
0.06948167085647583,0.016107143834233284,-0.32986724376678467,-1.895047903060913,0.23543037474155426,0.2701409161090851
0.06964849680662155,0.016371598467230797,-0.33031415939331055,-1.9002814292907715,0.23649294674396515,0.271199494600296
0.06981255859136581,0.01663961447775364,-0.33076250553131104,-1.9055149555206299,0.23755110800266266,0.27225807309150696
0.06997364014387131,0.016911037266254425,-0.33121222257614136,-1.9107484817504883,0.23860493302345276,0.27331677079200745
0.0701315850019455,0.017185715958476067,-0.33166319131851196,-1.9159820079803467,0.23965449631214142,0.2743753492832184
0.07028616964817047,0.01746349409222603,-0.3321153521537781,-1.921215534210205,0.2406998872756958,0.2754334509372711
0.07043717801570892,0.017744222655892372,-0.33256858587265015,-1.9264490604400635,0.24174116551876068,0.27649107575416565
0.07058442384004593,0.018027761951088905,-0.3330228924751282,-1.9316825866699219,0.24277839064598083,0.2775477468967438
0.07072771340608597,0.01831398531794548,-0.333478182554245,-1.9369161128997803,0.24381159245967865,0.2786029875278473
0.0708669051527977,0.018602794036269188,-0.3339344263076782,-1.9421496391296387,0.2448408603668213,0.2796567976474762
0.07100188732147217,0.01889408938586712,-0.33439159393310547,-1.947383165359497,0.24586620926856995,0.2807087004184723
0.07113253325223923,0.019187772646546364,-0.33484968543052673,-1.9526166915893555,0.2468877136707306,0.28175869584083557
0.07125876098871231,0.019483743235468864,-0.33530864119529724,-1.9578502178192139,0.24790538847446442,0.28280678391456604
0.07138044387102127,0.019781898707151413,-0.335768461227417,-1.9630837440490723,0.248919278383255,0.2838524878025055
0.07149746268987656,0.020082121714949608,-0.33622902631759644,-1.9683172702789307,0.24992938339710236,0.28489580750465393
0.071609728038311,0.0203842893242836,-0.33669036626815796,-1.973550796508789,0.2509356737136841,0.2859363257884979
0.07171713560819626,0.020688265562057495,-0.33715251088142395,-1.9787843227386475,0.251938134431839,0.2869739830493927
0.07181955873966217,0.0209939144551754,-0.33761537075042725,-1.9840178489685059,0.2529366910457611,0.2880087196826935
0.07191687077283859,0.02130110189318657,-0.33807897567749023,-1.9892513751983643,0.2539312541484833,0.28904011845588684
0.07200896739959717,0.021609678864479065,-0.33854326605796814,-1.9944849014282227,0.2549217939376831,0.2900681793689728
0.07209573686122894,0.021919500082731247,-0.3390083312988281,-1.999718427658081,0.25590816140174866,0.29109248518943787
0.07217704504728317,0.02223041094839573,-0.3394741415977478,-2.0049517154693604,0.25689026713371277,0.29211339354515076
0.07225276529788971,0.022542249411344528,-0.33994075655937195,-2.0101850032806396,0.2578679323196411,0.2931300103664398
0.07232275605201721,0.022854849696159363,-0.34040817618370056,-2.015418291091919,0.25884103775024414,0.29414281249046326
0.07238682359457016,0.02316802367568016,-0.34087643027305603,-2.0206515789031982,0.25980955362319946,0.29515084624290466
0.07244474440813065,0.023481572046875954,-0.34134548902511597,-2.0258848667144775,0.2607734799385071,0.29615411162376404
0.07249622046947479,0.023795291781425476,-0.3418152928352356,-2.031118154525757,0.2617327570915222,0.29715171456336975
0.07254098355770111,0.024109002202749252,-0.3422858715057373,-2.036351442337036,0.2626872658729553,0.29814353585243225
0.07257883250713348,0.024422602728009224,-0.3427572548389435,-2.0415847301483154,0.2636371850967407,0.2991291880607605
0.07260961830615997,0.02473602257668972,-0.3432294428348541,-2.0468180179595947,0.26458263397216797,0.3001086413860321
0.07263322174549103,0.025049209594726562,-0.34370243549346924,-2.052051305770874,0.2655237317085266,0.3010818660259247
0.07264957576990128,0.025362102314829826,-0.3441762626171112,-2.0572845935821533,0.2664605975151062,0.30204856395721436
0.07265865057706833,0.025674639269709587,-0.34465089440345764,-2.0625178813934326,0.2673933506011963,0.303008496761322
0.07266048341989517,0.02598676271736622,-0.34512630105018616,-2.067751169204712,0.26832208037376404,0.30396169424057007
0.07265640050172806,0.026298420503735542,-0.34560248255729675,-2.072984457015991,0.2692469358444214,0.30490821599960327
0.07264576107263565,0.026609499007463455,-0.3460792899131775,-2.0782177448272705,0.27016782760620117,0.30584853887557983
0.07262791693210602,0.026920052245259285,-0.34655681252479553,-2.08345103263855,0.27108490467071533,0.30678123235702515
0.07260264456272125,0.027229996398091316,-0.34703493118286133,-2.088684320449829,0.27199819684028625,0.3077072501182556
0.0725698471069336,0.027539342641830444,-0.34751367568969727,-2.0939176082611084,0.2729077637195587,0.30862563848495483
0.07252945750951767,0.027848025783896446,-0.34799304604530334,-2.0991508960723877,0.2738136053085327,0.309536874294281
0.07248144596815109,0.02815604954957962,-0.34847310185432434,-2.104384183883667,0.2747156322002411,0.3104404807090759
0.07242576032876968,0.028463365510106087,-0.3489537835121155,-2.1096174716949463,0.27561381459236145,0.3113369345664978
0.07236236333847046,0.028769981116056442,-0.3494352102279663,-2.1148507595062256,0.2765078544616699,0.31222623586654663
0.07229121774435043,0.029075881466269493,-0.3499174118041992,-2.120084047317505,0.2773975133895874,0.3131088614463806
0.0722123458981514,0.02938108891248703,-0.3504006266593933,-2.125317335128784,0.27828240394592285,0.31398433446884155
0.07212574034929276,0.02968561463057995,-0.3508850038051605,-2.1305508613586426,0.2791620194911957,0.31485360860824585
0.07203148305416107,0.029989497736096382,-0.35137075185775757,-2.135784387588501,0.28003567457199097,0.3157166838645935
0.07192958891391754,0.030292684212327003,-0.3518580198287964,-2.1410179138183594,0.28090333938598633,0.3165740370750427
0.07182007282972336,0.03059513308107853,-0.35234683752059937,-2.1462514400482178,0.28176507353782654,0.3174251914024353
0.07170289009809494,0.030896790325641632,-0.35283714532852173,-2.151484966278076,0.28262078762054443,0.318270206451416
0.07157811522483826,0.031197598204016685,-0.35332897305488586,-2.1567184925079346,0.28347066044807434,0.3191094398498535
0.07144592702388763,0.031497422605752945,-0.3538222908973694,-2.161952018737793,0.2843148708343506,0.3199429512023926
0.07130651921033859,0.03179612383246422,-0.3543170988559723,-2.1671855449676514,0.28515350818634033,0.3207707405090332
0.07116007059812546,0.03209357336163521,-0.3548133969306946,-2.1724190711975098,0.2859867513179779,0.32159292697906494
0.07100673019886017,0.03238963708281517,-0.35531118512153625,-2.177652597427368,0.2868146002292633,0.3224097490310669
0.07084653526544571,0.03268415480852127,-0.35581040382385254,-2.1828861236572266,0.28763723373413086,0.3232218027114868
0.07067949324846268,0.032976970076560974,-0.3563111126422882,-2.188119649887085,0.28845474123954773,0.3240295648574829
0.0705055519938469,0.03326793015003204,-0.3568132519721985,-2.1933531761169434,0.28926709294319153,0.3248330354690552
0.07032471895217896,0.03355688229203224,-0.35731685161590576,-2.1985867023468018,0.29007428884506226,0.3256322145462036
0.07013698667287827,0.03384370729327202,-0.35782185196876526,-2.20382022857666,0.2908763885498047,0.3264275789260864
0.0699424147605896,0.03412829712033272,-0.3583282232284546,-2.2090537548065186,0.29167336225509644,0.3272187411785126
0.06974101066589355,0.03441052883863449,-0.35883596539497375,-2.214287281036377,0.29246512055397034,0.32800647616386414
0.0695328414440155,0.03469032421708107,-0.3593449890613556,-2.2195208072662354,0.2932514548301697,0.3287903964519501
0.0693180188536644,0.0349675677716732,-0.35985514521598816,-2.2247543334960938,0.29403233528137207,0.3295705020427704
0.0690966472029686,0.035242173820734024,-0.3603664040565491,-2.229987859725952,0.2948075532913208,0.3303467929363251
0.06886886060237885,0.03551404923200607,-0.36087852716445923,-2.2352213859558105,0.295576810836792,0.3311188519001007
0.06863521784543991,0.03578317165374756,-0.36139142513275146,-2.240454912185669,0.29634010791778564,0.33188751339912415
0.06839768588542938,0.03604976460337639,-0.36190441250801086,-2.2456884384155273,0.29709771275520325,0.33265379071235657
0.06815874576568604,0.03631410375237465,-0.3624165952205658,-2.2509219646453857,0.2978500723838806,0.3334191143512726
0.0679204985499382,0.03657641261816025,-0.3629271984100342,-2.2561557292938232,0.29859742522239685,0.3341849148273468
0.0676845908164978,0.03683687373995781,-0.3634353578090668,-2.2613894939422607,0.29933977127075195,0.3349511921405792
0.06745222955942154,0.037095580250024796,-0.36394062638282776,-2.2666232585906982,0.3000768721103668,0.33571842312812805
0.06722443550825119,0.037352610379457474,-0.36444252729415894,-2.2718570232391357,0.30080854892730713,0.3364861309528351
0.06700203567743301,0.03760802373290062,-0.3649405539035797,-2.2770907878875732,0.3015344738960266,0.3372547924518585
0.0667857825756073,0.037861861288547516,-0.3654341995716095,-2.2823245525360107,0.30225422978401184,0.33802393078804016
0.06657633930444717,0.03811414912343025,-0.36592310667037964,-2.2875583171844482,0.3029673099517822,0.3387930691242218
0.06637430191040039,0.03836491331458092,-0.36640676856040955,-2.2927920818328857,0.3036731779575348,0.33956220746040344
0.0661802589893341,0.03861420601606369,-0.36688488721847534,-2.2980258464813232,0.30437105894088745,0.3403303921222687
0.06599465757608414,0.03886213153600693,-0.36735713481903076,-2.3032596111297607,0.30506056547164917,0.3410976231098175
0.06581764668226242,0.03910878673195839,-0.3678233325481415,-2.3084933757781982,0.3057418167591095,0.3418639004230499
0.06564915925264359,0.03935423120856285,-0.3682836592197418,-2.3137271404266357,0.30641528964042664,0.34262970089912415
0.06548912823200226,0.03959847614169121,-0.36873799562454224,-2.3189609050750732,0.3070811331272125,0.3433946371078491
0.06533745676279068,0.039841532707214355,-0.36918649077415466,-2.3241946697235107,0.3077394664287567,0.34415948390960693
0.06519408524036407,0.04008340463042259,-0.3696291148662567,-2.3294284343719482,0.30839064717292786,0.34492433071136475
0.06505894660949707,0.040324073284864426,-0.370065838098526,-2.3346621990203857,0.3090350329875946,0.34568917751312256
0.0649319589138031,0.04056350514292717,-0.3704967498779297,-2.3398959636688232,0.3096727430820465,0.34645402431488037
0.06481306254863739,0.040801696479320526,-0.3709219694137573,-2.3451297283172607,0.3103038966655731,0.34721922874450684
0.0647020936012268,0.041038669645786285,-0.3713414669036865,-2.3503634929656982,0.3109288215637207,0.34798455238342285
0.064598947763443,0.041274428367614746,-0.37175533175468445,-2.3555972576141357,0.31154778599739075,0.34875035285949707
0.064503513276577,0.041508954018354416,-0.37216365337371826,-2.3608310222625732,0.31216078996658325,0.3495166301727295
0.06441570818424225,0.0417422391474247,-0.37256643176078796,-2.3660647869110107,0.3127681612968445,0.3502833843231201
0.0643354207277298,0.04197431355714798,-0.3729637861251831,-2.3712985515594482,0.31337007880210876,0.3510506749153137
0.06426247954368591,0.042205240577459335,-0.3733558654785156,-2.3765323162078857,0.3139667212963104,0.35181885957717896
0.06419673562049866,0.042435042560100555,-0.37374281883239746,-2.3817660808563232,0.3145581781864166,0.3525875210762024
0.06413804739713669,0.04266376793384552,-0.37412482500076294,-2.3869996070861816,0.31514468789100647,0.35335665941238403
0.06408624351024628,0.042891453951597214,-0.3745019733905792,-2.39223313331604,0.31572622060775757,0.3541262745857239
0.06404122710227966,0.04311813414096832,-0.3748745024204254,-2.3974666595458984,0.3163031041622162,0.3548968434333801
0.06400281935930252,0.043343864381313324,-0.37524253129959106,-2.402700185775757,0.3168753981590271,0.3556678891181946
0.06397091597318649,0.0435686819255352,-0.3756062388420105,-2.4079337120056152,0.31744304299354553,0.35643941164016724
0.06394537538290024,0.043792642652988434,-0.3759657144546509,-2.4131672382354736,0.31800639629364014,0.35721147060394287
0.06392606347799301,0.04401576891541481,-0.37632113695144653,-2.418400764465332,0.3185654580593109,0.35798442363739014
0.06391286849975586,0.04423810541629791,-0.37667256593704224,-2.4236342906951904,0.31912022829055786,0.3587578535079956
0.06390567868947983,0.04445969685912132,-0.3770201802253723,-2.428867816925049,0.3196708858013153,0.3595322370529175
0.0639043003320694,0.04468056932091713,-0.37736400961875916,-2.4341013431549072,0.3202175498008728,0.36030709743499756
0.06390753388404846,0.04490072652697563,-0.3777042627334595,-2.4393348693847656,0.3207601308822632,0.36108243465423584
0.06391598284244537,0.04512031376361847,-0.37804102897644043,-2.444568395614624,0.3212987780570984,0.3618582487106323
0.06392999738454819,0.045339275151491165,-0.3783743381500244,-2.4498019218444824,0.32183369994163513,0.3626350164413452
0.06394951045513153,0.04555768892168999,-0.3787044286727905,-2.455035448074341,0.32236480712890625,0.3634122610092163
0.06397444009780884,0.04577568918466568,-0.3790314197540283,-2.460268974304199,0.3228919208049774,0.3641899824142456
0.06400468945503235,0.045993417501449585,-0.3793554902076721,-2.4655025005340576,0.3234149217605591,0.3649677634239197
0.06404019147157669,0.04621102288365364,-0.37967702746391296,-2.470736026763916,0.32393375039100647,0.3657459616661072
0.06408088654279709,0.046428654342889786,-0.3799959719181061,-2.4759695529937744,0.32444822788238525,0.3665241599082947
0.06412667036056519,0.04664645344018936,-0.3803126811981201,-2.481203079223633,0.32495835423469543,0.36730194091796875
0.06417752057313919,0.04686455428600311,-0.3806270658969879,-2.486436605453491,0.32546383142471313,0.36807966232299805
0.06423334777355194,0.04708309844136238,-0.3809394836425781,-2.4916701316833496,0.32596468925476074,0.36885690689086914
0.06429411470890045,0.04730220511555672,-0.3812499940395355,-2.496903657913208,0.32646065950393677,0.36963367462158203
0.06435976922512054,0.04752200096845627,-0.3815588653087616,-2.5021371841430664,0.3269517123699188,0.3704099655151367
0.06443028151988983,0.04774259775876999,-0.3818660378456116,-2.507370710372925,0.3274375796318054,0.3711853623390198
0.06450564414262772,0.047964125871658325,-0.3821716904640198,-2.512604236602783,0.3279182016849518,0.37196022272109985
0.06458581238985062,0.04818670451641083,-0.38247615098953247,-2.5178377628326416,0.32839351892471313,0.3727341294288635
0.06467080116271973,0.048410460352897644,-0.38277941942214966,-2.5230712890625,0.32886311411857605,0.373507559299469
0.06476061046123505,0.048635516315698624,-0.3830815851688385,-2.5283048152923584,0.3293268084526062,0.37428003549575806
0.06485530734062195,0.04886201024055481,-0.3833826780319214,-2.533538341522217,0.32978445291519165,0.3750520348548889
0.0649549588561058,0.04909007251262665,-0.38368290662765503,-2.538771867752075,0.33023548126220703,0.3758235573768616
0.06505967676639557,0.04931986704468727,-0.3839823603630066,-2.5440053939819336,0.33067962527275085,0.376594603061676
0.06516960263252258,0.049551572650671005,-0.38428109884262085,-2.549238920211792,0.33111634850502014,0.3773656487464905
0.06528491526842117,0.049785397946834564,-0.38457930088043213,-2.5544724464416504,0.3315449655056,0.37813669443130493
0.06540590524673462,0.050021592527627945,-0.38487696647644043,-2.559705972671509,0.3319646418094635,0.3789086937904358
0.06553291529417038,0.05026046186685562,-0.3851742148399353,-2.564939498901367,0.3323744833469391,0.37968212366104126
0.06566624343395233,0.05050230398774147,-0.3854711353778839,-2.5701730251312256,0.3327738642692566,0.38045650720596313
0.06580588966608047,0.05074730142951012,-0.38576793670654297,-2.575406551361084,0.33316275477409363,0.3812318444252014
0.06595178693532944,0.05099557340145111,-0.38606497645378113,-2.5806400775909424,0.3335409164428711,0.3820076584815979
0.06610389053821564,0.0512472540140152,-0.3863622546195984,-2.585873603820801,0.3339085280895233,0.3827839493751526
0.06626209616661072,0.051502421498298645,-0.38665997982025146,-2.591107130050659,0.33426570892333984,0.3835597634315491
0.06642629206180573,0.05176112800836563,-0.3869582712650299,-2.5963406562805176,0.3346130847930908,0.38433510065078735
0.06659632921218872,0.05202342942357063,-0.38725727796554565,-2.601574182510376,0.3349510729312897,0.38510948419570923
0.06677211821079254,0.05228937417268753,-0.38755691051483154,-2.6068077087402344,0.3352799713611603,0.3858824372291565
0.06695354729890823,0.05255899950861931,-0.3878573477268219,-2.6120412349700928,0.33559998869895935,0.38665395975112915
0.06714048236608505,0.05283233895897865,-0.3881586790084839,-2.617274761199951,0.3359117805957794,0.387423574924469
0.06733283400535583,0.05310943350195885,-0.38846084475517273,-2.6225082874298096,0.3362154960632324,0.3881908059120178
0.06753046065568924,0.053390294313430786,-0.388763964176178,-2.627741813659668,0.33651161193847656,0.38895565271377563
0.06773324310779572,0.05367492884397507,-0.3890680968761444,-2.6329753398895264,0.33680054545402527,0.38971763849258423
0.06794111430644989,0.05396336689591408,-0.3893732726573944,-2.6382088661193848,0.33708271384239197,0.3904762864112854
0.06815393269062042,0.054255615919828415,-0.38967958092689514,-2.643442392349243,0.3373582363128662,0.39123159646987915
0.06837163120508194,0.05455167964100838,-0.38998696208000183,-2.6486759185791016,0.3376273512840271,0.39198315143585205
0.06859409064054489,0.05485156923532486,-0.39029544591903687,-2.65390944480896,0.33789047598838806,0.39273130893707275
0.0688212588429451,0.055155280977487564,-0.3906051516532898,-2.6591429710388184,0.3381478786468506,0.39347517490386963
0.06905301660299301,0.055462807416915894,-0.39091601967811584,-2.6643764972686768,0.3383995592594147,0.3942152261734009
0.06928930431604385,0.05577411502599716,-0.3912281095981598,-2.669610023498535,0.33864596486091614,0.3949509859085083
0.06953000277280807,0.056089144200086594,-0.39154142141342163,-2.6748435497283936,0.33888715505599976,0.3956824541091919
0.06977503001689911,0.0564078651368618,-0.391855925321579,-2.680077075958252,0.3391231298446655,0.39640915393829346
0.07002429664134979,0.05673022195696831,-0.3921717405319214,-2.6853106021881104,0.3393542468547821,0.397131085395813
0.07027771323919296,0.057056162506341934,-0.39248883724212646,-2.6905441284179688,0.33958038687705994,0.3978482484817505
0.07053516805171967,0.057385630905628204,-0.39280712604522705,-2.695777654647827,0.33980196714401245,0.39856064319610596
0.07079663127660751,0.05771859735250473,-0.3931267559528351,-2.7010111808776855,0.3400188684463501,0.3992682695388794
0.07106199115514755,0.05805500969290733,-0.3934476673603058,-2.706244707107544,0.34023144841194153,0.3999706506729126
0.07133123278617859,0.05839482694864273,-0.39376989006996155,-2.7114782333374023,0.34043967723846436,0.40066778659820557
0.07160431146621704,0.05873798951506615,-0.39409339427948,-2.7167117595672607,0.34064361453056335,0.4013596773147583
0.07188118249177933,0.0590844489634037,-0.39441823959350586,-2.721945285797119,0.3408433198928833,0.4020463228225708
0.07216182351112366,0.05943416431546211,-0.3947443962097168,-2.7271788120269775,0.3410387933254242,0.40272772312164307
0.07244618237018585,0.0597870796918869,-0.3950718641281128,-2.732412338256836,0.3412303626537323,0.4034034013748169
0.0727342739701271,0.06014315038919449,-0.3954005837440491,-2.7376458644866943,0.34141799807548523,0.4040738344192505
0.07302606850862503,0.06050232797861099,-0.3957306742668152,-2.7428793907165527,0.34160155057907104,0.40473854541778564
0.07332152128219604,0.060864560306072235,-0.39606210589408875,-2.748112916946411,0.34178128838539124,0.40539759397506714
0.07362066209316254,0.06122981756925583,-0.396394819021225,-2.7533464431762695,0.3419572114944458,0.4060513377189636
0.07392345368862152,0.061598051339387894,-0.3967288136482239,-2.758579969406128,0.34212931990623474,0.40669935941696167
0.0742298886179924,0.06196920946240425,-0.3970641493797302,-2.7638134956359863,0.34229761362075806,0.4073416590690613
0.07453996688127518,0.06234321370720863,-0.397400826215744,-2.7690470218658447,0.3424624502658844,0.4079778790473938
0.07485367357730865,0.06272003054618835,-0.39773881435394287,-2.774280548095703,0.3426235318183899,0.40860825777053833
0.07517102360725403,0.06309959292411804,-0.3980780839920044,-2.7795140743255615,0.34278085827827454,0.4092329144477844
0.0754920020699501,0.06348180770874023,-0.398418664932251,-2.78474760055542,0.3429347574710846,0.4098513722419739
0.07581661641597748,0.06386660039424896,-0.3987606167793274,-2.7899811267852783,0.3430851995944977,0.4104641079902649
0.07614485174417496,0.06425385177135468,-0.39910387992858887,-2.7952146530151367,0.34323203563690186,0.41107064485549927
0.07647670060396194,0.06464346498250961,-0.39944854378700256,-2.800448179244995,0.34337547421455383,0.411670982837677
0.07681215554475784,0.06503534317016602,-0.39979463815689087,-2.8056814670562744,0.343515545129776,0.4122651219367981
0.07715121656656265,0.06542934477329254,-0.4001421332359314,-2.8109147548675537,0.34365227818489075,0.41285306215286255
0.07749389111995697,0.06582536548376083,-0.40049105882644653,-2.816148042678833,0.34378567337989807,0.41343480348587036
0.0778401717543602,0.06622329354286194,-0.40084147453308105,-2.8213813304901123,0.343915730714798,0.4140099883079529
0.07819005101919174,0.0666230171918869,-0.4011933207511902,-2.8266146183013916,0.34404245018959045,0.4145788550376892
0.07854356616735458,0.06702446192502975,-0.4015466570854187,-2.831847906112671,0.3441658318042755,0.4151415228843689
0.07890069484710693,0.06742752343416214,-0.401901513338089,-2.83708119392395,0.34428587555885315,0.41569751501083374
0.07926145195960999,0.0678320974111557,-0.40225788950920105,-2.8423144817352295,0.344402551651001,0.41624683141708374
0.07962585985660553,0.06823813170194626,-0.4026157259941101,-2.847547769546509,0.344515860080719,0.4167894721031189
0.07999391853809357,0.06864552199840546,-0.4029751420021057,-2.852781057357788,0.3446255028247833,0.4173254370689392
0.0803656131029129,0.06905422359704971,-0.4033360481262207,-2.8580143451690674,0.34473174810409546,0.4178547263145447
0.08074099570512772,0.06946416199207306,-0.40369856357574463,-2.8632476329803467,0.3448343873023987,0.4183768630027771
0.081120066344738,0.06987526267766953,-0.4040625989437103,-2.868480920791626,0.3449334502220154,0.4188918471336365
0.08150285482406616,0.07028742134571075,-0.404428094625473,-2.8737142086029053,0.3450287878513336,0.4193996787071228
0.08188937604427338,0.07070054858922958,-0.4047950506210327,-2.8789474964141846,0.3451206088066101,0.4198998808860779
0.08227966725826263,0.07111458480358124,-0.405163437128067,-2.884180784225464,0.34520870447158813,0.4203924536705017
0.08267374336719513,0.07152941077947617,-0.40553322434425354,-2.889414072036743,0.34529298543930054,0.4208769202232361
0.08307163417339325,0.07194497436285019,-0.4059043526649475,-2.8946473598480225,0.34537336230278015,0.421353280544281
0.0834733322262764,0.07236114889383316,-0.40627679228782654,-2.8998806476593018,0.3454495966434479,0.4218215346336365
0.08387879282236099,0.07277782261371613,-0.40665045380592346,-2.90511417388916,0.3455217778682709,0.4222821593284607
0.08428793400526047,0.07319489866495132,-0.4070253372192383,-2.9103477001190186,0.34558984637260437,0.42273515462875366
0.08470065891742706,0.07361231744289398,-0.4074014723300934,-2.915580987930298,0.3456536829471588,0.4231805205345154
0.08511685580015182,0.07402996718883514,-0.4077787399291992,-2.920814275741577,0.3457132577896118,0.42361825704574585
0.08553643524646759,0.07444780319929123,-0.40815719962120056,-2.9260475635528564,0.3457687795162201,0.42404836416244507
0.08595933020114899,0.07486570626497269,-0.40853679180145264,-2.9312808513641357,0.3458201587200165,0.42447084188461304
0.08638543635606766,0.07528368383646011,-0.40891751646995544,-2.936514139175415,0.3458672761917114,0.42488569021224976
0.08681467920541763,0.07570159435272217,-0.40929940342903137,-2.9417474269866943,0.34591013193130493,0.4252929091453552
0.08724699914455414,0.07611941546201706,-0.40968233346939087,-2.9469807147979736,0.3459486961364746,0.42569249868392944
0.087682344019413,0.07653709501028061,-0.4100663959980011,-2.952214002609253,0.34598296880722046,0.4260845184326172
0.08812065422534943,0.07695455849170685,-0.4104515314102173,-2.9574472904205322,0.3460129499435425,0.4264693260192871
0.08856185525655746,0.077371746301651,-0.41083773970603943,-2.9626805782318115,0.3460386097431183,0.4268465042114258
0.08900590986013412,0.07778859883546829,-0.41122496128082275,-2.967913866043091,0.3460599482059479,0.4272160530090332
0.08945275843143463,0.07820505648851395,-0.41161325573921204,-2.97314715385437,0.3460766077041626,0.4275779724121094
0.08990239351987839,0.07862108945846558,-0.4120025634765625,-2.9783804416656494,0.3460890054702759,0.4279322624206543
0.09035475552082062,0.07903662323951721,-0.41239282488822937,-2.9836137294769287,0.34609758853912354,0.42827892303466797
0.09080979973077774,0.07945160567760468,-0.41278406977653503,-2.988847017288208,0.34610235691070557,0.4286179542541504
0.09126751124858856,0.0798659548163414,-0.4131762981414795,-2.9940803050994873,0.346103310585022,0.42894935607910156
0.0917278528213501,0.08027965575456619,-0.41356950998306274,-2.9993135929107666,0.34610044956207275,0.4292726516723633
0.09219078719615936,0.08069264143705368,-0.4139636754989624,-3.004546880722046,0.3460932970046997,0.42958831787109375
0.09265628457069397,0.08110485225915909,-0.41435879468917847,-3.009780168533325,0.34608227014541626,0.42989587783813477
0.09312430769205093,0.08151626586914062,-0.4147548973560333,-3.0150134563446045,0.34606632590293884,0.43019533157348633
0.09359487891197205,0.08192680031061172,-0.41515201330184937,-3.020246744155884,0.34604525566101074,0.43048667907714844
0.09406795352697372,0.0823364332318306,-0.4155501425266266,-3.025480031967163,0.3460189700126648,0.4307699203491211
0.09454349428415298,0.08274511247873306,-0.4159493148326874,-3.0307135581970215,0.3459874093532562,0.4310445785522461
0.09502151608467102,0.08315277099609375,-0.4163495600223541,-3.03594708442688,0.345950186252594,0.43131065368652344
0.09550201147794724,0.08355934172868729,-0.41675087809562683,-3.0411806106567383,0.34590744972229004,0.4315676987171173
0.09598494321107864,0.0839647650718689,-0.4171532690525055,-3.0464141368865967,0.3458588123321533,0.43181613087654114
0.09647029638290405,0.0843689814209938,-0.4175567626953125,-3.051647663116455,0.3458043932914734,0.4320550858974457
0.09695800393819809,0.08477196842432022,-0.41796135902404785,-3.0568811893463135,0.34574422240257263,0.4322849214076996
0.09744799882173538,0.08517365902662277,-0.41836708784103394,-3.062114715576172,0.3456778824329376,0.43250522017478943
0.09794022887945175,0.08557403087615967,-0.418773889541626,-3.067348003387451,0.3456054925918579,0.432715505361557
0.09843464940786362,0.08597303181886673,-0.4191817045211792,-3.0725812911987305,0.34552720189094543,0.4329157769680023
0.09893118590116501,0.08637060970067978,-0.4195905923843384,-3.0778145790100098,0.3454427123069763,0.43310555815696716
0.09942980855703354,0.08676672726869583,-0.4200003445148468,-3.083047866821289,0.34535202383995056,0.43328437209129333
0.09993037581443787,0.0871613398194313,-0.42041099071502686,-3.0882811546325684,0.34525513648986816,0.43345221877098083
0.10043279081583023,0.08755447715520859,-0.42082250118255615,-3.0935144424438477,0.3451521098613739,0.43360909819602966
0.1009368896484375,0.0879460945725441,-0.42123475670814514,-3.098747730255127,0.3450433015823364,0.4337550103664398
0.10144253820180893,0.08833619207143784,-0.421647846698761,-3.1039810180664062,0.3449287712574005,0.4338899552822113
0.10194963961839676,0.08872479945421219,-0.4220617711544037,-3.1092143058776855,0.34480851888656616,0.4340139329433441
0.10245814174413681,0.08911185711622238,-0.42247647047042847,-3.114447593688965,0.3446825444698334,0.43412742018699646
0.10296793282032013,0.08949736505746841,-0.4228920340538025,-3.119680881500244,0.34455087780952454,0.43423041701316833
0.10347893834114075,0.0898812934756279,-0.42330843210220337,-3.1249141693115234,0.34441351890563965,0.43432292342185974
0.1039910614490509,0.09026360511779785,-0.42372575402259827,-3.1301474571228027,0.34427085518836975,0.4344049394130707
0.10450422763824463,0.09064434468746185,-0.4241439998149872,-3.135380744934082,0.3441225290298462,0.43447694182395935
0.10501831769943237,0.09102344512939453,-0.4245631992816925,-3.1406140327453613,0.34396892786026,0.43453893065452576
0.10553324967622757,0.09140094369649887,-0.4249833822250366,-3.1458473205566406,0.3438100516796112,0.4345909059047699
0.10604893416166306,0.09177679568529129,-0.4254045784473419,-3.15108060836792,0.34364593029022217,0.4346328675746918
0.10656525194644928,0.0921509861946106,-0.4258268177509308,-3.156313896179199,0.3434765636920929,0.4346652925014496
0.10708212107419968,0.09252353757619858,-0.426250159740448,-3.1615471839904785,0.3433019816875458,0.43468818068504333
0.1075994223356247,0.09289444237947464,-0.42667463421821594,-3.166780471801758,0.3431221842765808,0.434701532125473
0.10811708122491837,0.09326370060443878,-0.4271003007888794,-3.172013759613037,0.3429372310638428,0.43470534682273865
0.10863497108221054,0.09363128989934921,-0.42752718925476074,-3.1772470474243164,0.34274736046791077,0.4346996247768402
0.10915298759937286,0.09399718046188354,-0.4279553294181824,-3.1824803352355957,0.3425523042678833,0.4346848428249359
0.10967102646827698,0.09436138719320297,-0.42838478088378906,-3.187713623046875,0.3423524498939514,0.43466052412986755
0.11018899828195572,0.0947238951921463,-0.4288156032562256,-3.1929469108581543,0.3421477675437927,0.43462714552879333
0.11070676892995834,0.09508471190929413,-0.42924779653549194,-3.1981801986694336,0.34193792939186096,0.43458470702171326
0.11122424900531769,0.09544385224580765,-0.4296814501285553,-3.203413486480713,0.34172332286834717,0.4345332086086273
0.11174128204584122,0.09580130130052567,-0.43011659383773804,-3.208646774291992,0.34150394797325134,0.4344726502895355
0.1122577115893364,0.0961570218205452,-0.43055322766304016,-3.2138800621032715,0.3412798047065735,0.43440303206443787
0.11277343332767487,0.09651104360818863,-0.43099141120910645,-3.219113349914551,0.3410511910915375,0.43432387709617615
0.11328829079866409,0.09686339646577835,-0.43143123388290405,-3.22434663772583,0.340817928314209,0.43423566222190857
0.11380216479301453,0.09721406549215317,-0.431872695684433,-3.2295799255371094,0.34057995676994324,0.4341379702091217
0.11431490629911423,0.09756308048963547,-0.4323158264160156,-3.2348132133483887,0.34033748507499695,0.4340311586856842
0.11482656002044678,0.097910575568676,-0.43276068568229675,-3.240046501159668,0.34008997678756714,0.43391481041908264
0.11533713340759277,0.09825683385133743,-0.433207243680954,-3.2452797889709473,0.3398376405239105,0.433788925409317
0.11584670841693878,0.09860209375619888,-0.43365561962127686,-3.2505130767822266,0.3395799994468689,0.4336530566215515
0.11635531485080719,0.09894658625125885,-0.43410569429397583,-3.255746364593506,0.3393167555332184,0.43350762128829956
0.11686300486326218,0.09929051995277405,-0.4345574378967285,-3.260979652404785,0.33904778957366943,0.43335217237472534
0.11736983805894852,0.0996340960264206,-0.4350108504295349,-3.2662129402160645,0.33877304196357727,0.43318670988082886
0.1178758516907692,0.09997750073671341,-0.435465931892395,-3.2714462280273438,0.33849215507507324,0.4330112338066101
0.11838109791278839,0.10032087564468384,-0.43592268228530884,-3.276679515838623,0.3382050395011902,0.4328252673149109
0.11888561397790909,0.10066436231136322,-0.43638110160827637,-3.2819128036499023,0.33791130781173706,0.4326288104057312
0.11938943713903427,0.10100807249546051,-0.4368411600589752,-3.2871460914611816,0.3376110792160034,0.43242186307907104
0.11989262700080872,0.10135211795568466,-0.43730291724205017,-3.292379379272461,0.3373039960861206,0.4322039783000946
0.12039521336555481,0.10169660300016403,-0.43776628375053406,-3.2976126670837402,0.3369898200035095,0.4319750964641571
0.12089725583791733,0.10204163938760757,-0.43823137879371643,-3.3028459548950195,0.3366684317588806,0.43173524737358093
0.12139879912137985,0.10238727927207947,-0.4386981427669525,-3.308079242706299,0.33633953332901,0.4314839541912079
0.12189990282058716,0.10273358225822449,-0.4391666352748871,-3.313312530517578,0.3360028862953186,0.43122074007987976
0.12240058928728104,0.10308060050010681,-0.4396369457244873,-3.3185458183288574,0.33565813302993774,0.43094560503959656
0.12290099263191223,0.10342837125062943,-0.4401090741157532,-3.3237791061401367,0.33530479669570923,0.4306580722332001
0.1234012022614479,0.10377692431211472,-0.44058310985565186,-3.329012393951416,0.33494240045547485,0.4303572177886963
0.1239013820886612,0.1041262224316597,-0.4410591721534729,-3.3342456817626953,0.33457040786743164,0.43004298210144043
0.12440171837806702,0.10447624325752258,-0.44153735041618347,-3.3394789695739746,0.3341880142688751,0.42971399426460266
0.12490237504243851,0.1048269271850586,-0.4420178234577179,-3.344712257385254,0.33379417657852173,0.42936971783638
0.12540359795093536,0.10517822206020355,-0.4425007998943329,-3.349945545196533,0.3333883583545685,0.42900922894477844
0.12590551376342773,0.1055300384759903,-0.44298645853996277,-3.3551788330078125,0.3329697251319885,0.42863205075263977
0.12640826404094696,0.10588221997022629,-0.44347503781318665,-3.360412120819092,0.33253777027130127,0.4282377064228058
0.1269119679927826,0.10623466223478317,-0.44396674633026123,-3.365645408630371,0.33209195733070374,0.4278257191181183
0.1274166703224182,0.10658718645572662,-0.4444618225097656,-3.3708786964416504,0.33163145184516907,0.42739561200141907
0.12792256474494934,0.10693967342376709,-0.44496050477027893,-3.3761119842529297,0.3311557173728943,0.4269469082355499
0.12842974066734314,0.10729191452264786,-0.4454632103443146,-3.381345272064209,0.3306640386581421,0.42647865414619446
0.12893818318843842,0.10764368623495102,-0.44597020745277405,-3.3865785598754883,0.3301558196544647,0.42599037289619446
0.12944768369197845,0.10799475759267807,-0.4464816451072693,-3.3918118476867676,0.32963091135025024,0.4254811406135559
0.1299578845500946,0.1083449274301529,-0.44699767231941223,-3.397045135498047,0.3290894329547882,0.42495042085647583
0.1304684430360794,0.10869402438402176,-0.4475182890892029,-3.402278423309326,0.32853156328201294,0.424396812915802
0.13097897171974182,0.10904189944267273,-0.44804343581199646,-3.4075117111206055,0.3279574513435364,0.4238194227218628
0.13148926198482513,0.10938847810029984,-0.4485730230808258,-3.4127449989318848,0.3273671269416809,0.42321813106536865
0.1319991648197174,0.10973387956619263,-0.4491071403026581,-3.417978286743164,0.3267606794834137,0.42259252071380615
0.13250869512557983,0.11007820069789886,-0.4496456980705261,-3.4232115745544434,0.32613804936408997,0.4219425916671753
0.13301782310009003,0.1104215756058693,-0.4501887559890747,-3.4284448623657227,0.325499564409256,0.4212683439254761
0.13352647423744202,0.11076414585113525,-0.45073628425598145,-3.433678150177002,0.32484498620033264,0.4205693006515503
0.1340346336364746,0.11110606789588928,-0.45128825306892395,-3.4389114379882812,0.32417455315589905,0.4198455214500427
0.13454222679138184,0.11144750565290451,-0.45184481143951416,-3.4441447257995605,0.3234880864620209,0.4190969467163086
0.1350492686033249,0.11178860068321228,-0.4524058401584625,-3.44937801361084,0.32278579473495483,0.4183235168457031
0.1355554759502411,0.11212941259145737,-0.4529712200164795,-3.454611301422119,0.3220686912536621,0.4175252914428711
0.1360599845647812,0.11246977746486664,-0.45353999733924866,-3.4598445892333984,0.321339875459671,0.4167022705078125
0.13656184077262878,0.11280965059995651,-0.4541112780570984,-3.4650778770446777,0.3206019103527069,0.41585493087768555
0.1370602548122406,0.11314907670021057,-0.45468419790267944,-3.470311164855957,0.31985709071159363,0.41498374938964844
0.1375545710325241,0.11348814517259598,-0.45525795221328735,-3.4755444526672363,0.3191070258617401,0.41408875584602356
0.13804428279399872,0.11382697522640228,-0.4558318853378296,-3.4807777404785156,0.3183535933494568,0.41317084431648254
0.1385290026664734,0.11416564136743546,-0.45640555024147034,-3.486011028289795,0.31759777665138245,0.412230521440506
0.13900840282440186,0.11450433731079102,-0.4569784998893738,-3.491244316101074,0.3168409764766693,0.4112682640552521
0.13948218524456024,0.11484318226575851,-0.45755037665367126,-3.4964776039123535,0.3160841166973114,0.4102841019630432
0.13995006680488586,0.11518234014511108,-0.45812082290649414,-3.501710891723633,0.31532779335975647,0.4092784821987152
0.1404118537902832,0.11552195996046066,-0.4586896002292633,-3.506944179534912,0.31457284092903137,0.4082518517971039
0.1408674120903015,0.1158621609210968,-0.45925626158714294,-3.5121774673461914,0.3138197958469391,0.4072047173976898
0.14131665229797363,0.11620303243398666,-0.45982083678245544,-3.5174107551574707,0.3130691349506378,0.4061371982097626
0.1417594701051712,0.1165446937084198,-0.46038296818733215,-3.52264404296875,0.3123213052749634,0.40505000948905945
0.14219576120376587,0.1168871819972992,-0.46094247698783875,-3.5278773307800293,0.3115764856338501,0.4039433002471924
0.14262552559375763,0.11723054200410843,-0.46149930357933044,-3.5331106185913086,0.3108350932598114,0.402817964553833
0.1430487483739853,0.11757485568523407,-0.4620532691478729,-3.538343906402588,0.31009751558303833,0.4016740322113037
0.14346544444561005,0.1179201602935791,-0.4626041650772095,-3.543577194213867,0.30936399102211,0.4005119800567627
0.14387564361095428,0.11826648563146591,-0.46315205097198486,-3.5488104820251465,0.3086347281932831,0.39933228492736816
0.1442793905735016,0.11861387640237808,-0.46369674801826477,-3.554043769836426,0.30790984630584717,0.3981354236602783
0.14467670023441315,0.118962362408638,-0.4642382562160492,-3.559277057647705,0.3071896731853485,0.39692187309265137
0.14506767690181732,0.11931197345256805,-0.46477648615837097,-3.5645103454589844,0.3064742982387543,0.3956921100616455
0.14545240998268127,0.11966273933649063,-0.4653113782405853,-3.5697436332702637,0.3057639002799988,0.39444616436958313
0.1458309143781662,0.12001466751098633,-0.4658428430557251,-3.574976921081543,0.3050585985183716,0.39318493008613586
0.14620329439640045,0.12036781758069992,-0.46637091040611267,-3.5802102088928223,0.30435869097709656,0.3919084966182709
0.14656957983970642,0.120722196996212,-0.46689558029174805,-3.5854434967041016,0.30366429686546326,0.390617698431015
0.14692993462085724,0.1210777759552002,-0.46741658449172974,-3.590676784515381,0.30297550559043884,0.38931259512901306
0.1472846120595932,0.12143447995185852,-0.4679340422153473,-3.59591007232666,0.30229252576828003,0.38799330592155457
0.14763374626636505,0.12179219722747803,-0.46844780445098877,-3.6011433601379395,0.30161529779434204,0.38666054606437683
0.1479775607585907,0.12215083092451096,-0.4689578115940094,-3.6063766479492188,0.3009442687034607,0.3853144943714142
0.14831627905368805,0.12251032143831253,-0.4694640040397644,-3.611609935760498,0.3002794086933136,0.3839559853076935
0.14865009486675262,0.12287063896656036,-0.4699663817882538,-3.6168432235717773,0.29962071776390076,0.3825850784778595
0.1489793360233307,0.12323181331157684,-0.4704650044441223,-3.6220765113830566,0.2989678382873535,0.3812023103237152
0.1493043750524521,0.12359390407800674,-0.47096002101898193,-3.627309799194336,0.29832085967063904,0.37980854511260986
0.14962556958198547,0.12395695596933365,-0.47145137190818787,-3.6325430870056152,0.297679603099823,0.37840473651885986
0.14994314312934875,0.12432104349136353,-0.47193917632102966,-3.6377763748168945,0.2970438599586487,0.3769909143447876
0.15025751292705536,0.12468621879816055,-0.4724234640598297,-3.643009662628174,0.2964135706424713,0.3755680322647095
0.150568887591362,0.1250525414943695,-0.4729043245315552,-3.648242950439453,0.2957886755466461,0.3741365671157837
0.15087752044200897,0.12542006373405457,-0.4733818471431732,-3.6534762382507324,0.2951688766479492,0.37269705533981323
0.15118367969989777,0.1257888525724411,-0.4738560616970062,-3.6587095260620117,0.29455411434173584,0.37125033140182495
0.15148764848709106,0.12615901231765747,-0.47432708740234375,-3.663942813873291,0.29394444823265076,0.369796484708786
0.15178963541984558,0.12653052806854248,-0.47479498386383057,-3.6691761016845703,0.29333963990211487,0.36833640933036804
0.15208986401557922,0.12690353393554688,-0.47525978088378906,-3.6744093894958496,0.292739599943161,0.36687061190605164
0.1523885726928711,0.12727805972099304,-0.4757215082645416,-3.679642677307129,0.2921442985534668,0.3653991222381592
0.15268589556217194,0.12765416502952576,-0.4761803150177002,-3.684875965118408,0.29155340790748596,0.3639228343963623
0.15298207104206085,0.1280319094657898,-0.47663623094558716,-3.6901092529296875,0.29096719622612,0.3624422550201416
0.15327727794647217,0.12841133773326874,-0.4770892858505249,-3.695342540740967,0.29038533568382263,0.36095738410949707
0.1535716950893402,0.12879252433776855,-0.477539598941803,-3.700575828552246,0.2898077964782715,0.3594691753387451
0.1538654863834381,0.12917551398277283,-0.47798725962638855,-3.7058091163635254,0.28923454880714417,0.35797762870788574
0.1541588306427002,0.12956038117408752,-0.47843217849731445,-3.7110424041748047,0.2886655926704407,0.35648322105407715
0.1544518619775772,0.12994714081287384,-0.47887465357780457,-3.716275691986084,0.2881008982658386,0.35498642921447754
0.1547447293996811,0.13033585250377655,-0.4793146252632141,-3.7215089797973633,0.287540465593338,0.3534873127937317
0.15503759682178497,0.13072656095027924,-0.4797520339488983,-3.7267422676086426,0.2869842052459717,0.35198670625686646
0.155330628156662,0.13111931085586548,-0.4801870584487915,-3.731975555419922,0.2864319086074829,0.3504846692085266
0.1556239277124405,0.13151417672634125,-0.480619877576828,-3.737208843231201,0.2858838140964508,0.34898167848587036
0.15591765940189362,0.13191115856170654,-0.48105043172836304,-3.7424421310424805,0.2853396236896515,0.3474777340888977
0.15621192753314972,0.13231030106544495,-0.48147866129875183,-3.7476754188537598,0.28479957580566406,0.34597331285476685
0.15650685131549835,0.13271163403987885,-0.4819048345088959,-3.752908706665039,0.2842634618282318,0.344468891620636
0.15680259466171265,0.13311518728733063,-0.4823288321495056,-3.7581419944763184,0.28373122215270996,0.3429644703865051
0.15709921717643738,0.13352102041244507,-0.4827508330345154,-3.7633752822875977,0.283203125,0.34146052598953247
0.15739689767360687,0.13392914831638336,-0.48317086696624756,-3.768608570098877,0.2826789319515228,0.339957058429718
0.15769575536251068,0.1343396008014679,-0.48358890414237976,-3.7738418579101562,0.28215861320495605,0.33845454454421997
0.15799586474895477,0.13475242257118225,-0.4840050935745239,-3.7790751457214355,0.28164243698120117,0.33695346117019653
0.1582973450422287,0.13516756892204285,-0.48441946506500244,-3.784308433532715,0.2811301648616791,0.33545351028442383
0.158600315451622,0.13558512926101685,-0.4848320484161377,-3.789541721343994,0.2806219458580017,0.3339552879333496
0.15890483558177948,0.13600513339042664,-0.4852428138256073,-3.7947750091552734,0.28011777997016907,0.3324589729309082
0.15921105444431305,0.13642756640911102,-0.48565205931663513,-3.8000082969665527,0.27961766719818115,0.3309645652770996
0.15951907634735107,0.1368524134159088,-0.48605963587760925,-3.805241584777832,0.27912160754203796,0.32947254180908203
0.15982897579669952,0.1372797191143036,-0.48646560311317444,-3.8104748725891113,0.27862975001335144,0.32798290252685547
0.16014088690280914,0.13770954310894012,-0.486870139837265,-3.8157081604003906,0.2781420946121216,0.3264961242675781
0.16045492887496948,0.13814181089401245,-0.487273246049881,-3.82094144821167,0.277658611536026,0.32501220703125
0.16077116131782532,0.13857661187648773,-0.4876749813556671,-3.826174736022949,0.277179479598999,0.3235311508178711
0.1610896736383438,0.1390138864517212,-0.48807546496391296,-3.8314080238342285,0.2767047882080078,0.3220534324645996
0.1614106148481369,0.1394536793231964,-0.48847469687461853,-3.836641311645508,0.2762344777584076,0.32057905197143555
0.16173399984836578,0.139895960688591,-0.48887282609939575,-3.841874599456787,0.27576884627342224,0.3191084861755371
0.16206000745296478,0.14034074544906616,-0.4892699122428894,-3.8471078872680664,0.27530789375305176,0.3176417350769043
0.16238872706890106,0.1407880336046219,-0.4896659851074219,-3.8523411750793457,0.2748517096042633,0.3161787986755371
0.16272026300430298,0.14123784005641937,-0.4900611639022827,-3.857574462890625,0.27440035343170166,0.31472015380859375
0.1630546599626541,0.1416901797056198,-0.4904555082321167,-3.8628077507019043,0.2739538848400116,0.3132658004760742
0.16339197754859924,0.14214511215686798,-0.4908491373062134,-3.8680410385131836,0.2735125422477722,0.3118157386779785
0.16373227536678314,0.14260268211364746,-0.49124211072921753,-3.873274326324463,0.2730763256549835,0.31036996841430664
0.16407564282417297,0.14306290447711945,-0.4916344881057739,-3.878507614135742,0.27264538407325745,0.30892860889434814
0.1644221544265747,0.14352579414844513,-0.4920263886451721,-3.8837409019470215,0.27221980690956116,0.30749189853668213
0.16477186977863312,0.14399145543575287,-0.49241793155670166,-3.888974189758301,0.27179965376853943,0.30605995655059814
0.16512493789196014,0.14445991814136505,-0.4928092658519745,-3.89420747756958,0.2713851034641266,0.30463284254074097
0.16548149287700653,0.14493119716644287,-0.4932004511356354,-3.8994407653808594,0.2709762752056122,0.30321091413497925
0.16584160923957825,0.1454053372144699,-0.49359163641929626,-3.9046740531921387,0.2705734968185425,0.30179423093795776
0.1662054806947708,0.14588244259357452,-0.4939829707145691,-3.909907341003418,0.2701767086982727,0.3003823757171631
0.166573166847229,0.14636249840259552,-0.4943745732307434,-3.9151406288146973,0.26978611946105957,0.29897576570510864
0.16694480180740356,0.14684562385082245,-0.49476659297943115,-3.9203739166259766,0.26940181851387024,0.29757481813430786
0.16732051968574524,0.1473318487405777,-0.4951590895652771,-3.925607204437256,0.26902392506599426,0.2961791157722473
0.16770032048225403,0.14782124757766724,-0.495552122592926,-3.930840492248535,0.2686525285243988,0.294788658618927
0.16808436810970306,0.14831389486789703,-0.4959457814693451,-3.9360737800598145,0.268287718296051,0.2934039235115051
0.16847270727157593,0.14880983531475067,-0.49634015560150146,-3.9413070678710938,0.26792970299720764,0.2920244336128235
0.168865367770195,0.14930912852287292,-0.4967353940010071,-3.946540355682373,0.2675786316394806,0.2906506657600403
0.16926251351833344,0.14981184899806976,-0.4971315264701843,-3.9517736434936523,0.2672346234321594,0.28928229212760925
0.16966408491134644,0.15031805634498596,-0.49752864241600037,-3.9570069313049316,0.26689794659614563,0.2879194915294647
0.17007018625736237,0.1508278101682663,-0.49792683124542236,-3.962240219116211,0.26656877994537354,0.28656241297721863
0.170480877161026,0.15134119987487793,-0.4983261525630951,-3.9674735069274902,0.26624736189842224,0.28521105647087097
0.17089618742465973,0.15185827016830444,-0.4987267553806305,-3.9727067947387695,0.2659338414669037,0.28386542201042175
0.17131613194942474,0.1523791253566742,-0.49912869930267334,-3.977940082550049,0.2656286060810089,0.28252509236335754
0.17174069583415985,0.15290383994579315,-0.49953198432922363,-3.983173370361328,0.265331894159317,0.281190425157547
0.17216990888118744,0.15343248844146729,-0.4999367296695709,-3.9884066581726074,0.2650439143180847,0.2798614799976349
0.17260371148586273,0.15396516025066376,-0.5003429651260376,-3.9936399459838867,0.26476502418518066,0.27853789925575256
0.1730421632528305,0.15450192987918854,-0.5007507801055908,-3.998873233795166,0.2644955813884735,0.2772199213504791
0.17348520457744598,0.15504281222820282,-0.501160204410553,-4.004106521606445,0.26423579454421997,0.2759072184562683
0.17393292486667633,0.15558789670467377,-0.5015712976455688,-4.009340286254883,0.2639860510826111,0.27460020780563354
0.17438524961471558,0.15613722801208496,-0.5019841194152832,-4.01457405090332,0.26374658942222595,0.273298442363739
0.17484226822853088,0.1566908210515976,-0.502398669719696,-4.019807815551758,0.2635173499584198,0.2720019817352295
0.1753038913011551,0.1572486013174057,-0.5028150677680969,-4.025041580200195,0.2632984220981598,0.27071118354797363
0.17577014863491058,0.15781055390834808,-0.5032330751419067,-4.030275344848633,0.2630896270275116,0.2694261074066162
0.17624054849147797,0.15837669372558594,-0.5036523342132568,-4.03550910949707,0.26289060711860657,0.268146276473999
0.1767144799232483,0.15894725918769836,-0.504071831703186,-4.040742874145508,0.2627008855342865,0.26687121391296387
0.17719130218029022,0.15952247381210327,-0.5044907331466675,-4.045976638793945,0.26252004504203796,0.26560091972351074
0.17767061293125153,0.16010257601737976,-0.504908561706543,-4.051210403442383,0.26234787702560425,0.26433491706848145
0.17815206944942474,0.1606878787279129,-0.5053248405456543,-4.05644416809082,0.2621840834617615,0.2630733251571655
0.1786354035139084,0.16127853095531464,-0.5057382583618164,-4.061677932739258,0.2620287239551544,0.2618163824081421
0.1791205108165741,0.16187460720539093,-0.5061492323875427,-4.066911697387695,0.261881560087204,0.26056379079818726
0.17960724234580994,0.16247621178627014,-0.5065572261810303,-4.072145462036133,0.261742502450943,0.2593159079551697
0.18009553849697113,0.16308334469795227,-0.5069621205329895,-4.07737922668457,0.26161155104637146,0.25807279348373413
0.1805853545665741,0.1636960804462433,-0.5073636174201965,-4.082612991333008,0.2614886164665222,0.2568344473838806
0.18107664585113525,0.164314404129982,-0.5077617168426514,-4.087846755981445,0.2613735496997833,0.25560086965560913
0.181569442152977,0.16493834555149078,-0.5081562399864197,-4.093080520629883,0.2612664997577667,0.25437211990356445
0.1820637732744217,0.16556783020496368,-0.5085470676422119,-4.09831428527832,0.2611674964427948,0.25314855575561523
0.18255960941314697,0.1662028729915619,-0.5089340806007385,-4.103548049926758,0.26107633113861084,0.25193023681640625
0.1830570250749588,0.16684339940547943,-0.5093172788619995,-4.108781814575195,0.2609931230545044,0.2507171630859375
0.18355607986450195,0.16748937964439392,-0.5096966028213501,-4.114015579223633,0.2609175741672516,0.24950899183750153
0.18405687808990479,0.16814067959785461,-0.510071873664856,-4.11924934387207,0.2608497142791748,0.24830593168735504
0.18455947935581207,0.1687973588705063,-0.5104430317878723,-4.124483108520508,0.2607894241809845,0.2471076399087906
