Der-mark/objtrans/data/sim/qpos_trajectory.csv
q0,q1,q2,q3,q4,q5
0.0,0.0,0.0,0.0,0.0,0.0
4.913160955766216e-05,5.107334436615929e-05,-3.514421041472815e-05,-6.256531196413562e-05,-5.1432798500172794e-05,6.79504664731212e-05
0.000164319048053585,0.00018391379853710532,-0.00012016836262773722,-0.0001915754546644166,-0.0001381362963002175,7.287053449545056e-05
0.0003453647077549249,0.00040163088124245405,-0.0002550977224018425,-0.00038687558844685555,-0.00025535706663504243,1.6940937712206505e-05
0.0005926656886003911,0.0007084191893227398,-0.0004340103769209236,-0.0006526238867081702,-0.00039868601015768945,-9.810025949263945e-05
0.0008977855322882533,0.0010968151036649942,-0.0006509007653221488,-0.0009742086404003203,-0.0006073630065657198,-0.00016443183994852006
0.0012720292434096336,0.0015669167041778564,-0.0009158105822280049,-0.0013850136892870069,-0.0008561924332752824,-0.00039476441452279687
0.0017259848536923528,0.0020778770558536053,-0.0012854916276410222,-0.0018513464601710439,-0.001267805928364396,-0.0008074978832155466
0.002243118127807975,0.002616297686472535,-0.0017551686614751816,-0.002383437240496278,-0.0018245542887598276,-0.001209187787026167
0.0028223656117916107,0.0031847169157117605,-0.0023253653198480606,-0.0029804666992276907,-0.002451570238918066,-0.001689066644757986
0.00346966995857656,0.003829724621027708,-0.0029587852768599987,-0.0036412326153367758,-0.003115689381957054,-0.00222107139416039
0.004183235112577677,0.004544158466160297,-0.0036557181738317013,-0.004368642810732126,-0.0038463277742266655,-0.002819746732711792
0.004963226150721312,0.0053258067928254604,-0.004418361000716686,-0.005162881221622229,-0.004643476102501154,-0.0034529725089669228
0.005809770431369543,0.0061741480603814125,-0.0052473838441073895,-0.006024377420544624,-0.005507212597876787,-0.004032570868730545
0.006722713820636272,0.007089016493409872,-0.0061430176720023155,-0.006952438969165087,-0.006437564734369516,-0.00456067593768239
0.007699553854763508,0.008019134402275085,-0.007097047287970781,-0.007947538048028946,-0.007431850768625736,-0.005037464667111635
0.008744592778384686,0.008985104970633984,-0.008120855316519737,-0.009008367545902729,-0.008494731038808823,-0.005527612753212452
0.009853493422269821,0.00994638167321682,-0.009204152040183544,-0.010136807337403297,-0.009621256962418556,-0.005975757725536823
0.01103125512599945,0.010933303274214268,-0.010359399951994419,-0.011330788023769855,-0.010817114263772964,-0.00645986245945096
0.012275409884750843,0.011961540207266808,-0.011583331972360611,-0.01259211078286171,-0.01207931898534298,-0.006906367838382721
0.013584624044597149,0.012999031692743301,-0.012869604863226414,-0.013920171186327934,-0.013406718149781227,-0.007330782245844603
0.014962052926421165,0.014074205420911312,-0.014227159321308136,-0.015314278192818165,-0.014802704565227032,-0.0077675627544522285
0.01640383154153824,0.015155540779232979,-0.01564609818160534,-0.01677585579454899,-0.01626286841928959,-0.008165225386619568
0.01791401021182537,0.016268806532025337,-0.017136448994278908,-0.018303168937563896,-0.017791951075196266,-0.008589574135839939
0.01949005201458931,0.01741716079413891,-0.01869363710284233,-0.01989780366420746,-0.01938687637448311,-0.00897784810513258
0.021132422611117363,0.01859346590936184,-0.020317111164331436,-0.021558839827775955,-0.02104843035340309,-0.009356670081615448
0.022841136902570724,0.019797779619693756,-0.022007254883646965,-0.02328653633594513,-0.022776534780859947,-0.009723952040076256
0.024616368114948273,0.02103348821401596,-0.023764800280332565,-0.025080816820263863,-0.02457142062485218,-0.010081776417791843
0.026457710191607475,0.02229723520576954,-0.02558865025639534,-0.026941781863570213,-0.026432646438479424,-0.010426421649754047
0.028365865349769592,0.023598555475473404,-0.027481000870466232,-0.028869206085801125,-0.028361069038510323,-0.01076597347855568
0.03033943474292755,0.02492252178490162,-0.0294377151876688,-0.030863484367728233,-0.030355045571923256,-0.011086155660450459
0.03238052502274513,0.02629059925675392,-0.031464990228414536,-0.03292388468980789,-0.03241714835166931,-0.011415206827223301
0.03448648005723953,0.027682486921548843,-0.03355558216571808,-0.035051438957452774,-0.03454413637518883,-0.011713755317032337
0.03665991500020027,0.029116207733750343,-0.03571641817688942,-0.03724490851163864,-0.03673933073878288,-0.012029645964503288
0.038899149745702744,0.03059365041553974,-0.037944111973047256,-0.039505425840616226,-0.03900053724646568,-0.012319466099143028
0.04120458662509918,0.032112035900354385,-0.04023870825767517,-0.04183229058980942,-0.04132847487926483,-0.01260411087423563
0.043575938791036606,0.03366808220744133,-0.042599547654390335,-0.0442257784307003,-0.04372270032763481,-0.012879585847258568
0.046013884246349335,0.03527127206325531,-0.045028943568468094,-0.04668567702174187,-0.04618411883711815,-0.01315397210419178
0.04851703718304634,0.03690558299422264,-0.04752251133322716,-0.04921235516667366,-0.04871096834540367,-0.013413229025900364
0.05108725279569626,0.0385870486497879,-0.05008586496114731,-0.05180514603853226,-0.05130567401647568,-0.013686739839613438
0.053723108023405075,0.04031415283679962,-0.05271570384502411,-0.054464854300022125,-0.05396634712815285,-0.013941842131316662
0.05642525851726532,0.0420895554125309,-0.05541333183646202,-0.057190876454114914,-0.05669401213526726,-0.014198623597621918
0.05912623181939125,0.04389968514442444,-0.05817573145031929,-0.059987761080265045,-0.05948735028505325,-0.014447051100432873
0.06178820878267288,0.04575636610388756,-0.06100723519921303,-0.06285222619771957,-0.062348295003175735,-0.014691558666527271
0.06443139910697937,0.04762764647603035,-0.06389971822500229,-0.06578197330236435,-0.06527360528707504,-0.014904685318470001
0.0670258104801178,0.04953375831246376,-0.06686282902956009,-0.06878016889095306,-0.06826750934123993,-0.015150848776102066
0.06961523741483688,0.05149905011057854,-0.06989628076553345,-0.07184189558029175,-0.07132849097251892,-0.015366185456514359
0.0721588209271431,0.0534789115190506,-0.0729895830154419,-0.07497398555278778,-0.07445356994867325,-0.01556681003421545
0.07467559725046158,0.05549488216638565,-0.07615336775779724,-0.07816985994577408,-0.07764728367328644,-0.015795491635799408
0.07715281844139099,0.057548511773347855,-0.07931801676750183,-0.08143430948257446,-0.08091262727975845,-0.016010532155632973
0.07959899306297302,0.05958075448870659,-0.08243352174758911,-0.08476456999778748,-0.08424139767885208,-0.016216397285461426
0.08199387043714523,0.06162584200501442,-0.08550212532281876,-0.08816267549991608,-0.08764113485813141,-0.01648871600627899
0.08436788618564606,0.0636565163731575,-0.08851806819438934,-0.09162553399801254,-0.09110318869352341,-0.01674620248377323
0.08669618517160416,0.0656995102763176,-0.09148973226547241,-0.09515708684921265,-0.09459151327610016,-0.017070231959223747
0.08898526430130005,0.06773052364587784,-0.09441834688186646,-0.09875458478927612,-0.09812304377555847,-0.0173793975263834
0.09123028814792633,0.06977104395627975,-0.09731271862983704,-0.10241906344890594,-0.10159464180469513,-0.017753966152668
0.09344924241304398,0.07180009037256241,-0.10015369206666946,-0.10614946484565735,-0.10512053966522217,-0.01808425784111023
0.09561870992183685,0.07381953299045563,-0.10295024514198303,-0.10994796454906464,-0.10858505219221115,-0.018480975180864334
0.09776676446199417,0.07581691443920135,-0.10570213198661804,-0.11381085216999054,-0.11207828670740128,-0.018877249211072922
0.09986933320760727,0.07782204449176788,-0.10841923952102661,-0.1177426278591156,-0.11551143229007721,-0.019341938197612762
0.10194318741559982,0.07981745153665543,-0.111089326441288,-0.12173958867788315,-0.11900439858436584,-0.019772764295339584
0.10396730899810791,0.0817863941192627,-0.1137167364358902,-0.1258048415184021,-0.12243536859750748,-0.020262571051716805
0.10596423596143723,0.08371753245592117,-0.11627607047557831,-0.12992440164089203,-0.1258678287267685,-0.02081780880689621
0.10791821777820587,0.08558882027864456,-0.11877521872520447,-0.13398319482803345,-0.12926910817623138,-0.02137685939669609
0.10986240953207016,0.0874682366847992,-0.12123484909534454,-0.13797160983085632,-0.13261519372463226,-0.021973242983222008
0.11176065355539322,0.0893302857875824,-0.12362605333328247,-0.141897052526474,-0.13598643243312836,-0.022588491439819336
0.11365140229463577,0.09118436276912689,-0.1259838044643402,-0.14575180411338806,-0.1392928957939148,-0.02327006310224533
0.1155020222067833,0.09301753342151642,-0.12830707430839539,-0.14954344928264618,-0.14259587228298187,-0.02400682494044304
0.11736336350440979,0.09486497938632965,-0.1305919587612152,-0.15326370298862457,-0.14583799242973328,-0.024812860414385796
0.11918824166059494,0.09669703990221024,-0.13280723989009857,-0.15692220628261566,-0.1491086184978485,-0.025667401030659676
0.12100084125995636,0.09850305318832397,-0.1349843293428421,-0.16051062941551208,-0.15231375396251678,-0.026588037610054016
0.12278658896684647,0.10031545162200928,-0.13713303208351135,-0.16403475403785706,-0.15549616515636444,-0.027573883533477783
0.12455720454454422,0.10210499167442322,-0.13925756514072418,-0.16749076545238495,-0.1586928367614746,-0.028546897694468498
0.12630723416805267,0.10389318317174911,-0.14135374128818512,-0.1708810180425644,-0.16182951629161835,-0.029587119817733765
0.12805591523647308,0.10566528886556625,-0.14341144263744354,-0.17420241236686707,-0.16496700048446655,-0.03069349378347397
0.1297644078731537,0.10741709172725677,-0.14542925357818604,-0.1774609386920929,-0.1680423617362976,-0.031871505081653595
0.13149024546146393,0.10913852602243423,-0.1473992019891739,-0.18064695596694946,-0.17111386358737946,-0.03311574459075928
0.13319003582000732,0.1108667403459549,-0.14933285117149353,-0.1837720274925232,-0.17412446439266205,-0.034427374601364136
0.13485458493232727,0.1125900074839592,-0.1512460857629776,-0.18682867288589478,-0.1771658957004547,-0.03578362241387367
0.13651864230632782,0.11430787295103073,-0.15313692390918732,-0.18981698155403137,-0.1801472306251526,-0.037205878645181656
0.13814158737659454,0.11600130051374435,-0.1549864560365677,-0.19274190068244934,-0.18310070037841797,-0.038698066025972366
0.13978974521160126,0.1176721602678299,-0.1567927747964859,-0.1955941617488861,-0.1859910637140274,-0.04025515168905258
0.14141297340393066,0.11931722611188889,-0.1585700511932373,-0.19838571548461914,-0.18885336816310883,-0.0418815091252327
0.14301621913909912,0.12097281962633133,-0.1603199690580368,-0.2011081874370575,-0.19165508449077606,-0.04357396438717842
0.14460185170173645,0.12262551486492157,-0.16205355525016785,-0.20376425981521606,-0.19451507925987244,-0.0453345887362957
0.1461918205022812,0.1242511048913002,-0.16376519203186035,-0.2063520848751068,-0.1973142921924591,-0.047164708375930786
0.14774233102798462,0.12583836913108826,-0.16543814539909363,-0.20887772738933563,-0.2000444084405899,-0.04899429902434349
0.14931714534759521,0.12741528451442719,-0.16707485914230347,-0.21132969856262207,-0.20271146297454834,-0.05092286691069603
0.15086768567562103,0.12897245585918427,-0.1687166839838028,-0.21372158825397491,-0.20530588924884796,-0.05287541076540947
0.1523534506559372,0.13046370446681976,-0.17033764719963074,-0.21604694426059723,-0.20783604681491852,-0.054898809641599655
0.1538625955581665,0.13195586204528809,-0.1719161868095398,-0.21829929947853088,-0.2103048413991928,-0.05699488893151283
0.15534661710262299,0.1334356963634491,-0.1734519600868225,-0.22049057483673096,-0.2127659171819687,-0.05914176627993584
0.15681889653205872,0.13486790657043457,-0.17499563097953796,-0.22261181473731995,-0.21515865623950958,-0.06135833263397217
0.1583176851272583,0.13629989326000214,-0.176530659198761,-0.22466535866260529,-0.21749372780323029,-0.0636376440525055
0.15978410840034485,0.13774123787879944,-0.17802125215530396,-0.22665724158287048,-0.21976213157176971,-0.0659506693482399
0.16118665039539337,0.13917577266693115,-0.17949222028255463,-0.228582963347435,-0.22196143865585327,-0.06830158829689026
0.16258132457733154,0.14056958258152008,-0.18095164000988007,-0.23043783009052277,-0.2240925133228302,-0.07065057009458542
0.16394072771072388,0.1419663280248642,-0.1823885440826416,-0.23222994804382324,-0.22616250813007355,-0.07305706292390823
0.16532115638256073,0.14335104823112488,-0.18380014598369598,-0.23394927382469177,-0.22816091775894165,-0.0754813626408577
0.1666875183582306,0.14473220705986023,-0.18517731130123138,-0.23560746014118195,-0.23009714484214783,-0.07796061784029007
0.16808047890663147,0.14610037207603455,-0.18653377890586853,-0.23719322681427002,-0.2320333570241928,-0.08048570901155472
0.1694519817829132,0.14747323095798492,-0.1878678798675537,-0.23871874809265137,-0.23390977084636688,-0.08307982236146927
0.1708454042673111,0.14884036779403687,-0.18918024003505707,-0.24017122387886047,-0.23581074178218842,-0.08571915328502655
0.17221590876579285,0.15017707645893097,-0.19046397507190704,-0.24156326055526733,-0.23764978349208832,-0.08842670172452927
0.1736004501581192,0.15147793292999268,-0.19171956181526184,-0.24288302659988403,-0.23941944539546967,-0.09120438247919083
0.17495976388454437,0.1527853161096573,-0.19295133650302887,-0.24414196610450745,-0.24112755060195923,-0.09405159950256348
0.17634040117263794,0.15409061312675476,-0.1941709965467453,-0.24532806873321533,-0.24289433658123016,-0.09690666943788528
0.17769868671894073,0.15537899732589722,-0.19537214934825897,-0.24645352363586426,-0.2446010708808899,-0.0998329296708107
0.17907856404781342,0.15663950145244598,-0.1965368390083313,-0.24750593304634094,-0.24629035592079163,-0.10282963514328003
0.18043610453605652,0.1578538566827774,-0.19766537845134735,-0.24849800765514374,-0.24791498482227325,-0.10589005053043365
0.18181733787059784,0.1590617597103119,-0.19877059757709503,-0.24941758811473846,-0.24947434663772583,-0.10901740193367004
0.18317560851573944,0.16024747490882874,-0.19985562562942505,-0.25027650594711304,-0.2510235011577606,-0.11220328509807587
0.18455734848976135,0.16144181787967682,-0.2009132206439972,-0.2510630786418915,-0.25251293182373047,-0.1154543086886406
0.18591834604740143,0.16269101202487946,-0.20196476578712463,-0.2517892122268677,-0.2539345920085907,-0.11877577751874924
0.1872701793909073,0.1639396697282791,-0.20300757884979248,-0.2524448037147522,-0.2554122507572174,-0.12207329273223877
0.18861505389213562,0.1651715487241745,-0.20402215421199799,-0.25303515791893005,-0.2568294107913971,-0.12543374300003052
0.18998661637306213,0.16637732088565826,-0.20501241087913513,-0.25355538725852966,-0.2581758499145508,-0.12885895371437073
0.1913340836763382,0.16758792102336884,-0.20597398281097412,-0.254014790058136,-0.2594614028930664,-0.13234937191009521
0.19270242750644684,0.1687985211610794,-0.20692573487758636,-0.2544011175632477,-0.2608053684234619,-0.13587407767772675
0.19404974579811096,0.1700124889612198,-0.20786379277706146,-0.25472700595855713,-0.2620905637741089,-0.13946284353733063
0.19540132582187653,0.17123505473136902,-0.20878583192825317,-0.25498154759407043,-0.26330554485321045,-0.14311377704143524
0.19672176241874695,0.17244865000247955,-0.20968730747699738,-0.25517433881759644,-0.26445820927619934,-0.14681436121463776
0.19806207716464996,0.17363208532333374,-0.21056358516216278,-0.2552938163280487,-0.2656230628490448,-0.15056012570858002
0.19938211143016815,0.17481733858585358,-0.21141517162322998,-0.25535550713539124,-0.26672813296318054,-0.15437442064285278
0.20072300732135773,0.17599990963935852,-0.21226021647453308,-0.25534698367118835,-0.2678576409816742,-0.15824906527996063
0.2020421326160431,0.17718610167503357,-0.21309062838554382,-0.2552987337112427,-0.2689281404018402,-0.16219721734523773
0.2033829689025879,0.17836636304855347,-0.21390482783317566,-0.25517815351486206,-0.27001306414604187,-0.16619588434696198
0.20470087230205536,0.17953279614448547,-0.21469412744045258,-0.25502994656562805,-0.2710372507572174,-0.1702558994293213
0.20604147017002106,0.18067996203899384,-0.21546582877635956,-0.2548094391822815,-0.2720513343811035,-0.174383744597435
0.20735932886600494,0.1818297952413559,-0.21621599793434143,-0.2545747756958008,-0.2730056643486023,-0.17857997119426727
0.20869503915309906,0.1829783320426941,-0.21695801615715027,-0.2542686462402344,-0.27401313185691833,-0.18281744420528412
0.2100059539079666,0.18410246074199677,-0.21768075227737427,-0.2539161443710327,-0.2749604284763336,-0.18711307644844055
0.21130935847759247,0.18519510328769684,-0.2183830440044403,-0.2534938156604767,-0.2758372128009796,-0.19145742058753967
0.21260672807693481,0.18627828359603882,-0.21905694901943207,-0.253022164106369,-0.27665218710899353,-0.1958700269460678
0.21392059326171875,0.18734785914421082,-0.2197190225124359,-0.2524815797805786,-0.27747392654418945,-0.20034648478031158
0.21520361304283142,0.188414067029953,-0.22036372125148773,-0.25195395946502686,-0.2782360017299652,-0.2049005925655365
0.21651172637939453,0.18947115540504456,-0.22098881006240845,-0.2513550817966461,-0.2790423035621643,-0.20950964093208313
0.21779504418373108,0.19051815569400787,-0.221594899892807,-0.25077950954437256,-0.2797883152961731,-0.21418547630310059
0.21910317242145538,0.19154910743236542,-0.22218631207942963,-0.25013279914855957,-0.2805372178554535,-0.21893244981765747
0.22038966417312622,0.19256694614887238,-0.22275494039058685,-0.24945539236068726,-0.2812255322933197,-0.2237502485513687
0.22169825434684753,0.19356846809387207,-0.22330892086029053,-0.24870510399341583,-0.28193169832229614,-0.22863653302192688
0.222982719540596,0.19457177817821503,-0.22384527325630188,-0.24797070026397705,-0.2825784981250763,-0.23359186947345734
0.22429141402244568,0.1955728977918625,-0.22437481582164764,-0.24716493487358093,-0.28326332569122314,-0.2386063039302826
0.22557583451271057,0.19652673602104187,-0.22488217055797577,-0.24635018408298492,-0.28388577699661255,-0.24368713796138763
0.2268848419189453,0.19746915996074677,-0.22536583244800568,-0.2454640120267868,-0.2844427525997162,-0.24884529411792755
0.22816750407218933,0.19838391244411469,-0.2258465439081192,-0.24461078643798828,-0.2849682569503784,-0.25405704975128174
0.22943121194839478,0.19930028915405273,-0.22631017863750458,-0.24374447762966156,-0.28543344140052795,-0.2592926621437073
0.230698361992836,0.20021502673625946,-0.22677412629127502,-0.24281178414821625,-0.28593388199806213,-0.2645329535007477
0.23197337985038757,0.20110878348350525,-0.22722558677196503,-0.24189570546150208,-0.2863738238811493,-0.26978176832199097
0.23321868479251862,0.20197373628616333,-0.22766080498695374,-0.24092580378055573,-0.2867812216281891,-0.2750355899333954
0.23448581993579865,0.20284013450145721,-0.2280755192041397,-0.2398833930492401,-0.2871284484863281,-0.28030285239219666
0.23575900495052338,0.20370416343212128,-0.22849205136299133,-0.23882386088371277,-0.2875273525714874,-0.2855682969093323
0.23705726861953735,0.20453400909900665,-0.22889527678489685,-0.23774327337741852,-0.2878652811050415,-0.29083362221717834
0.23832975327968597,0.2053551971912384,-0.2292809784412384,-0.23668044805526733,-0.28814181685447693,-0.29610106348991394
0.2396254688501358,0.20614609122276306,-0.22964254021644592,-0.2355465590953827,-0.28846752643585205,-0.3013502061367035
0.2408985048532486,0.20693929493427277,-0.22999019920825958,-0.2344263643026352,-0.2887331545352936,-0.3066084682941437
0.24219508469104767,0.2077285349369049,-0.23033222556114197,-0.2332349568605423,-0.2890436351299286,-0.31186389923095703
0.24348761141300201,0.20848935842514038,-0.2306573987007141,-0.23203754425048828,-0.2892925441265106,-0.3171212673187256
0.2448085993528366,0.20921620726585388,-0.23096658289432526,-0.23077045381069183,-0.2894939184188843,-0.3223823010921478
0.2461029589176178,0.2099454551935196,-0.2312624752521515,-0.22954963147640228,-0.28963255882263184,-0.32748135924339294
0.24742212891578674,0.2106732726097107,-0.23155643045902252,-0.22825758159160614,-0.2898297905921936,-0.332563579082489
0.24872078001499176,0.21136023104190826,-0.23183459043502808,-0.22696413099765778,-0.28996542096138,-0.33765679597854614
0.2500452697277069,0.21202582120895386,-0.23208987712860107,-0.2255999892950058,-0.2900391221046448,-0.3427404761314392
0.25134992599487305,0.2126910388469696,-0.2323414385318756,-0.22426320612430573,-0.2900823652744293,-0.3478330373764038
0.2526806592941284,0.2133275419473648,-0.2325715571641922,-0.22285480797290802,-0.29017212986946106,-0.35298213362693787
0.25398626923561096,0.21396797895431519,-0.23279519379138947,-0.22151660919189453,-0.2902018129825592,-0.3581943213939667
0.25531816482543945,0.21460096538066864,-0.23300613462924957,-0.22010938823223114,-0.2902676463127136,-0.36336615681648254
0.25662899017333984,0.2151750773191452,-0.23320823907852173,-0.21865501999855042,-0.29026710987091064,-0.368447870016098
0.25796082615852356,0.21570034325122833,-0.23338374495506287,-0.2171265035867691,-0.290203720331192,-0.37366366386413574
0.2592693567276001,0.21623913943767548,-0.23355181515216827,-0.2156280279159546,-0.2901061773300171,-0.37889230251312256
0.2606014609336853,0.21676792204380035,-0.2337041050195694,-0.21405847370624542,-0.29007020592689514,-0.38413065671920776
0.26191282272338867,0.2172708809375763,-0.23384734988212585,-0.2125188261270523,-0.2899717092514038,-0.38937583565711975
0.2632504403591156,0.21773776412010193,-0.23396338522434235,-0.21090862154960632,-0.28987810015678406,-0.3946298062801361
0.2645638585090637,0.21821165084838867,-0.23407888412475586,-0.20936830341815948,-0.289722740650177,-0.39988696575164795
0.26590338349342346,0.21867696940898895,-0.23417699337005615,-0.2077578455209732,-0.2896276116371155,-0.4051521420478821
0.26723673939704895,0.21915069222450256,-0.23427535593509674,-0.20616750419139862,-0.28947049379348755,-0.4102938771247864
0.2686026096343994,0.21961647272109985,-0.23437044024467468,-0.20450633764266968,-0.2893104553222656,-0.4154475927352905
0.26994389295578003,0.22005946934223175,-0.23445704579353333,-0.2028861939907074,-0.2890876829624176,-0.4206029772758484
0.27130937576293945,0.2204679399728775,-0.2344999760389328,-0.20119617879390717,-0.2889276146888733,-0.425721138715744
0.27265340089797974,0.22088496387004852,-0.2345435619354248,-0.19952411949634552,-0.2887057960033417,-0.4308412969112396
0.27401870489120483,0.2212967723608017,-0.23459185659885406,-0.1977800577878952,-0.28852787613868713,-0.4359680712223053
0.27535659074783325,0.22170543670654297,-0.2346474975347519,-0.19610564410686493,-0.28828907012939453,-0.4410970211029053
0.27670568227767944,0.22209793329238892,-0.23469147086143494,-0.19436253607273102,-0.288095623254776,-0.44622042775154114
0.2780253291130066,0.22249434888362885,-0.23474182188510895,-0.19268779456615448,-0.287841260433197,-0.45134249329566956
0.27937230467796326,0.22288048267364502,-0.23478126525878906,-0.19094321131706238,-0.28764772415161133,-0.45647016167640686
0.28069353103637695,0.22326181828975677,-0.23482804000377655,-0.18926839530467987,-0.28739261627197266,-0.4616026282310486
0.28203079104423523,0.2236233651638031,-0.23485878109931946,-0.1875244379043579,-0.28719228506088257,-0.4667370617389679
0.28333738446235657,0.2239924669265747,-0.23489804565906525,-0.18584968149662018,-0.2869308590888977,-0.4718708395957947
0.284668892621994,0.22435277700424194,-0.23492632806301117,-0.18410487473011017,-0.2867303192615509,-0.47700634598731995
0.2859743535518646,0.22470691800117493,-0.23496152460575104,-0.18242986500263214,-0.28646785020828247,-0.4821414649486542
0.28730157017707825,0.22503884136676788,-0.23497901856899261,-0.18068677186965942,-0.2862512469291687,-0.4873022139072418
0.28868967294692993,0.22534824907779694,-0.2350039929151535,-0.17887482047080994,-0.28610071539878845,-0.4924582540988922
0.29014110565185547,0.22567839920520782,-0.23504789173603058,-0.1770184189081192,-0.285936564207077,-0.49761268496513367
0.2915721833705902,0.22600509226322174,-0.23510868847370148,-0.1751701831817627,-0.2858205735683441,-0.502769410610199
0.29299119114875793,0.2263343781232834,-0.23516260087490082,-0.17329317331314087,-0.2856460213661194,-0.5079271197319031
0.29439017176628113,0.22666198015213013,-0.2352205216884613,-0.17136578261852264,-0.28552958369255066,-0.5130858421325684
0.29581403732299805,0.2269934117794037,-0.23527739942073822,-0.16945204138755798,-0.28535741567611694,-0.518413245677948
0.2972218990325928,0.2273210734128952,-0.23533684015274048,-0.16749435663223267,-0.28524404764175415,-0.5237441062927246
0.29864537715911865,0.22765281796455383,-0.2353888899087906,-0.16552910208702087,-0.2851099967956543,-0.5290751457214355
0.3000464141368866,0.22798091173171997,-0.23544557392597198,-0.16356894373893738,-0.285033643245697,-0.534406304359436
0.3014558255672455,0.2283114492893219,-0.2354981005191803,-0.16158592700958252,-0.28489890694618225,-0.539738655090332
0.3028378486633301,0.22863927483558655,-0.23555496335029602,-0.15958113968372345,-0.28482237458229065,-0.5450727343559265
0.304238885641098,0.22897039353847504,-0.2356082946062088,-0.15755991637706757,-0.2846931219100952,-0.5504069924354553
0.30561909079551697,0.22929847240447998,-0.23566654324531555,-0.15553370118141174,-0.2846221327781677,-0.5557421445846558
0.3070204555988312,0.22962723672389984,-0.2357213944196701,-0.1534799486398697,-0.2845003008842468,-0.5610771179199219
0.3083999752998352,0.22995075583457947,-0.2357819825410843,-0.1514316350221634,-0.2844369411468506,-0.5664145350456238
0.3098011314868927,0.230276420712471,-0.2358388900756836,-0.14935912191867828,-0.2843155264854431,-0.5717549920082092
0.3111831247806549,0.23059910535812378,-0.23590020835399628,-0.1472509354352951,-0.28425246477127075,-0.5770984292030334
0.3125840425491333,0.23092228174209595,-0.23596206307411194,-0.14512552320957184,-0.28413090109825134,-0.5824568271636963
0.3139646649360657,0.23123976588249207,-0.2360321432352066,-0.14298801124095917,-0.2840676009654999,-0.5878031849861145
0.3153654932975769,0.2315589040517807,-0.23609907925128937,-0.14083310961723328,-0.2839461863040924,-0.593151867389679
0.31674620509147644,0.23187486827373505,-0.23617063462734222,-0.13866446912288666,-0.2838829755783081,-0.5985022783279419
0.3181474804878235,0.23219360411167145,-0.23623795807361603,-0.13647125661373138,-0.2837643325328827,-0.6038545370101929
0.3195301294326782,0.23250944912433624,-0.23630964756011963,-0.13426876068115234,-0.28370401263237,-0.6092102527618408
0.32093346118927,0.23282493650913239,-0.23637954890727997,-0.13206417858600616,-0.2835908532142639,-0.6145800948143005
0.32231590151786804,0.2331341803073883,-0.23645657300949097,-0.12987655401229858,-0.28353631496429443,-0.6199522018432617
0.3237205147743225,0.23344570398330688,-0.23653055727481842,-0.1276652067899704,-0.28343257308006287,-0.6253266334533691
0.32510438561439514,0.23375371098518372,-0.23660963773727417,-0.12547816336154938,-0.2833871841430664,-0.6307042241096497
0.3265117108821869,0.23406632244586945,-0.23669123649597168,-0.12326928228139877,-0.28329312801361084,-0.6360867619514465
0.32789766788482666,0.2343752682209015,-0.23678214848041534,-0.12107504904270172,-0.2832579016685486,-0.6414783000946045
0.3293059468269348,0.2346867322921753,-0.23687081038951874,-0.11885714530944824,-0.2831704616546631,-0.646875262260437
0.33069613575935364,0.23499488830566406,-0.23696500062942505,-0.11666064709424973,-0.28314149379730225,-0.6522768139839172
0.33211103081703186,0.23530720174312592,-0.23705953359603882,-0.11444341391324997,-0.2830673158168793,-0.6576780080795288
0.33350443840026855,0.2356158345937729,-0.23716197907924652,-0.11223772913217545,-0.2830517888069153,-0.663084089756012
0.3349205255508423,0.23592770099639893,-0.237263023853302,-0.10999462753534317,-0.2829885184764862,-0.6684937477111816
0.3363246023654938,0.23623622953891754,-0.23737052083015442,-0.1077691912651062,-0.28298383951187134,-0.6739100813865662
0.3377567231655121,0.23654891550540924,-0.23748135566711426,-0.10552692413330078,-0.2829257547855377,-0.679332971572876
0.33916807174682617,0.23685795068740845,-0.23760178685188293,-0.10329515486955643,-0.2829263210296631,-0.6847645044326782
0.3406001627445221,0.237169086933136,-0.2377188503742218,-0.1010584831237793,-0.28287264704704285,-0.6902011632919312
0.34201231598854065,0.23747703433036804,-0.2378406673669815,-0.09881970286369324,-0.28287747502326965,-0.6956229209899902
0.3433573842048645,0.23772092163562775,-0.23794278502464294,-0.09664611518383026,-0.28283533453941345,-0.7010298371315002
0.3447237014770508,0.23796890676021576,-0.23801180720329285,-0.09445729851722717,-0.28281036019325256,-0.7064488530158997
0.3460700809955597,0.2382154017686844,-0.23808863759040833,-0.09225524961948395,-0.28282299637794495,-0.7118887305259705
0.34743988513946533,0.2384696900844574,-0.23817448318004608,-0.08998145163059235,-0.28278759121894836,-0.7173420786857605
0.34882253408432007,0.23872055113315582,-0.2382744550704956,-0.0877145454287529,-0.2828015387058258,-0.7227888703346252
0.3502497971057892,0.23897551000118256,-0.23838309943675995,-0.08539122343063354,-0.28275981545448303,-0.728243350982666
0.35165515542030334,0.23924249410629272,-0.23850864171981812,-0.0830988734960556,-0.2827656865119934,-0.7336955666542053
0.3530852794647217,0.2395229935646057,-0.23862941563129425,-0.0807429701089859,-0.282757043838501,-0.7391501665115356
0.3544880747795105,0.2397971749305725,-0.23875679075717926,-0.07845725119113922,-0.28274306654930115,-0.7446078062057495
0.3559108078479767,0.24008125066757202,-0.23887620866298676,-0.07623205333948135,-0.28280070424079895,-0.7500661611557007
0.3573148548603058,0.24042633175849915,-0.23901936411857605,-0.0740787535905838,-0.2829006314277649,-0.7555255889892578
0.35874250531196594,0.2407766729593277,-0.23920610547065735,-0.0718870535492897,-0.28306201100349426,-0.7609946131706238
0.3602251410484314,0.24107666313648224,-0.23943491280078888,-0.0697588175535202,-0.2832893133163452,-0.7664751410484314
0.36169180274009705,0.24131661653518677,-0.23965105414390564,-0.06770361214876175,-0.2835814952850342,-0.7719660401344299
0.3631722331047058,0.24155943095684052,-0.239834263920784,-0.06569340080022812,-0.28382164239883423,-0.7774644494056702
0.3646339178085327,0.24181517958641052,-0.24002227187156677,-0.06362476199865341,-0.2841207683086395,-0.7829673886299133
0.3661161959171295,0.24209193885326385,-0.24022342264652252,-0.0614834725856781,-0.28444772958755493,-0.7884691953659058
0.3675861954689026,0.24236708879470825,-0.2404453009366989,-0.05939106643199921,-0.28478527069091797,-0.7939701676368713
0.3690907955169678,0.24265024065971375,-0.24066178500652313,-0.05722975358366966,-0.28512832522392273,-0.7994670867919922
0.3705706000328064,0.24295011162757874,-0.24089020490646362,-0.05511946603655815,-0.2854849398136139,-0.8049715757369995
0.3720758557319641,0.2432570606470108,-0.2411264330148697,-0.05293911695480347,-0.28589433431625366,-0.810488224029541
0.37364402413368225,0.24359869956970215,-0.24139995872974396,-0.050691504031419754,-0.2862696945667267,-0.8160054087638855
0.3752155601978302,0.24393177032470703,-0.24171508848667145,-0.04838232323527336,-0.2867060899734497,-0.8215227723121643
0.37681958079338074,0.24426108598709106,-0.24203091859817505,-0.04600180685520172,-0.2870849370956421,-0.8270397782325745
0.3784002661705017,0.24460190534591675,-0.24235855042934418,-0.043646495789289474,-0.2874736785888672,-0.8325571417808533
0.3800044357776642,0.24494758248329163,-0.24267876148223877,-0.04123416915535927,-0.28788939118385315,-0.8380744457244873
0.38158243894577026,0.24529540538787842,-0.24301424622535706,-0.03889163210988045,-0.2882876992225647,-0.8435914516448975
0.38318657875061035,0.2456444650888443,-0.243338480591774,-0.03648567199707031,-0.2887439429759979,-0.8491083979606628
0.3847649395465851,0.24600516259670258,-0.24368137121200562,-0.03414918854832649,-0.28914499282836914,-0.8546249866485596
0.38636234402656555,0.24633756279945374,-0.24401135742664337,-0.03175579383969307,-0.2896106243133545,-0.8601422905921936
0.3879324793815613,0.2466793805360794,-0.2443525493144989,-0.02943119965493679,-0.2900143265724182,-0.8656595945358276
0.3895067870616913,0.24702191352844238,-0.24468789994716644,-0.02706809714436531,-0.29048019647598267,-0.8711775541305542
0.3910462260246277,0.24738040566444397,-0.2450302392244339,-0.024773316457867622,-0.2908893823623657,-0.8766958117485046
0.3926096558570862,0.2477332055568695,-0.24536485970020294,-0.022409504279494286,-0.2913593351840973,-0.8822136521339417
0.3941477835178375,0.24809451401233673,-0.24570666253566742,-0.02011464536190033,-0.2917841374874115,-0.8877313733100891
0.39570263028144836,0.24844776093959808,-0.2460401952266693,-0.01775156892836094,-0.29226985573768616,-0.8932504057884216
0.39722761511802673,0.2488081455230713,-0.24637986719608307,-0.015456844121217728,-0.292695015668869,-0.8987694382667542
0.398770272731781,0.2491612285375595,-0.24671098589897156,-0.013096931390464306,-0.2931807339191437,-0.904289186000824
0.4002839922904968,0.24952195584774017,-0.24704837799072266,-0.010805537924170494,-0.29361391067504883,-0.9098089337348938
0.40180981159210205,0.2498749941587448,-0.24737700819969177,-0.008463720791041851,-0.2941077649593353,-0.9153276681900024
0.403304785490036,0.25023525953292847,-0.24770909547805786,-0.006190405692905188,-0.29455259442329407,-0.9208468198776245
0.40482431650161743,0.25059229135513306,-0.24803473055362701,-0.0038489485159516335,-0.29505816102027893,-0.9263659119606018
0.4063185751438141,0.25095900893211365,-0.24836792051792145,-0.0015764170093461871,-0.2955043613910675,-0.931884765625
0.4078024625778198,0.2513195276260376,-0.24869124591350555,0.0007410767721012235,-0.29601138830184937,-0.9374051094055176
0.40927809476852417,0.25168973207473755,-0.2490137666463852,0.002994409529492259,-0.2964847683906555,-0.942916214466095
0.41073665022850037,0.2520557641983032,-0.24933791160583496,0.005278509575873613,-0.2970181703567505,-0.9484283924102783
0.41222187876701355,0.25242650508880615,-0.24965359270572662,0.007530588656663895,-0.297505259513855,-0.9539387226104736
0.4136894643306732,0.2528090178966522,-0.24998030066490173,0.009762704372406006,-0.2980516254901886,-0.9594516158103943
0.41515079140663147,0.25320497155189514,-0.25030121207237244,0.012030322104692459,-0.29858577251434326,-0.9649623036384583
0.4165876805782318,0.2535994052886963,-0.2506271004676819,0.014290789142251015,-0.29916536808013916,-0.9704746603965759
0.41805127263069153,0.253996878862381,-0.25094762444496155,0.016560060903429985,-0.2996865510940552,-0.9759851694107056
0.41949284076690674,0.25439202785491943,-0.251272588968277,0.01877773366868496,-0.3002658188343048,-0.9814968705177307
0.42093029618263245,0.2547897696495056,-0.2515926659107208,0.0210256464779377,-0.3008019030094147,-0.9870100617408752
0.42234113812446594,0.2551850974559784,-0.25191786885261536,0.02327297255396843,-0.30139628052711487,-0.9925179481506348
0.423776239156723,0.25558286905288696,-0.25223812460899353,0.025527330115437508,-0.30193251371383667,-0.9980262517929077
0.4251897931098938,0.25597795844078064,-0.25256311893463135,0.02774125151336193,-0.30252110958099365,-1.0035321712493896
0.426620751619339,0.2563757002353668,-0.2528831958770752,0.029985718429088593,-0.30305659770965576,-1.0090398788452148
0.42802512645721436,0.2567704916000366,-0.2532061040401459,0.03218495845794678,-0.30364903807640076,-1.0145474672317505
0.4294431209564209,0.2571680545806885,-0.2535230815410614,0.03442087769508362,-0.3041902780532837,-1.0200549364089966
0.430832177400589,0.2575629651546478,-0.2538437843322754,0.03661743924021721,-0.3047882616519928,-1.0255624055862427
0.43224358558654785,0.25796064734458923,-0.2541591227054596,0.03884553536772728,-0.3053322434425354,-1.0310699939727783
0.4336313307285309,0.2583557963371277,-0.2544785439968109,0.04102427884936333,-0.3059329092502594,-1.0365779399871826
0.4350213408470154,0.25875329971313477,-0.25479286909103394,0.0432344414293766,-0.30648159980773926,-1.0420860052108765
0.436377614736557,0.2591470181941986,-0.255106121301651,0.04543660581111908,-0.30708882212638855,-1.0475932359695435
0.4377534091472626,0.25954359769821167,-0.25541019439697266,0.04766229912638664,-0.30763790011405945,-1.053101658821106
0.439105749130249,0.25993838906288147,-0.2557181715965271,0.04983868822455406,-0.3082396686077118,-1.0586092472076416
0.44048184156417847,0.26033633947372437,-0.2560209035873413,0.05205225571990013,-0.30879199504852295,-1.0641162395477295
0.4418329894542694,0.26073169708251953,-0.2563280761241913,0.054194942116737366,-0.3094024062156677,-1.0696245431900024
0.4431900084018707,0.26107898354530334,-0.2566744387149811,0.05633723363280296,-0.31001773476600647,-1.0751324892044067
0.4445183277130127,0.261414110660553,-0.2570209205150604,0.05841301381587982,-0.31057479977607727,-1.0806405544281006
0.44587117433547974,0.2617362141609192,-0.25733524560928345,0.06055751070380211,-0.31119272112846375,-1.0861486196517944
0.44719940423965454,0.26206958293914795,-0.2576579749584198,0.06263360381126404,-0.31174901127815247,-1.0916564464569092
0.4485451281070709,0.2623950242996216,-0.2579719126224518,0.06477746367454529,-0.31236642599105835,-1.0971646308898926
0.44986289739608765,0.2627279758453369,-0.25829073786735535,0.06686708331108093,-0.31292298436164856,-1.1026724576950073
0.4512041211128235,0.26305434107780457,-0.25860247015953064,0.06902553141117096,-0.3135402202606201,-1.1081801652908325
0.45252057909965515,0.2633877098560333,-0.2589209973812103,0.07111549377441406,-0.3140968084335327,-1.1136877536773682
0.4538557231426239,0.2637135088443756,-0.2592303156852722,0.07327336072921753,-0.31471410393714905,-1.1191954612731934
0.4551631212234497,0.26404696702957153,-0.25954511761665344,0.0753680020570755,-0.3152798116207123,-1.124703049659729
0.45649442076683044,0.26437315344810486,-0.2598516345024109,0.07753118872642517,-0.31590643525123596,-1.1302107572555542
0.45780110359191895,0.2647068202495575,-0.2601647675037384,0.0796259343624115,-0.31647631525993347,-1.1357181072235107
0.4591151177883148,0.2650326192378998,-0.26046958565711975,0.08178766071796417,-0.3171069622039795,-1.141225814819336
0.4604000747203827,0.26536545157432556,-0.26077765226364136,0.08388788253068924,-0.3176838159561157,-1.1467325687408447
0.4617110788822174,0.26569226384162903,-0.2610801160335541,0.0860564112663269,-0.3183211088180542,-1.1522396802902222
0.46299779415130615,0.2660256028175354,-0.261388897895813,0.08815646171569824,-0.31889796257019043,-1.1577463150024414
0.46430203318595886,0.2663517892360687,-0.26168951392173767,0.0903242975473404,-0.3195354640483856,-1.1632533073425293
0.46557772159576416,0.26668497920036316,-0.26199570298194885,0.09242423623800278,-0.3201136887073517,-1.1687593460083008
0.46687743067741394,0.2670113146305084,-0.26229429244995117,0.09459253400564194,-0.3207525610923767,-1.1742663383483887
0.46815264225006104,0.26734477281570435,-0.26259946823120117,0.09669246524572372,-0.3213326930999756,-1.1797730922698975
0.4694353938102722,0.26767054200172424,-0.26289618015289307,0.09885931015014648,-0.3219735026359558,-1.1852803230285645
0.4706898629665375,0.2680034339427948,-0.2631964385509491,0.10095946490764618,-0.32255998253822327,-1.1907868385314941
0.4719710350036621,0.26833024621009827,-0.2634910047054291,0.10312767326831818,-0.32320693135261536,-1.196293830871582
0.47322818636894226,0.26866358518600464,-0.2637917995452881,0.10522745549678802,-0.3237934112548828,-1.2018003463745117
0.4745000898838043,0.26898977160453796,-0.2640846073627472,0.10739472508430481,-0.32444044947624207,-1.2073073387145996
0.4757419228553772,0.26932281255722046,-0.2643824815750122,0.10949434340000153,-0.32502925395965576,-1.2128138542175293
0.47700735926628113,0.2696492075920105,-0.26467305421829224,0.11166231334209442,-0.3256787061691284,-1.2183204889297485
0.4782484471797943,0.26998281478881836,-0.26497048139572144,0.11376197636127472,-0.3262690603733063,-1.2238270044326782
0.47950848937034607,0.27031224966049194,-0.26526039838790894,0.11592945456504822,-0.32692036032676697,-1.229333519935608
0.480741024017334,0.2706519663333893,-0.26555755734443665,0.11802899837493896,-0.32751938700675964,-1.234839677810669
0.48199737071990967,0.2709847092628479,-0.26584675908088684,0.12019678205251694,-0.32817932963371277,-1.240346074104309
0.483229398727417,0.2713247835636139,-0.26614299416542053,0.12229631096124649,-0.3287784159183502,-1.2458521127700806
0.48447051644325256,0.27165722846984863,-0.2664312422275543,0.12445956468582153,-0.3294382691383362,-1.2513585090637207
0.4856809675693512,0.27199673652648926,-0.2667233347892761,0.12655575573444366,-0.3300437927246094,-1.2568645477294922
0.48691585659980774,0.2723299562931061,-0.26700901985168457,0.12872010469436646,-0.33070987462997437,-1.2623707056045532
0.48812660574913025,0.2726699411869049,-0.26730144023895264,0.130816251039505,-0.3313153386116028,-1.2678765058517456
0.489361047744751,0.2730028033256531,-0.26758572459220886,0.13297341763973236,-0.33198150992393494,-1.2733826637268066
0.4905717372894287,0.2733428180217743,-0.26787644624710083,0.13506223261356354,-0.3325885534286499,-1.278888463973999
0.4917917549610138,0.2736782431602478,-0.26815980672836304,0.13720892369747162,-0.3332565426826477,-1.28439462184906
0.4929801821708679,0.2740233838558197,-0.2684478461742401,0.13928824663162231,-0.33387717604637146,-1.2899004220962524
0.4941921532154083,0.2743622958660126,-0.2687293589115143,0.14143580198287964,-0.3345586061477661,-1.2954063415527344
0.49537983536720276,0.27470827102661133,-0.26901775598526,0.1435152292251587,-0.3351792097091675,-1.3009120225906372
0.49659159779548645,0.2750469148159027,-0.26929813623428345,0.14566268026828766,-0.33586063981056213,-1.3064179420471191
0.4977792799472809,0.27539291977882385,-0.26958566904067993,0.14774206280708313,-0.33648115396499634,-1.3119232654571533
0.49898532032966614,0.27573147416114807,-0.2698650360107422,0.14987923204898834,-0.3371625542640686,-1.3174290657043457
0.5001646280288696,0.2760770320892334,-0.2701497972011566,0.15194843709468842,-0.337784081697464,-1.3229343891143799
0.5013648867607117,0.27641570568084717,-0.27042722702026367,0.15408338606357574,-0.33846643567085266,-1.3284400701522827
0.5025395750999451,0.2767615020275116,-0.27071109414100647,0.15615041553974152,-0.33908942341804504,-1.3339452743530273
0.5037314891815186,0.2771001160144806,-0.27098724246025085,0.15827788412570953,-0.3397730886936188,-1.339450716972351
0.5048961639404297,0.27744582295417786,-0.27126869559288025,0.16033755242824554,-0.34040048718452454,-1.3449558019638062
0.5060842633247375,0.27778470516204834,-0.27154284715652466,0.16246232390403748,-0.3410886526107788,-1.3504611253738403
0.5072483420372009,0.2781306505203247,-0.27182385325431824,0.16451901197433472,-0.3417159616947174,-1.3559658527374268
0.5084241628646851,0.27846938371658325,-0.27209708094596863,0.16663330793380737,-0.3424040675163269,-1.3614710569381714
0.5095693469047546,0.2788154184818268,-0.27237460017204285,0.16868016123771667,-0.34303826093673706,-1.3669757843017578
0.5107377767562866,0.27915501594543457,-0.27264562249183655,0.17079509794712067,-0.34373316168785095,-1.3724807500839233
0.5118821263313293,0.2795015871524811,-0.2729235589504242,0.17284201085567474,-0.34436720609664917,-1.3779853582382202
0.5130497217178345,0.27984100580215454,-0.27319344878196716,0.1749470829963684,-0.3450608551502228,-1.3834893703460693
0.5141939520835876,0.28018829226493835,-0.27347350120544434,0.17698386311531067,-0.3456934094429016,-1.388995885848999
0.515324056148529,0.28053945302963257,-0.2737492024898529,0.1790100783109665,-0.34638768434524536,-1.3945025205612183
0.516441822052002,0.28090691566467285,-0.2740269899368286,0.1809934377670288,-0.347025990486145,-1.4000091552734375
0.5175615549087524,0.2812719941139221,-0.2743074297904968,0.18304093182086945,-0.3477240204811096,-1.4055161476135254
0.5186857581138611,0.2816419303417206,-0.27458733320236206,0.18503016233444214,-0.3483636975288391,-1.4110221862792969
0.5197800397872925,0.2820075750350952,-0.2748715579509735,0.18706375360488892,-0.34906262159347534,-1.4165292978286743
0.5208891034126282,0.2823719084262848,-0.2751457691192627,0.18910013139247894,-0.3497246503829956,-1.4220353364944458
0.5219765305519104,0.2827305793762207,-0.2754284739494324,0.19109377264976501,-0.3504379987716675,-1.427541732788086
0.5230868458747864,0.2830905616283417,-0.27570679783821106,0.1931295543909073,-0.3511013984680176,-1.433047890663147
0.5241737961769104,0.2834475040435791,-0.275990754365921,0.1951112002134323,-0.3518105149269104,-1.438553810119629
0.5252847075462341,0.28380733728408813,-0.2762692868709564,0.19714370369911194,-0.3524811863899231,-1.4440598487854004
0.5263713598251343,0.28416386246681213,-0.2765534520149231,0.19911640882492065,-0.3531894385814667,-1.4495656490325928
0.5274819135665894,0.28452393412590027,-0.2768319845199585,0.2011462301015854,-0.353867769241333,-1.4550715684890747
0.528567373752594,0.2848801612854004,-0.2771163582801819,0.20311371982097626,-0.3545735776424408,-1.4605770111083984
0.5296627879142761,0.2852402329444885,-0.27739518880844116,0.2051430195569992,-0.3552577793598175,-1.4660829305648804
0.5307249426841736,0.28559595346450806,-0.2776792645454407,0.2071264535188675,-0.35596662759780884,-1.4715882539749146
0.5318101048469543,0.28595587611198425,-0.27795645594596863,0.20917107164859772,-0.3566514253616333,-1.4770938158035278
0.5328696966171265,0.2863118052482605,-0.2782393991947174,0.21114574372768402,-0.3573577105998993,-1.4825990200042725
0.5339548587799072,0.28667235374450684,-0.27851617336273193,0.21318760514259338,-0.35805001854896545,-1.4881044626235962
0.5350144505500793,0.2870280146598816,-0.2787991464138031,0.21515969932079315,-0.3587554097175598,-1.4936094284057617
0.5360995531082153,0.28738871216773987,-0.2790758013725281,0.21719665825366974,-0.3594528138637543,-1.499114751815796
0.5371591448783875,0.28774428367614746,-0.279358834028244,0.2191639244556427,-0.3601580858230591,-1.5046195983886719
0.5382310152053833,0.2881048321723938,-0.2796357572078705,0.22119739651679993,-0.3608587384223938,-1.5101248025894165
0.539269745349884,0.28846031427383423,-0.2799191474914551,0.22317205369472504,-0.3615683317184448,-1.515629529953003
0.5403327345848083,0.28882089257240295,-0.28019601106643677,0.22521664202213287,-0.36227014660835266,-1.521134614944458
0.5413697957992554,0.2891763746738434,-0.2804792523384094,0.22719164192676544,-0.3629770278930664,-1.5266392230987549
0.5424323678016663,0.289537250995636,-0.280755877494812,0.2292325645685196,-0.3636815845966339,-1.5321441888809204
0.543469250202179,0.2898927628993988,-0.28103896975517273,0.23120388388633728,-0.36439046263694763,-1.5376486778259277
0.5445307493209839,0.2902536392211914,-0.2813155949115753,0.2332388162612915,-0.3650974929332733,-1.5431535243988037
0.5455662608146667,0.2906091511249542,-0.2815987467765808,0.23520419001579285,-0.3658078610897064,-1.548657774925232
0.5466156601905823,0.2909697890281677,-0.2818756103515625,0.23723649978637695,-0.366517037153244,-1.554162621498108
0.5476328134536743,0.2913252115249634,-0.2821590304374695,0.23920457065105438,-0.3672310709953308,-1.5596668720245361
0.548674464225769,0.2916859984397888,-0.282435804605484,0.24124231934547424,-0.3679424226284027,-1.565171480178833
0.5496940016746521,0.2920420467853546,-0.2827177345752716,0.2431814968585968,-0.36865681409835815,-1.5654746294021606
0.5506944060325623,0.29235008358955383,-0.28305310010910034,0.24521611630916595,-0.36930152773857117,-1.5657449960708618
0.5517321228981018,0.29266035556793213,-0.2834440767765045,0.24732168018817902,-0.36988481879234314,-1.5660154819488525
0.5527504086494446,0.2929592430591583,-0.2838515043258667,0.24943138659000397,-0.37039926648139954,-1.5662860870361328
0.5537909865379333,0.2932668626308441,-0.2842511534690857,0.2516085207462311,-0.37085163593292236,-1.5665563344955444
0.5548073053359985,0.29356756806373596,-0.2846655547618866,0.25374850630760193,-0.37123140692710876,-1.566826581954956
0.5558472275733948,0.29385849833488464,-0.2850702404975891,0.25595828890800476,-0.3715631365776062,-1.5670969486236572
0.5568639039993286,0.29414495825767517,-0.2854839563369751,0.25813573598861694,-0.37191352248191833,-1.5673673152923584
0.5579041838645935,0.29444149136543274,-0.2858910858631134,0.2603757679462433,-0.37226566672325134,-1.5676376819610596
0.5589190125465393,0.29473409056663513,-0.2863041162490845,0.26254981756210327,-0.3726334869861603,-1.567907691001892
0.5599588751792908,0.29503336548805237,-0.2867162823677063,0.264789342880249,-0.37300121784210205,-1.5681778192520142
0.5609737038612366,0.29532724618911743,-0.28713876008987427,0.26696541905403137,-0.37338295578956604,-1.5684475898742676
0.5620134472846985,0.29562556743621826,-0.28755563497543335,0.2692053020000458,-0.3737615644931793,-1.5687175989151
0.5630283355712891,0.29591861367225647,-0.28797924518585205,0.2713811993598938,-0.3741511404514313,-1.5689871311187744
0.564067542552948,0.29621776938438416,-0.2884010970592499,0.27361318469047546,-0.37453925609588623,-1.5692431926727295
0.5650818347930908,0.29650816321372986,-0.2888348400592804,0.2757743299007416,-0.3748563230037689,-1.5695130825042725
0.5661142468452454,0.29679983854293823,-0.28927943110466003,0.27787455916404724,-0.3751651644706726,-1.5697813034057617
0.5671279430389404,0.2970789670944214,-0.2897273898124695,0.27990174293518066,-0.37550604343414307,-1.5700502395629883
0.568084180355072,0.29736024141311646,-0.29015979170799255,0.2818835973739624,-0.3758064806461334,-1.5703195333480835
0.5690575838088989,0.2976405620574951,-0.2905862033367157,0.28393489122390747,-0.37616652250289917,-1.5705889463424683
0.5700069665908813,0.2979276180267334,-0.291020929813385,0.2859184145927429,-0.37646618485450745,-1.5708578824996948
0.5709747672080994,0.29820752143859863,-0.2914467453956604,0.287969172000885,-0.3768266439437866,-1.57112717628479
0.5719168186187744,0.2984946668148041,-0.29187920689582825,0.28995779156684875,-0.37712612748146057,-1.5713961124420166
0.5728709101676941,0.2987746000289917,-0.29230421781539917,0.29201313853263855,-0.37748658657073975,-1.571665644645691
0.5737967491149902,0.2990613877773285,-0.29273471236228943,0.2940227687358856,-0.3777860701084137,-1.571934700012207
0.5747437477111816,0.2993418872356415,-0.2931593358516693,0.296100378036499,-0.37814632058143616,-1.5722041130065918
0.5756675601005554,0.2996293306350708,-0.2935909926891327,0.298110693693161,-0.37844574451446533,-1.5724730491638184
0.5766068696975708,0.29990923404693604,-0.2940143644809723,0.3001876473426819,-0.37880614399909973,-1.5727424621582031
0.5775195360183716,0.30019620060920715,-0.29444339871406555,0.3022153675556183,-0.3791055977344513,-1.5730112791061401
0.5784537196159363,0.300476610660553,-0.2948662042617798,0.30431097745895386,-0.37946581840515137,-1.573280692100525
0.5793646574020386,0.30076152086257935,-0.2952953577041626,0.3063391149044037,-0.3797650635242462,-1.573549509048462
0.5802820324897766,0.3010364770889282,-0.29571548104286194,0.30843326449394226,-0.3801252841949463,-1.5738189220428467
0.5811733603477478,0.3013180196285248,-0.2961398661136627,0.3104878067970276,-0.38042470812797546,-1.5740877389907837
0.5820886492729187,0.3015936613082886,-0.296560674905777,0.3126101791858673,-0.38077810406684875,-1.574357032775879
0.5829811096191406,0.30187374353408813,-0.29698729515075684,0.31466495990753174,-0.38107049465179443,-1.5746259689331055
0.5838884711265564,0.30214470624923706,-0.29740503430366516,0.31678637862205505,-0.38142213225364685,-1.5748952627182007
0.5847681760787964,0.302422434091568,-0.2978281080722809,0.3188444674015045,-0.3817129135131836,-1.5751643180847168
0.5856698751449585,0.30269336700439453,-0.2982439398765564,0.32096999883651733,-0.38206347823143005,-1.575433611869812
0.5865489840507507,0.30297133326530457,-0.298666775226593,0.32303208112716675,-0.3823530972003937,-1.5757025480270386
0.5874367356300354,0.3032412827014923,-0.29908207058906555,0.32516029477119446,-0.3826994299888611,-1.5759718418121338
0.5882952809333801,0.3035118579864502,-0.2995005249977112,0.3272503614425659,-0.382984459400177,-1.57624089717865
0.5891749262809753,0.3037704527378082,-0.29991233348846436,0.3294086456298828,-0.38331282138824463,-1.5765100717544556
0.5900315046310425,0.3040356934070587,-0.30033135414123535,0.3314996361732483,-0.38358011841773987,-1.5767790079116821
0.5909109711647034,0.30429327487945557,-0.30074191093444824,0.33365780115127563,-0.38390839099884033,-1.5770481824874878
0.5917676091194153,0.30455824732780457,-0.30115893483161926,0.3357488512992859,-0.38417568802833557,-1.5773169994354248
0.5926346182823181,0.3048155605792999,-0.30156826972961426,0.3379058837890625,-0.38450387120246887,-1.5775861740112305
0.5934718251228333,0.30507978796958923,-0.301982045173645,0.34000763297080994,-0.3847711980342865,-1.5778549909591675
0.5943301320075989,0.3053377866744995,-0.30238988995552063,0.34217697381973267,-0.38509923219680786,-1.5781240463256836
0.5951655507087708,0.3056027889251709,-0.3028046488761902,0.34427908062934875,-0.3853665292263031,-1.5783928632736206
0.596023678779602,0.3058604896068573,-0.30321139097213745,0.34644830226898193,-0.3856947124004364,-1.5786619186401367
0.5968592762947083,0.3061254620552063,-0.3036247193813324,0.34855449199676514,-0.38596194982528687,-1.5789307355880737
0.5977072715759277,0.3063827455043793,-0.30403080582618713,0.35072699189186096,-0.386284202337265,-1.5791999101638794
0.5985273718833923,0.3066437840461731,-0.3044413924217224,0.35285529494285583,-0.38654521107673645,-1.5794687271118164
0.5993680953979492,0.30689534544944763,-0.30484557151794434,0.3550514280796051,-0.3868577182292938,-1.579737901687622
0.6001861691474915,0.30715370178222656,-0.305256724357605,0.35718047618865967,-0.38710927963256836,-1.5800065994262695
0.6010267734527588,0.30740469694137573,-0.30565980076789856,0.35937654972076416,-0.38742178678512573,-1.5802756547927856
0.601844847202301,0.30766281485557556,-0.30606916546821594,0.3615056574344635,-0.3876733183860779,-1.5805442333221436
0.6026735901832581,0.30791351199150085,-0.3064711093902588,0.3637007474899292,-0.38798514008522034,-1.5808132886886597
0.6034733653068542,0.3081701695919037,-0.30687767267227173,0.36584725975990295,-0.38823598623275757,-1.5810818672180176
0.6042938828468323,0.3084198534488678,-0.30727872252464294,0.36806145310401917,-0.3885419964790344,-1.5813508033752441
0.605091392993927,0.3086736500263214,-0.3076860010623932,0.3702084422111511,-0.38878682255744934,-1.581619381904602
0.6059115529060364,0.3089175522327423,-0.30808424949645996,0.3724225163459778,-0.3890894055366516,-1.5818883180618286
0.6067092418670654,0.3091684877872467,-0.30848899483680725,0.37456968426704407,-0.3893309235572815,-1.5821568965911865
0.6075243353843689,0.3094118535518646,-0.30888617038726807,0.3767833411693573,-0.38963010907173157,-1.5824259519577026
0.6083143353462219,0.3096623718738556,-0.3092890977859497,0.37893685698509216,-0.38986822962760925,-1.5826945304870605
0.6091260313987732,0.30990612506866455,-0.30968526005744934,0.3811575174331665,-0.39016562700271606,-1.5829635858535767
0.6099153757095337,0.3101569414138794,-0.31008800864219666,0.38331279158592224,-0.39040207862854004,-1.583232045173645
0.6107156872749329,0.3104003369808197,-0.3104836642742157,0.3855340778827667,-0.39069700241088867,-1.5835009813308716
0.6114875674247742,0.310647189617157,-0.31088343262672424,0.38771116733551025,-0.39093077182769775,-1.5837697982788086
0.6122796535491943,0.3108848035335541,-0.3112771809101105,0.389955997467041,-0.39121440052986145,-1.5840387344360352
0.6130492687225342,0.3111291229724884,-0.31167784333229065,0.39213377237319946,-0.39143696427345276,-1.5843071937561035
0.6138412356376648,0.31136614084243774,-0.3120706379413605,0.3943784534931183,-0.3917204737663269,-1.5845760107040405
0.6146108508110046,0.31161028146743774,-0.31246960163116455,0.3965562880039215,-0.3919430077075958,-1.5848445892333984
0.6154018640518188,0.3118472397327423,-0.3128611743450165,0.39880090951919556,-0.39222651720046997,-1.5851134061813354
0.616169810295105,0.3120913803577423,-0.31325867772102356,0.4009787142276764,-0.3924490511417389,-1.5853819847106934
0.6169496774673462,0.3123281002044678,-0.3136492669582367,0.4032225012779236,-0.39272892475128174,-1.58565092086792
0.6177014112472534,0.3125690221786499,-0.31404420733451843,0.40541592240333557,-0.39294761419296265,-1.585919737815857
0.6184738278388977,0.312801331281662,-0.3144329786300659,0.4076767563819885,-0.39322054386138916,-1.586188554763794
0.6192238330841064,0.3130403459072113,-0.31482839584350586,0.4098707437515259,-0.3934323489665985,-1.5864570140838623
0.6199961304664612,0.313272088766098,-0.3152163028717041,0.41213148832321167,-0.3937051594257355,-1.5867258310317993
0.6207461357116699,0.3135109543800354,-0.31561028957366943,0.4143255054950714,-0.3939169645309448,-1.5869941711425781
0.6215165257453918,0.3137425184249878,-0.31599703431129456,0.41658613085746765,-0.39418715238571167,-1.5872629880905151
0.622263491153717,0.3139812648296356,-0.31638965010643005,0.4187800884246826,-0.3943963348865509,-1.5875314474105835
0.6230258941650391,0.314212828874588,-0.31677544116973877,0.4210401773452759,-0.39466530084609985,-1.587800145149231
0.6237622499465942,0.31444841623306274,-0.31716594099998474,0.4232466518878937,-0.3948730528354645,-1.5880688428878784
0.6245195865631104,0.3146747052669525,-0.31754976511001587,0.4255203306674957,-0.39513203501701355,-1.5883375406265259
0.6252546906471252,0.31490790843963623,-0.3179400563240051,0.42772725224494934,-0.39532995223999023,-1.5886059999465942
0.626011848449707,0.31513383984565735,-0.3183230757713318,0.4300008714199066,-0.3955889046192169,-1.5888746976852417
0.6267469525337219,0.31536680459976196,-0.3187119662761688,0.43220779299736023,-0.3957868218421936,-1.58914315700531
0.6274929046630859,0.31559252738952637,-0.3190942108631134,0.4344805181026459,-0.3960440754890442,-1.589411735534668
0.6282103061676025,0.31582385301589966,-0.3194807469844818,0.4367012679576874,-0.39624038338661194,-1.5896801948547363
0.6289480924606323,0.31604814529418945,-0.3198620080947876,0.43898922204971313,-0.3964933454990387,-1.5899487733840942
0.6296636462211609,0.31627753376960754,-0.3202492892742157,0.44121044874191284,-0.39668530225753784,-1.590217113494873
0.6304012537002563,0.3164985179901123,-0.320628821849823,0.4434983730316162,-0.3969360888004303,-1.5904855728149414
0.6311169266700745,0.3167263865470886,-0.32101428508758545,0.4457196593284607,-0.39712589979171753,-1.5907540321350098
0.6318545341491699,0.31694695353507996,-0.32139283418655396,0.44800758361816406,-0.39737293124198914,-1.5910224914550781
0.632570207118988,0.31717467308044434,-0.32177734375,0.45022886991500854,-0.39755889773368835,-1.591290831565857
0.6333023905754089,0.31739524006843567,-0.3221551477909088,0.4525162875652313,-0.3978041708469391,-1.5915595293045044
0.6340094208717346,0.31762269139289856,-0.32253798842430115,0.4547419548034668,-0.3979884386062622,-1.5918278694152832
0.634737491607666,0.31784358620643616,-0.3229149878025055,0.45703431963920593,-0.39823204278945923,-1.5920963287353516
0.6354435086250305,0.3180691599845886,-0.3232974410057068,0.45926013588905334,-0.3984145224094391,-1.5923645496368408
0.6361685991287231,0.31828564405441284,-0.3236722946166992,0.46155229210853577,-0.39865177869796753,-1.5926331281661987
0.6368701457977295,0.31850892305374146,-0.32405272126197815,0.463779091835022,-0.3988279700279236,-1.592901349067688
0.6375907063484192,0.3187253773212433,-0.3244268298149109,0.4660722017288208,-0.3990650773048401,-1.5931698083877563
0.6382882595062256,0.3189486563205719,-0.32480642199516296,0.46830305457115173,-0.39924126863479614,-1.5934380292892456
0.6390055418014526,0.3191649913787842,-0.3251799941062927,0.4706004858016968,-0.39947447180747986,-1.593706488609314
0.6397002339363098,0.3193877339363098,-0.3255590796470642,0.4728347361087799,-0.3996466100215912,-1.5939747095108032
0.6404126286506653,0.3196030855178833,-0.32593175768852234,0.47513529658317566,-0.3998775780200958,-1.5942431688308716
0.6411008834838867,0.3198240101337433,-0.3263094127178192,0.47737425565719604,-0.40004754066467285,-1.5945112705230713
0.6418104767799377,0.32003718614578247,-0.3266807496547699,0.47967982292175293,-0.40027397871017456,-1.5947797298431396
0.6424981951713562,0.32025712728500366,-0.32705795764923096,0.48191899061203003,-0.4004393517971039,-1.5950477123260498
0.6432012319564819,0.32047000527381897,-0.32742875814437866,0.4842241406440735,-0.40066468715667725,-1.5953161716461182
0.6438790559768677,0.3206879496574402,-0.32780390977859497,0.4864700734615326,-0.40082892775535583,-1.5955841541290283
0.6445775628089905,0.3208980858325958,-0.3281732499599457,0.48878276348114014,-0.4010483920574188,-1.5958524942398071
0.6452544927597046,0.3211149275302887,-0.3285484313964844,0.4910290539264679,-0.401206910610199,-1.5961204767227173
0.6459529995918274,0.3213249146938324,-0.3289170265197754,0.49334171414375305,-0.4014263153076172,-1.596388816833496
0.6466299295425415,0.3215416371822357,-0.3292910158634186,0.4955880045890808,-0.40158483386039734,-1.5966566801071167
0.6473211646080017,0.3217512369155884,-0.32965904474258423,0.4979000985622406,-0.40179985761642456,-1.5969250202178955
0.6479864716529846,0.3219645917415619,-0.3300309479236603,0.5001541376113892,-0.401953786611557,-1.5971930027008057
0.6486724019050598,0.32216912508010864,-0.3303966820240021,0.5024749040603638,-0.402163028717041,-1.597461223602295
0.6493364572525024,0.32238009572029114,-0.3307682275772095,0.5047292113304138,-0.40231120586395264,-1.597728967666626
0.6500222682952881,0.3225840628147125,-0.3311333954334259,0.5070499777793884,-0.40251949429512024,-1.5979971885681152
0.6506863832473755,0.3227947950363159,-0.33150383830070496,0.5093043446540833,-0.40266677737236023,-1.5982649326324463
0.6513689756393433,0.32299861311912537,-0.33186832070350647,0.5116248726844788,-0.40287116169929504,-1.5985331535339355
0.6520281434059143,0.3232091963291168,-0.33223757147789,0.513879120349884,-0.40301457047462463,-1.5988010168075562
0.6527084708213806,0.32341334223747253,-0.33260104060173035,0.5161998271942139,-0.4032188951969147,-1.5990692377090454
0.653367280960083,0.3236241042613983,-0.3329698145389557,0.5184541344642639,-0.40336230397224426,-1.5993369817733765
0.6540402173995972,0.32382792234420776,-0.333332896232605,0.5207743048667908,-0.40356341004371643,-1.5996050834655762
0.6546872854232788,0.3240363895893097,-0.3336998224258423,0.5230356454849243,-0.4037034511566162,-1.5998727083206177
0.6553548574447632,0.32423722743988037,-0.33406129479408264,0.5253639221191406,-0.40390053391456604,-1.6001408100128174
0.6560007929801941,0.324444442987442,-0.33442825078964233,0.527625560760498,-0.40403667092323303,-1.6004084348678589
0.6566682457923889,0.32464489340782166,-0.3347891867160797,0.5299537777900696,-0.40423280000686646,-1.600676417350769
0.6573141813278198,0.32485195994377136,-0.3351551294326782,0.532215416431427,-0.40436798334121704,-1.6009440422058105
0.657981276512146,0.32505226135253906,-0.3355153799057007,0.5345436930656433,-0.4045604169368744,-1.6012120246887207
0.658626914024353,0.32525932788848877,-0.3358806371688843,0.5368053317070007,-0.40469181537628174,-1.6014796495437622
0.659286618232727,0.32545962929725647,-0.33624038100242615,0.5391327738761902,-0.4048827588558197,-1.6017476320266724
0.6599205136299133,0.32566404342651367,-0.336603581905365,0.5413987636566162,-0.40501269698143005,-1.6020151376724243
0.6605747938156128,0.3258602023124695,-0.33696117997169495,0.543731153011322,-0.40519848465919495,-1.602283000946045
0.6612077951431274,0.32606279850006104,-0.3373241722583771,0.5459974408149719,-0.40532323718070984,-1.6025505065917969
0.6618620753288269,0.32625865936279297,-0.337681382894516,0.5483297109603882,-0.4055081009864807,-1.6028183698654175
0.6624950766563416,0.3264610767364502,-0.33804336190223694,0.5505959987640381,-0.40563201904296875,-1.6030858755111694
0.6631487607955933,0.3266567885875702,-0.33839985728263855,0.5529282689094543,-0.4058130383491516,-1.60335373878479
0.6637806296348572,0.32685914635658264,-0.3387610912322998,0.5551945567131042,-0.40593308210372925,-1.6036213636398315
0.6644280552864075,0.32705485820770264,-0.3391170799732208,0.5575266480445862,-0.4061130881309509,-1.6038893461227417
0.6650505065917969,0.3272566497325897,-0.33947691321372986,0.5597938895225525,-0.40623220801353455,-1.6041568517684937
0.6656936407089233,0.32745200395584106,-0.33983179926872253,0.5621270537376404,-0.40641120076179504,-1.6044247150421143
0.666315495967865,0.3276526629924774,-0.3401913642883301,0.5643942952156067,-0.40652918815612793,-1.6046921014785767
0.6669585108757019,0.3278457522392273,-0.34054499864578247,0.5667275190353394,-0.4067033529281616,-1.6049599647521973
0.6675804257392883,0.3280453085899353,-0.3409034013748169,0.5689947605133057,-0.40681639313697815,-1.6052273511886597
0.6682189106941223,0.3282381594181061,-0.34125658869743347,0.5713277459144592,-0.40698909759521484,-1.6054950952529907
0.6688334345817566,0.3284373879432678,-0.34161376953125,0.5735960006713867,-0.4071008563041687,-1.6057624816894531
0.6694685816764832,0.3286305069923401,-0.3419662415981293,0.5759307146072388,-0.40727242827415466,-1.6060302257537842
0.6700824499130249,0.3288284242153168,-0.34232303500175476,0.578199028968811,-0.40738290548324585,-1.6062976121902466
0.6707171201705933,0.32901838421821594,-0.3426739573478699,0.5805336833000183,-0.4075486660003662,-1.6065653562545776
0.6713306307792664,0.32921475172042847,-0.34302958846092224,0.5828021764755249,-0.40765342116355896,-1.60683274269104
0.6719582676887512,0.3294045925140381,-0.34338027238845825,0.5851362347602844,-0.407818078994751,-1.6071003675460815
0.6725605130195618,0.3296004831790924,-0.343734472990036,0.5874091386795044,-0.40792179107666016,-1.6073676347732544
0.6731829047203064,0.3297906517982483,-0.34408462047576904,0.5897486209869385,-0.40808549523353577,-1.607635259628296
0.6737840175628662,0.3299849033355713,-0.34443894028663635,0.5920217037200928,-0.4081881642341614,-1.6079025268554688
0.6744061708450317,0.3301706314086914,-0.34478726983070374,0.5943611860275269,-0.4083453416824341,-1.6081700325012207
0.6750072836875916,0.3303627073764801,-0.34514015913009644,0.5966344475746155,-0.4084414839744568,-1.6084372997283936
0.6756294369697571,0.33054831624031067,-0.3454879820346832,0.59897381067276,-0.4085973799228668,-1.6087048053741455
0.6762305498123169,0.3307403326034546,-0.34584006667137146,0.6012470722198486,-0.40869227051734924,-1.6089719533920288
0.6768473982810974,0.3309257924556732,-0.3461875319480896,0.603585958480835,-0.4088447391986847,-1.6092394590377808
0.6774400472640991,0.3311173915863037,-0.3465384244918823,0.605859100818634,-0.40893620252609253,-1.6095064878463745
0.6780532002449036,0.3313031494617462,-0.34688499569892883,0.6081984639167786,-0.4090885818004608,-1.6097739934921265
0.6786452531814575,0.33149513602256775,-0.34723591804504395,0.6104717254638672,-0.40918001532554626,-1.6100410223007202
0.6792582273483276,0.3316807448863983,-0.34758204221725464,0.6128110289573669,-0.4093307852745056,-1.6103084087371826
0.6798502802848816,0.3318726718425751,-0.3479323387145996,0.6150842905044556,-0.40942054986953735,-1.6105754375457764
0.6804598569869995,0.3320581912994385,-0.3482780158519745,0.6174232959747314,-0.4095683693885803,-1.6108428239822388
0.6810464262962341,0.3322489559650421,-0.3486270606517792,0.6196964383125305,-0.40965503454208374,-1.6111098527908325
0.6816534399986267,0.33243268728256226,-0.34897130727767944,0.6220356822013855,-0.40980061888694763,-1.6113771200180054
0.6822397112846375,0.33262261748313904,-0.3493199050426483,0.6243089437484741,-0.4098852574825287,-1.61164391040802
0.682843804359436,0.33280616998672485,-0.34966394305229187,0.62664794921875,-0.41002801060676575,-1.6119111776351929
0.6834248304367065,0.33299583196640015,-0.35001152753829956,0.6289211511611938,-0.41010987758636475,-1.6121779680252075
0.6840265393257141,0.3331795036792755,-0.35035479068756104,0.631260335445404,-0.4102524518966675,-1.6124451160430908
0.6846072673797607,0.33336830139160156,-0.35070186853408813,0.6335335969924927,-0.41033393144607544,-1.612712025642395
0.6852053999900818,0.33354970812797546,-0.3510441184043884,0.6358725428581238,-0.4104709029197693,-1.6129792928695679
0.6857807040214539,0.333737313747406,-0.35138991475105286,0.6381458044052124,-0.41054680943489075,-1.613246202468872
0.6863762736320496,0.3339189291000366,-0.3517315685749054,0.6404849290847778,-0.41068366169929504,-1.613513469696045
0.6869511604309082,0.3341064155101776,-0.35207709670066833,0.6427581906318665,-0.4107595384120941,-1.6137802600860596
0.6875442266464233,0.3342876136302948,-0.35241830348968506,0.6450971961021423,-0.41089361906051636,-1.6140474081039429
0.6881149411201477,0.3344738185405731,-0.35276269912719727,0.6473703384399414,-0.4109667241573334,-1.614314079284668
0.6887061595916748,0.3346530795097351,-0.35310259461402893,0.6497094035148621,-0.411097913980484,-1.6145812273025513
0.6892766952514648,0.3348383903503418,-0.35344642400741577,0.6519826650619507,-0.41116809844970703,-1.6148478984832764
0.689862847328186,0.3350173234939575,-0.3537861108779907,0.6543216109275818,-0.4112968146800995,-1.6151151657104492
0.6904250383377075,0.3352018892765045,-0.3541286885738373,0.6565947532653809,-0.41136452555656433,-1.6153818368911743
0.6910072565078735,0.3353804349899292,-0.3544674217700958,0.6589338779449463,-0.41149312257766724,-1.6156491041183472
0.6915690302848816,0.335564523935318,-0.35480979084968567,0.6612071394920349,-0.4115607440471649,-1.6159156560897827
0.6921511888504028,0.33574190735816956,-0.3551478087902069,0.6635462641716003,-0.4116848409175873,-1.616182804107666
0.6927129626274109,0.33592545986175537,-0.3554895222187042,0.6658195853233337,-0.41174793243408203,-1.616449236869812
0.6932924389839172,0.33610284328460693,-0.3558271825313568,0.6681585907936096,-0.41187065839767456,-1.6167163848876953
0.6938496232032776,0.336285799741745,-0.3561679422855377,0.6704317927360535,-0.41193246841430664,-1.6169828176498413
0.6944270133972168,0.33646249771118164,-0.3565046787261963,0.6727709174156189,-0.41205278038978577,-1.617249846458435
0.6949840188026428,0.3366451859474182,-0.35684508085250854,0.6750442385673523,-0.41211214661598206,-1.617516279220581
0.6955579519271851,0.33682170510292053,-0.357181578874588,0.6773831844329834,-0.4122302532196045,-1.6177833080291748
0.6961089372634888,0.3370024859905243,-0.3575206398963928,0.6796563267707825,-0.41228726506233215,-1.6180497407913208
0.6966801285743713,0.33717599511146545,-0.3578554391860962,0.6819954514503479,-0.41240158677101135,-1.6183167695999146
0.6972306966781616,0.3373553454875946,-0.35819390416145325,0.6842687726020813,-0.41245484352111816,-1.6185829639434814
0.69780033826828,0.3375284671783447,-0.3585284352302551,0.6866077780723572,-0.4125668406486511,-1.6188498735427856
0.6983485817909241,0.33770763874053955,-0.3588660657405853,0.6888810396194458,-0.41261789202690125,-1.6191160678863525
0.6989156007766724,0.33788079023361206,-0.359200119972229,0.6912200450897217,-0.41272827982902527,-1.6193828582763672
0.6994612812995911,0.3380599915981293,-0.3595373034477234,0.6934933066368103,-0.41277769207954407,-1.619649052619934
0.7000260353088379,0.33823317289352417,-0.359870970249176,0.6958323121070862,-0.4128863513469696,-1.6199158430099487
0.7005698680877686,0.3384123742580414,-0.36020776629447937,0.6981055736541748,-0.4129340350627899,-1.6201820373535156
0.7011312246322632,0.3385855257511139,-0.36054104566574097,0.7004445791244507,-0.4130406677722931,-1.6204488277435303
0.7016704678535461,0.3387635052204132,-0.3608769476413727,0.7027177810668945,-0.41308626532554626,-1.6207150220870972
0.7022298574447632,0.33893483877182007,-0.36120906472206116,0.7050568461418152,-0.41318997740745544,-1.6209816932678223
0.7027689218521118,0.33911198377609253,-0.36154451966285706,0.7073302268981934,-0.413232684135437,-1.6212477684020996
0.7033253312110901,0.3392831087112427,-0.3618764579296112,0.7096691727638245,-0.4133341312408447,-1.6215144395828247
0.7038594484329224,0.3394600450992584,-0.36221104860305786,0.7119423747062683,-0.4133746027946472,-1.621780514717102
0.7044134736061096,0.3396312892436981,-0.36254239082336426,0.714281439781189,-0.4134754538536072,-1.6220470666885376
0.7049469351768494,0.33980798721313477,-0.3628767430782318,0.7165547609329224,-0.4135153293609619,-1.622313141822815
0.7054993510246277,0.33997830748558044,-0.3632075786590576,0.7188937664031982,-0.41361209750175476,-1.6225796937942505
0.7060307860374451,0.3401545584201813,-0.36354124546051025,0.7211670875549316,-0.41364794969558716,-1.6228457689285278
0.7065808176994324,0.34032511711120605,-0.36387166380882263,0.7235060334205627,-0.4137442409992218,-1.6231122016906738
0.7071095705032349,0.3405005633831024,-0.36420464515686035,0.7257792949676514,-0.4137795865535736,-1.623378038406372
0.7076569199562073,0.34066930413246155,-0.36453408002853394,0.7281183004379272,-0.41387152671813965,-1.623644471168518
0.7081834077835083,0.3408438563346863,-0.3648664057254791,0.7303916215896606,-0.4139024019241333,-1.6239103078842163
0.7087287902832031,0.3410126268863678,-0.36519554257392883,0.7327305674552917,-0.4139938950538635,-1.6241766214370728
0.7092534303665161,0.34118717908859253,-0.36552736163139343,0.7350038290023804,-0.4140245318412781,-1.624442458152771
0.7097958326339722,0.34135594964027405,-0.36585623025894165,0.7373428344726562,-0.41411304473876953,-1.6247087717056274
0.7103167772293091,0.34152913093566895,-0.36618730425834656,0.7396160960197449,-0.4141404628753662,-1.6249746084213257
0.7108575701713562,0.34169551730155945,-0.36651483178138733,0.7419552206993103,-0.41422608494758606,-1.6252409219741821
0.7113783359527588,0.34186768531799316,-0.3668452501296997,0.7442286014556885,-0.4142506718635559,-1.6255066394805908
0.7119146585464478,0.34203383326530457,-0.3671726882457733,0.7465672492980957,-0.4143335521221161,-1.6257728338241577
0.712428092956543,0.34220558404922485,-0.36750221252441406,0.7488405108451843,-0.4143555760383606,-1.6260384321212769
0.7129611372947693,0.34237197041511536,-0.3678291141986847,0.751179575920105,-0.414438396692276,-1.6263045072555542
0.7134739756584167,0.34254375100135803,-0.3681586682796478,0.7534528970718384,-0.41446033120155334,-1.6265701055526733
0.7140069603919983,0.34270936250686646,-0.36848509311676025,0.7557920217514038,-0.4145398437976837,-1.6268361806869507
0.7145198583602905,0.3428806662559509,-0.3688141107559204,0.7580654621124268,-0.41455841064453125,-1.6271017789840698
0.7150510549545288,0.3430461883544922,-0.3691401779651642,0.7604044675827026,-0.4146360158920288,-1.6273678541183472
0.7155613899230957,0.3432174324989319,-0.3694685399532318,0.7626778483390808,-0.41465282440185547,-1.6276334524154663
0.7160908579826355,0.3433831036090851,-0.36979421973228455,0.7650169134140015,-0.41472867131233215,-1.627899408340454
0.7166001796722412,0.3435537815093994,-0.37012219429016113,0.7672902941703796,-0.41474366188049316,-1.6281647682189941
0.7171258330345154,0.3437180519104004,-0.3704472482204437,0.7696291208267212,-0.4148159623146057,-1.628430724143982
0.7176292538642883,0.3438878655433655,-0.37077435851097107,0.7719024419784546,-0.4148273468017578,-1.628696084022522
0.7181522250175476,0.3440522849559784,-0.37109890580177307,0.7742415070533752,-0.4148995876312256,-1.6289619207382202
0.7186551094055176,0.3442215025424957,-0.3714257776737213,0.7765149474143982,-0.41491085290908813,-1.6292272806167603
0.7191780209541321,0.344384104013443,-0.3717494606971741,0.7788540720939636,-0.41497841477394104,-1.6294931173324585
0.719680905342102,0.34455248713493347,-0.372075617313385,0.7811276316642761,-0.4149850308895111,-1.6297584772109985
0.7201992273330688,0.34471505880355835,-0.3723992705345154,0.7834661602973938,-0.4150511622428894,-1.6300244331359863
0.7206946611404419,0.3448830842971802,-0.37272459268569946,0.7857394814491272,-0.41505658626556396,-1.6302896738052368
0.7212093472480774,0.34504595398902893,-0.37304770946502686,0.7880785465240479,-0.4151226580142975,-1.630555510520935
0.7217042446136475,0.3452131748199463,-0.3733729422092438,0.790351927280426,-0.4151279330253601,-1.630820631980896
0.7222188711166382,0.3453735411167145,-0.37369504570961,0.7926910519599915,-0.41518840193748474,-1.6310863494873047
0.7227137684822083,0.34553956985473633,-0.3740195035934448,0.7949645519256592,-0.41518864035606384,-1.6313514709472656
0.7232279181480408,0.34569984674453735,-0.37434133887290955,0.7973036170005798,-0.4152473509311676,-1.6316170692443848
0.7237219214439392,0.3458658456802368,-0.374665230512619,0.7995771169662476,-0.4152461886405945,-1.6318821907043457
0.7242321372032166,0.34602606296539307,-0.3749868869781494,0.8019160032272339,-0.4153021275997162,-1.6321477890014648
0.7247205972671509,0.346191942691803,-0.3753102421760559,0.8041893839836121,-0.41529837250709534,-1.6324129104614258
0.7252283692359924,0.3463524580001831,-0.3756314516067505,0.8065284490585327,-0.41535428166389465,-1.6326783895492554
0.7257162928581238,0.34651854634284973,-0.375954806804657,0.8088018894195557,-0.4153505265712738,-1.6329432725906372
0.7262239456176758,0.34667888283729553,-0.37627577781677246,0.8111409544944763,-0.4154033660888672,-1.6332086324691772
0.7267118692398071,0.346844881772995,-0.3765987753868103,0.8134143948554993,-0.4153963625431061,-1.633473515510559
0.7272156476974487,0.34700512886047363,-0.37691956758499146,0.8157531023025513,-0.4154473543167114,-1.6337387561798096
0.7276973724365234,0.34716957807540894,-0.37724149227142334,0.8180264234542847,-0.4154385030269623,-1.6340036392211914
0.728198230266571,0.3473273813724518,-0.37756088376045227,0.8203654885292053,-0.41548633575439453,-1.634268879890442
0.7286794781684875,0.3474906384944916,-0.3778824508190155,0.8226388692855835,-0.4154743254184723,-1.6345337629318237
0.7291803359985352,0.3476482331752777,-0.37820160388946533,0.8249779343605042,-0.4155200719833374,-1.6347990036010742
0.7296615839004517,0.34781140089035034,-0.37852269411087036,0.8272513151168823,-0.4155060350894928,-1.635063886642456
0.7301595211029053,0.34796884655952454,-0.378841757774353,0.8295901417732239,-0.4155491590499878,-1.6353291273117065
0.7306357622146606,0.34813183546066284,-0.3791622221469879,0.831863522529602,-0.4155324697494507,-1.6355937719345093
0.7311313152313232,0.34828951954841614,-0.3794808089733124,0.8342025876045227,-0.41557547450065613,-1.6358588933944702
0.7316074371337891,0.34845271706581116,-0.37980133295059204,0.8364759683609009,-0.41555869579315186,-1.636123538017273
0.7321029305458069,0.3486102819442749,-0.380119651556015,0.8388150334358215,-0.4155982434749603,-1.6363886594772339
0.7325790524482727,0.34877341985702515,-0.380439817905426,0.8410884141921997,-0.4155780076980591,-1.6366533041000366
0.7330701947212219,0.3489309549331665,-0.3807581067085266,0.8434270620346069,-0.41561606526374817,-1.6369184255599976
0.7335389256477356,0.349092960357666,-0.38107728958129883,0.8457003831863403,-0.41559427976608276,-1.6371830701828003
0.7340266704559326,0.3492487668991089,-0.38139447569847107,0.848039448261261,-0.41563040018081665,-1.6374481916427612
0.7344948053359985,0.3494100570678711,-0.38171353936195374,0.8503128290176392,-0.4156067371368408,-1.637712836265564
0.7349823117256165,0.349565714597702,-0.3820306062698364,0.8526518940925598,-0.4156404137611389,-1.6379778385162354
0.7354504466056824,0.3497268855571747,-0.38234928250312805,0.854925274848938,-0.4156142473220825,-1.6382421255111694
0.7359378933906555,0.349882572889328,-0.3826660215854645,0.8572643399238586,-0.415645569562912,-1.6385071277618408
0.7364057898521423,0.35004374384880066,-0.3829843997955322,0.8595377206802368,-0.4156169891357422,-1.638771414756775
0.7368888258934021,0.3501993715763092,-0.38330110907554626,0.8618764281272888,-0.4156460464000702,-1.6390362977981567
0.737349808216095,0.35036006569862366,-0.3836187422275543,0.864149808883667,-0.4156152904033661,-1.6393005847930908
0.7378295660018921,0.3505152761936188,-0.3839348256587982,0.8664888739585876,-0.41564419865608215,-1.6395654678344727
0.7382898330688477,0.3506757318973541,-0.3842525780200958,0.8687622547149658,-0.4156133234500885,-1.6398299932479858
0.73876953125,0.3508305847644806,-0.3845684826374054,0.8711013197898865,-0.41563883423805237,-1.6400948762893677
0.7392297983169556,0.35099098086357117,-0.38488590717315674,0.8733748197555542,-0.41560444235801697,-1.6403594017028809
0.7397094964981079,0.35114586353302,-0.385201632976532,0.8757138848304749,-0.4156284034252167,-1.6406241655349731
0.7401697635650635,0.351306289434433,-0.3855188190937042,0.8779873847961426,-0.4155925512313843,-1.6408884525299072
0.7406456470489502,0.35146111249923706,-0.3858344852924347,0.8803260922431946,-0.41561368107795715,-1.641153335571289
0.7410997748374939,0.3516197204589844,-0.3861507177352905,0.8825994729995728,-0.41557469964027405,-1.6414176225662231
0.7415727972984314,0.3517717123031616,-0.3864649534225464,0.8849385380744934,-0.41559329628944397,-1.6416823863983154
0.7420263886451721,0.3519289493560791,-0.3867807686328888,0.8872120976448059,-0.4155518412590027,-1.6419466733932495
0.7424994111061096,0.3520805537700653,-0.3870948851108551,0.8895511627197266,-0.4155680537223816,-1.6422114372253418
0.7429530620574951,0.35223764181137085,-0.38741031289100647,0.8918247222900391,-0.4155239164829254,-1.6424757242202759
0.7434239387512207,0.35238924622535706,-0.38772422075271606,0.8941634893417358,-0.41553810238838196,-1.6427404880523682
0.7438742518424988,0.3525462746620178,-0.38803914189338684,0.8964370489120483,-0.41549181938171387,-1.6430047750473022
0.7443434596061707,0.35269811749458313,-0.3883528709411621,0.898776113986969,-0.41550520062446594,-1.643269419670105
0.7447933554649353,0.35285520553588867,-0.3886678218841553,0.9010496735572815,-0.41545799374580383,-1.64353346824646
0.7452605962753296,0.35300686955451965,-0.388981431722641,0.9033884406089783,-0.415468692779541,-1.6437981128692627
0.7457075119018555,0.3531638979911804,-0.3892960846424103,0.9056620001792908,-0.4154185652732849,-1.6440621614456177
0.7461733222007751,0.3533158004283905,-0.3896094560623169,0.9080009460449219,-0.4154287874698639,-1.6443266868591309
0.7466198801994324,0.35347285866737366,-0.3899240493774414,0.9102745056152344,-0.4153780937194824,-1.6445907354354858
0.7470831871032715,0.35362452268600464,-0.39023736119270325,0.9126133322715759,-0.4153851568698883,-1.644855260848999
0.7475255727767944,0.35378149151802063,-0.3905515968799591,0.9148868918418884,-0.4153311550617218,-1.645119309425354
0.747986912727356,0.3539333939552307,-0.39086470007896423,0.9172258377075195,-0.4153381586074829,-1.6453838348388672
0.748429000377655,0.35409045219421387,-0.3911789655685425,0.919499397277832,-0.41528409719467163,-1.6456478834152222
0.7488899230957031,0.35424214601516724,-0.3914918899536133,0.9218383431434631,-0.41528773307800293,-1.6459124088287354
0.7493317127227783,0.3543992042541504,-0.3918059468269348,0.9241119027137756,-0.41523027420043945,-1.6461762189865112
0.7497892379760742,0.3545510172843933,-0.392118901014328,0.9264506697654724,-0.4152326285839081,-1.6464406251907349
0.7502256035804749,0.35470685362815857,-0.39243224263191223,0.9287241697311401,-0.41517388820648193,-1.6467044353485107
0.7506806254386902,0.3548565208911896,-0.39274412393569946,0.931063175201416,-0.4151730239391327,-1.6469687223434448
0.7511166930198669,0.3550114035606384,-0.3930571675300598,0.9333367347717285,-0.41511115431785583,-1.6472325325012207
0.7515717148780823,0.3551609516143799,-0.39336898922920227,0.9356756806373596,-0.41510844230651855,-1.6474965810775757
0.752007782459259,0.3553157448768616,-0.39368176460266113,0.9379492402076721,-0.4150446653366089,-1.6477603912353516
0.7524595856666565,0.35546526312828064,-0.3939935863018036,0.9402880072593689,-0.4150391221046448,-1.6480244398117065
0.7528903484344482,0.3556199371814728,-0.39430591464042664,0.9425615072250366,-0.41497254371643066,-1.6482882499694824
0.7533397078514099,0.3557696044445038,-0.3946175277233124,0.9449005126953125,-0.41496697068214417,-1.6485522985458374
0.753770112991333,0.3559243977069855,-0.39493003487586975,0.9471740126609802,-0.4149003326892853,-1.6488158702850342
0.7542193531990051,0.35607394576072693,-0.3952414095401764,0.9495114088058472,-0.41489177942276,-1.6490797996520996
0.7546497583389282,0.35622867941856384,-0.3955535888671875,0.9517833590507507,-0.4148221015930176,-1.6493431329727173
0.7550965547561646,0.3563782274723053,-0.3958648145198822,0.9541188478469849,-0.4148121774196625,-1.6496069431304932
0.7555229067802429,0.3565327227115631,-0.39617636799812317,0.9563888907432556,-0.4147411584854126,-1.6498702764511108
0.755967915058136,0.3566818833351135,-0.3964870572090149,0.9587243795394897,-0.41472989320755005,-1.6501340866088867
0.7563939690589905,0.35683614015579224,-0.39679861068725586,0.9609944820404053,-0.41465744376182556,-1.6503974199295044
0.7568377256393433,0.3569852113723755,-0.39710915088653564,0.9633267521858215,-0.41464346647262573,-1.6506612300872803
0.7572619915008545,0.3571392297744751,-0.3974200189113617,0.9655935168266296,-0.4145682752132416,-1.650924563407898
0.7577033638954163,0.35728785395622253,-0.39773014187812805,0.9679252505302429,-0.41455352306365967,-1.6511883735656738
0.758124589920044,0.35744142532348633,-0.39804065227508545,0.9701917171478271,-0.41447755694389343,-1.651451587677002
0.758564293384552,0.3575899004936218,-0.39835038781166077,0.9725223183631897,-0.41446059942245483,-1.6517152786254883
0.7589852809906006,0.3577432930469513,-0.3986607789993286,0.9747874140739441,-0.4143824279308319,-1.6519783735275269
0.759422242641449,0.357891321182251,-0.3989703059196472,0.9771153330802917,-0.4143632650375366,-1.6522419452667236
0.7598387598991394,0.3580438196659088,-0.39927977323532104,0.979377806186676,-0.414282888174057,-1.6525050401687622
0.7602736949920654,0.3581908345222473,-0.3995884954929352,0.9817056655883789,-0.41426265239715576,-1.652768611907959
0.7606898546218872,0.35834288597106934,-0.39989790320396423,0.9839682579040527,-0.4141812324523926,-1.6530317068099976
0.7611242532730103,0.35848963260650635,-0.40020641684532166,0.986292839050293,-0.4141579568386078,-1.6532952785491943
0.76153963804245,0.35864147543907166,-0.4005153477191925,0.9885520339012146,-0.4140734076499939,-1.653558373451233
0.7619702816009521,0.35878825187683105,-0.400823712348938,0.9908760190010071,-0.4140496551990509,-1.6538219451904297
0.7623799443244934,0.35893964767456055,-0.4011320173740387,0.9931346774101257,-0.41396471858024597,-1.6540850400924683
0.7628077864646912,0.3590858578681946,-0.40143993496894836,0.995458722114563,-0.41393911838531494,-1.654348611831665
0.763217031955719,0.35923707485198975,-0.4017484188079834,0.9977174997329712,-0.413852334022522,-1.654611587524414
0.7636447548866272,0.35938316583633423,-0.40205615758895874,1.000038981437683,-0.41382449865341187,-1.6548750400543213
0.764054000377655,0.359534353017807,-0.4023641347885132,1.0022951364517212,-0.4137354791164398,-1.6551378965377808
0.7644802331924438,0.3596804440021515,-0.40267157554626465,1.0046147108078003,-0.41370606422424316,-1.6554012298583984
0.7648869752883911,0.3598312735557556,-0.4029790461063385,1.0068689584732056,-0.41361549496650696,-1.655664086341858
0.7653120160102844,0.35997700691223145,-0.40328606963157654,1.009187936782837,-0.4135844111442566,-1.6559271812438965
0.7657185196876526,0.360127717256546,-0.403593510389328,1.0114411115646362,-0.4134919047355652,-1.6561846733093262
0.7661391496658325,0.36027318239212036,-0.4039001166820526,1.013753056526184,-0.4134572744369507,-1.6564373970031738
0.7665385603904724,0.3604222238063812,-0.40420594811439514,1.0159995555877686,-0.41336145997047424,-1.6566894054412842
0.7669563293457031,0.36056527495384216,-0.4045112729072571,1.0183113813400269,-0.41332682967185974,-1.6569420099258423
0.7673554420471191,0.3607131242752075,-0.40481701493263245,1.0205579996109009,-0.4132310748100281,-1.657193899154663
0.7677732110023499,0.36085569858551025,-0.4051223397254944,1.0228699445724487,-0.4131935238838196,-1.6574465036392212
0.7681723237037659,0.36100342869758606,-0.4054279327392578,1.0251165628433228,-0.41309478878974915,-1.657698392868042
0.7685893774032593,0.3611460328102112,-0.405733197927475,1.0274285078048706,-0.41305533051490784,-1.6579508781433105
0.7689874768257141,0.3612937331199646,-0.40603843331336975,1.0296751260757446,-0.412954717874527,-1.6582027673721313
0.7694019675254822,0.3614363372325897,-0.40634357929229736,1.0319851636886597,-0.41291311383247375,-1.6584552526474
0.7697966694831848,0.3615839183330536,-0.40664851665496826,1.0342298746109009,-0.41281038522720337,-1.6587071418762207
0.7702096700668335,0.36172667145729065,-0.40695348381996155,1.036539912223816,-0.41276854276657104,-1.6589595079421997
0.7706041932106018,0.36187440156936646,-0.4072585701942444,1.0387846231460571,-0.41266554594039917,-1.6592113971710205
0.7710152268409729,0.3620169758796692,-0.4075634181499481,1.0410914421081543,-0.4126203954219818,-1.65946364402771
0.771406888961792,0.36216452717781067,-0.4078679382801056,1.0433329343795776,-0.4125140607357025,-1.6597154140472412
0.7718167901039124,0.3623073101043701,-0.408172607421875,1.0456398725509644,-0.4124688506126404,-1.6599676609039307
0.7722082138061523,0.3624550402164459,-0.40847721695899963,1.0478813648223877,-0.4123625159263611,-1.6602193117141724
0.7726150751113892,0.36259761452674866,-0.40878185629844666,1.0501857995986938,-0.4123145043849945,-1.6604714393615723
0.7730019688606262,0.3627449870109558,-0.4090858995914459,1.0524249076843262,-0.412205308675766,-1.6607229709625244
0.7734069228172302,0.3628873825073242,-0.4093901216983795,1.0547295808792114,-0.41215723752975464,-1.6609750986099243
0.7737934589385986,0.363034725189209,-0.40969428420066833,1.0569686889648438,-0.41204801201820374,-1.6612266302108765
0.7741982936859131,0.36317694187164307,-0.4099983274936676,1.0592714548110962,-0.41199687123298645,-1.6614786386489868
0.7745848298072815,0.36332419514656067,-0.4103022515773773,1.0615086555480957,-0.4118845760822296,-1.661730170249939
0.7749861478805542,0.3634664714336395,-0.41060635447502136,1.0638097524642944,-0.41183236241340637,-1.6619821786880493
0.7753670811653137,0.3636123836040497,-0.4109094440937042,1.0660456418991089,-0.41171887516975403,-1.6622337102890015
0.7757657766342163,0.36375242471694946,-0.41121232509613037,1.0683462619781494,-0.4116639494895935,-1.6624857187271118
0.7761461734771729,0.3638973832130432,-0.4115152060985565,1.0705815553665161,-0.41154783964157104,-1.662737250328064
0.7765447497367859,0.36403724551200867,-0.41181790828704834,1.0728788375854492,-0.41149094700813293,-1.6629892587661743
0.7769251465797424,0.36418208479881287,-0.4121202230453491,1.075110912322998,-0.4113728702068329,-1.663240671157837
0.7773213982582092,0.36432191729545593,-0.4124227464199066,1.077406644821167,-0.41131433844566345,-1.6634926795959473
0.7776979207992554,0.3644665479660034,-0.41272470355033875,1.0796371698379517,-0.41119465231895447,-1.6637439727783203
0.7780923843383789,0.36460649967193604,-0.4130270183086395,1.0819332599639893,-0.4111356735229492,-1.6639958620071411
0.778468668460846,0.364751398563385,-0.4133290946483612,1.084163784980774,-0.41101551055908203,-1.6642471551895142
0.7788628339767456,0.3648912310600281,-0.4136313796043396,1.0864570140838623,-0.41095343232154846,-1.664499044418335
0.7792388796806335,0.3650360703468323,-0.4139331877231598,1.0886847972869873,-0.41083019971847534,-1.664750337600708
0.7796293497085571,0.36517593264579773,-0.4142354428768158,1.090977430343628,-0.4107673764228821,-1.6650021076202393
0.7799991965293884,0.36532044410705566,-0.4145366847515106,1.0932046175003052,-0.41064339876174927,-1.6652534008026123
0.7803866863250732,0.36546021699905396,-0.41483861207962036,1.0954973697662354,-0.4105800688266754,-1.665505051612854
0.7807560563087463,0.3656042814254761,-0.4151400923728943,1.0977245569229126,-0.41045552492141724,-1.665756344795227
0.781143307685852,0.36574283242225647,-0.41544151306152344,1.1000142097473145,-0.41038820147514343,-1.6660078763961792
0.7815126776695251,0.3658863604068756,-0.41574251651763916,1.102238416671753,-0.4102596342563629,-1.6662591695785522
0.7818998694419861,0.3660249710083008,-0.41604378819465637,1.1045269966125488,-0.41019168496131897,-1.6665107011795044
0.7822688221931458,0.3661684989929199,-0.41634443402290344,1.106750249862671,-0.4100625216960907,-1.666761875152588
0.7826523780822754,0.36630699038505554,-0.4166456460952759,1.109035849571228,-0.4099917411804199,-1.66701340675354
0.7830155491828918,0.3664501905441284,-0.41694581508636475,1.1112560033798218,-0.40985968708992004,-1.6672643423080444
0.7833966016769409,0.3665889501571655,-0.4172467887401581,1.113541603088379,-0.4097888469696045,-1.6675158739089966
0.783759593963623,0.36673179268836975,-0.4175470471382141,1.1157617568969727,-0.40965673327445984,-1.6677666902542114
0.7841405272483826,0.36686912178993225,-0.4178474545478821,1.1180461645126343,-0.4095829725265503,-1.668018102645874
0.7845035195350647,0.36701127886772156,-0.4181472957134247,1.1202651262283325,-0.40944793820381165,-1.6682689189910889
0.7848832011222839,0.36714857816696167,-0.4184475839138031,1.122546911239624,-0.40937238931655884,-1.6685203313827515
0.7852441668510437,0.3672907054424286,-0.4187468886375427,1.1247632503509521,-0.40923556685447693,-1.6687711477279663
0.7856221795082092,0.3674280345439911,-0.41904696822166443,1.127044916152954,-0.4091590642929077,-1.6690224409103394
0.7859820127487183,0.367570161819458,-0.4193463921546936,1.1292612552642822,-0.40902137756347656,-1.6692732572555542
0.7863579988479614,0.3677074611186981,-0.4196464717388153,1.1315408945083618,-0.40894249081611633,-1.6695245504379272
0.7867151498794556,0.36784958839416504,-0.419945627450943,1.133755087852478,-0.4088023900985718,-1.669775366783142
0.7870898842811584,0.3679869771003723,-0.42024561762809753,1.136034607887268,-0.4087234139442444,-1.6700266599655151
0.7874468564987183,0.36812910437583923,-0.4205448627471924,1.1382488012313843,-0.40858325362205505,-1.67027747631073
0.7878190279006958,0.36826637387275696,-0.42084479331970215,1.1405248641967773,-0.4085008502006531,-1.670528769493103
0.7881717681884766,0.36840733885765076,-0.4211432635784149,1.1427356004714966,-0.40835702419281006,-1.6707795858383179
0.7885422110557556,0.36854279041290283,-0.4214422404766083,1.1450117826461792,-0.4082738161087036,-1.671030879020691
0.788894772529602,0.36868301033973694,-0.4217405319213867,1.1472225189208984,-0.40812936425209045,-1.6712816953659058
0.7892642021179199,0.36881810426712036,-0.4220394194126129,1.1494947671890259,-0.40804243087768555,-1.6715328693389893
0.7896155714988708,0.3689580261707306,-0.42233720421791077,1.15170156955719,-0.40789416432380676,-1.6717835664749146
0.7899823188781738,0.3690933287143707,-0.4226360023021698,1.1539736986160278,-0.4078071415424347,-1.6720346212387085
0.7903298139572144,0.36923325061798096,-0.4229336380958557,1.156180500984192,-0.4076588749885559,-1.6722853183746338
0.7906947731971741,0.3693685829639435,-0.4232322871685028,1.1584527492523193,-0.40757060050964355,-1.6725362539291382
0.791041910648346,0.3695087134838104,-0.42353010177612305,1.1606595516204834,-0.4074210226535797,-1.6727867126464844
0.7914067506790161,0.3696439266204834,-0.42382869124412537,1.1629295349121094,-0.40733033418655396,-1.6730376482009888
0.791753888130188,0.3697839677333832,-0.42412635684013367,1.1651338338851929,-0.4071783423423767,-1.673288106918335
0.7921150326728821,0.36991915106773376,-0.42442500591278076,1.1674021482467651,-0.4070863723754883,-1.6735389232635498
0.7924561500549316,0.3700585663318634,-0.42472198605537415,1.169605016708374,-0.4069331884384155,-1.6737892627716064
0.7928145527839661,0.3701930642127991,-0.42502009868621826,1.1718733310699463,-0.40684059262275696,-1.6740400791168213
0.7931551337242126,0.370332270860672,-0.42531734704971313,1.1740763187408447,-0.4066867530345917,-1.674290418624878
0.7935134172439575,0.37046653032302856,-0.4256153702735901,1.1763427257537842,-0.4065910577774048,-1.6745412349700928
0.7938539981842041,0.3706056475639343,-0.4259122610092163,1.1785433292388916,-0.4064340591430664,-1.674791693687439
0.794212281703949,0.37074005603790283,-0.4262101948261261,1.1808079481124878,-0.4063374400138855,-1.6750425100326538
0.7945529222488403,0.370879203081131,-0.42650702595710754,1.1830072402954102,-0.4061795175075531,-1.67529296875
0.7949075102806091,0.3710134029388428,-0.4268049895763397,1.1852691173553467,-0.4060801565647125,-1.6755437850952148
0.7952423691749573,0.3711514174938202,-0.4271010458469391,1.1874654293060303,-0.4059194326400757,-1.675794243812561
0.7955943942070007,0.37128427624702454,-0.4273981750011444,1.1897274255752563,-0.4058198928833008,-1.6760450601577759
0.7959288358688354,0.3714216649532318,-0.42769429087638855,1.191923975944519,-0.4056590795516968,-1.676295518875122
0.7962806224822998,0.3715542256832123,-0.42799127101898193,1.1941828727722168,-0.4055556654930115,-1.6765462160110474
0.7966150641441345,0.37169158458709717,-0.4282870888710022,1.1963764429092407,-0.4053908586502075,-1.676796555519104
0.7969661355018616,0.3718242049217224,-0.4285840690135956,1.198635220527649,-0.40528732538223267,-1.6770471334457397
0.7972988486289978,0.3719615638256073,-0.42887967824935913,1.2008284330368042,-0.405122309923172,-1.6772910356521606
0.7976483702659607,0.37209412455558777,-0.4291764199733734,1.2030853033065796,-0.4050157964229584,-1.6775355339050293
0.797980010509491,0.37223148345947266,-0.4294719696044922,1.205276370048523,-0.4048479199409485,-1.6777793169021606
0.7983274459838867,0.3723641037940979,-0.4297688603401184,1.2075316905975342,-0.40474092960357666,-1.6780238151550293
0.7986563444137573,0.372501403093338,-0.43006429076194763,1.2097218036651611,-0.40457260608673096,-1.6782675981521606
0.7990024089813232,0.37263402342796326,-0.4303610324859619,1.2119767665863037,-0.4044637680053711,-1.6785119771957397
0.79933100938797,0.37277141213417053,-0.4306565225124359,1.214166283607483,-0.4042935371398926,-1.678755760192871
0.7996752858161926,0.3729040026664734,-0.4309532642364502,1.2164193391799927,-0.40418294072151184,-1.6790001392364502
0.8000010251998901,0.37304121255874634,-0.43124833703041077,1.21860671043396,-0.4040110409259796,-1.679244041442871
0.8003439903259277,0.37317386269569397,-0.4315450191497803,1.2208596467971802,-0.4038998484611511,-1.6794884204864502
0.8006695508956909,0.3733111321926117,-0.4318403899669647,1.223047137260437,-0.4037272334098816,-1.679732322692871
0.8010105490684509,0.3734434247016907,-0.43213704228401184,1.2252964973449707,-0.4036129117012024,-1.6799765825271606
0.8013331294059753,0.37357988953590393,-0.4324318468570709,1.2274805307388306,-0.40343719720840454,-1.6802204847335815
0.8016729354858398,0.3737112879753113,-0.43272799253463745,1.2297300100326538,-0.4033223092556,-1.6804646253585815
0.8019953370094299,0.37384727597236633,-0.4330228269100189,1.2319140434265137,-0.4031461179256439,-1.6807082891464233
0.8023326992988586,0.37397846579551697,-0.43331894278526306,1.2341595888137817,-0.4030276834964752,-1.6809524297714233
0.8026512265205383,0.3741143047809601,-0.4336131513118744,1.2363396883010864,-0.40284785628318787,-1.6811959743499756
0.8029869198799133,0.37424567341804504,-0.433909147977829,1.2385852336883545,-0.402729332447052,-1.6814401149749756
0.8033053278923035,0.3743816614151001,-0.4342036247253418,1.2407653331756592,-0.40254950523376465,-1.6816834211349487
0.8036408424377441,0.37451285123825073,-0.4344996213912964,1.2430102825164795,-0.4024295210838318,-1.6819274425506592
0.8039591908454895,0.374648779630661,-0.4347941279411316,1.2451896667480469,-0.4022481441497803,-1.6821705102920532
0.8042914867401123,0.3747798502445221,-0.4350903034210205,1.2474315166473389,-0.40212583541870117,-1.6824142932891846
0.8046045303344727,0.37491437792778015,-0.4353841245174408,1.249608039855957,-0.4019421637058258,-1.6826573610305786
0.8049344420433044,0.3750433921813965,-0.435679167509079,1.251849889755249,-0.4018184244632721,-1.6829012632369995
