Der-mark/objtrans/data/sim/qpos_trajectory.csv
q0,q1,q2,q3,q4,q5
0.0,0.0,0.0,0.0,0.0,0.0
-1.917476083690417e-06,-5.7524280236975756e-06,0.0,-3.834952167380834e-06,-7.669904334761668e-06,-5.7524280236975756e-06
-1.917476083690417e-06,-5.7524280236975756e-06,0.0,-3.834952167380834e-06,-7.669904334761668e-06,-5.7524280236975756e-06
-1.917476083690417e-06,-5.7524280236975756e-06,0.0,-3.834952167380834e-06,-7.669904334761668e-06,-5.7524280236975756e-06
-1.917476083690417e-06,-5.7524280236975756e-06,1.917476083690417e-06,-3.834952167380834e-06,-7.669904334761668e-06,-5.7524280236975756e-06
-1.917476083690417e-06,-5.7524280236975756e-06,3.834952167380834e-06,-3.834952167380834e-06,-7.669904334761668e-06,-5.7524280236975756e-06
-6.90291344653815e-05,-5.7524280236975756e-06,3.834952167380834e-06,-3.834952167380834e-06,-7.669904334761668e-06,-5.7524280236975756e-06
-0.00019366508058737963,-5.7524280236975756e-06,5.7524280236975756e-06,-3.834952167380834e-06,-7.669904334761668e-06,-5.7524280236975756e-06
-0.0004084223764948547,-3.834952167380834e-06,5.7524280236975756e-06,-3.834952167380834e-06,-7.669904334761668e-06,-5.7524280236975756e-06
-0.0006346845766529441,3.834952076431364e-05,5.7524280236975756e-06,-3.834952167380834e-06,-3.834952167380834e-06,-5.7524280236975756e-06
-0.0009644904057495296,0.0002109223569277674,-7.669904334761668e-06,8.245146455010399e-05,4.0266993892146274e-05,9.58738019107841e-06
-0.0012616992462426424,0.0004045874229632318,-0.000138058268930763,0.000276116537861526,0.00022626217105425894,5.368932761484757e-05
-0.0015819176333025098,0.0006461893790401518,-0.00039308256236836314,0.0005234709242358804,0.0005023786798119545,0.0003662379167508334
-0.0020171846263110638,0.0010200971737504005,-0.0008417719509452581,0.0009050486842170358,0.0009050486842170358,0.0008321845671162009
-0.0023872575256973505,0.0014035924104973674,-0.0012655341997742653,0.0012693691533058882,0.0012501943856477737,0.0012003399897366762
-0.0027343207038939,0.0018216022290289402,-0.0017046361463144422,0.001660534180700779,0.0016873788554221392,0.001639441936276853
-0.0031139811035245657,0.002329733222723007,-0.002239611931145191,0.002139903139322996,0.0021763353142887354,0.002126480918377638
-0.0036029373295605183,0.003037282032892108,-0.002972087822854519,0.0028206072747707367,0.0028551218565553427,0.002809102414175868
-0.004042039159685373,0.0036873063072562218,-0.00361635978333652,0.003441869281232357,0.0034648790024220943,0.003441869281232357
-0.0045290784910321236,0.004402524791657925,-0.004306651186197996,0.004118738230317831,0.004132160916924477,0.004141747951507568
-0.00506597151979804,0.005167597904801369,-0.005056384019553661,0.004853131715208292,0.004801359958946705,0.004835874307900667
-0.005616287235170603,0.005926918238401413,-0.005804199725389481,0.005577937699854374,0.005595195107161999,0.005643131677061319
-0.006444636732339859,0.00703330198302865,-0.006904831156134605,0.006621044594794512,0.00666322885081172,0.006703495979309082
-0.007171360310167074,0.008001627400517464,-0.007882744073867798,0.007508835755288601,0.0076027922332286835,0.007629637140780687
-0.008133932948112488,0.009270996786653996,-0.009161700494587421,0.008613302372395992,0.008841481991112232,0.00886065699160099
-0.008774369955062866,0.01011085044592619,-0.009997719898819923,0.009301676414906979,0.009664079174399376,0.009681336581707
-0.0098539087921381,0.011543205007910728,-0.011407064273953438,0.010404224507510662,0.011040826328098774,0.011067671701312065
-0.010768544860184193,0.01278381235897541,-0.012628496624529362,0.011293933726847172,0.012131870724260807,0.012164467945694923
-0.011943957768380642,0.014384904876351357,-0.014256433583796024,0.012344710528850555,0.01370228361338377,0.013746385462582111
-0.012626579031348228,0.015334055759012699,-0.015228594653308392,0.01291036605834961,0.014747307635843754,0.014795244671404362
-0.013874855823814869,0.017113473266363144,-0.017009928822517395,0.013878691010177135,0.016488375142216682,0.016517138108611107
-0.014902623370289803,0.018632113933563232,-0.018515147268772125,0.014616919681429863,0.017941823229193687,0.017980173230171204
-0.015947647392749786,0.020200610160827637,-0.020085560157895088,0.015312963165342808,0.019470050930976868,0.019556337967514992
-0.01701568253338337,0.021843886002898216,-0.021734589710831642,0.01596682332456112,0.020942673087120056,0.021071143448352814
-0.01800893433392048,0.023439226672053337,-0.02331075631082058,0.01653631217777729,0.022564858198165894,0.022724008187651634
-0.019337745383381844,0.02563665434718132,-0.025483256205916405,0.017240026965737343,0.02459929883480072,0.024881169199943542
-0.020405778661370277,0.02747167833149433,-0.02732403203845024,0.01776924915611744,0.02630010060966015,0.026727696880698204
-0.02147381380200386,0.02936614491045475,-0.02925109677016735,0.01825820654630661,0.02800857089459896,0.02857998013496399
-0.022551435977220535,0.03131429851055145,-0.03123568370938301,0.018710730597376823,0.029734300449490547,0.030549228191375732
-0.02388216368854046,0.03375524654984474,-0.03376675024628639,0.019209275022149086,0.031902965158224106,0.033066872507333755
-0.02496553771197796,0.03579544275999069,-0.03588747978210449,0.01957167685031891,0.03357500582933426,0.034995853900909424
-0.025958789512515068,0.03771483525633812,-0.03791041672229767,0.019874637946486473,0.03540235757827759,0.0371798574924469
-0.027024906128644943,0.039818305522203445,-0.04017495736479759,0.02017568238079548,0.03725655749440193,0.039396461099386215
-0.02808910608291626,0.04194095358252525,-0.042498938739299774,0.02044796384871006,0.0391395203769207,0.04168209433555603
-0.029166726395487785,0.044094279408454895,-0.04486318677663803,0.020702987909317017,0.04104549065232277,0.04402141273021698
-0.030497455969452858,0.04672505334019661,-0.04786595329642296,0.02099444530904293,0.04339439794421196,0.046991582959890366
-0.03157699480652809,0.048895638436079025,-0.050333745777606964,0.02121303603053093,0.045179568231105804,0.0492350310087204
-0.03256066143512726,0.05093199759721756,-0.05264430493116379,0.021399032324552536,0.047160323709249496,0.051725830882787704
-0.03385112062096596,0.05363947153091431,-0.05580621957778931,0.021636798977851868,0.04958592727780342,0.05482830852270126
-0.034901898354291916,0.0558503232896328,-0.05845808982849121,0.021836215630173683,0.051574353128671646,0.057472508400678635
-0.035941168665885925,0.05804774910211563,-0.06117707118391991,0.02203371562063694,0.05360304191708565,0.060151223093271255
-0.0369727723300457,0.060254763811826706,-0.06395165622234344,0.02221779339015484,0.05563940107822418,0.06294114887714386
-0.0382402241230011,0.06300826370716095,-0.06750474125146866,0.022436385974287987,0.058214571326971054,0.06644821166992188
-0.03925840184092522,0.06523061543703079,-0.07044423371553421,0.02261471189558506,0.06016656011343002,0.06917102634906769
-0.040194131433963776,0.06727655977010727,-0.07320348173379898,0.022777697071433067,0.06228728964924812,0.07218530029058456
-0.041208475828170776,0.06948933005332947,-0.07622158527374268,0.022952187806367874,0.06443102657794952,0.07527435570955276
-0.04221131652593613,0.07170210033655167,-0.07929529994726181,0.023136265575885773,0.06659777462482452,0.07843244075775146
-0.043216072022914886,0.07390335947275162,-0.0823824405670166,0.023326095193624496,0.06876260787248611,0.08163654059171677
-0.044207409024238586,0.07609503716230392,-0.08547916263341904,0.023535100743174553,0.0707874596118927,0.08469107747077942
-0.045407749712467194,0.07874690741300583,-0.08926617354154587,0.023809298872947693,0.07352753728628159,0.08883091062307358
-0.04628978669643402,0.08073532581329346,-0.0921328067779541,0.024024056270718575,0.07573646306991577,0.09224593639373779
-0.04723318666219711,0.08287139236927032,-0.09523336589336395,0.024273328483104706,0.07798758149147034,0.0957510843873024
-0.04817274957895279,0.08498828858137131,-0.09834734350442886,0.02453218773007393,0.08022911101579666,0.09929841011762619
-0.04932515323162079,0.08759413659572601,-0.10215544700622559,0.0248715803027153,0.08300945162773132,0.1037507876753807
-0.0502493754029274,0.08967651426792145,-0.10528285056352615,0.02516878955066204,0.08531809598207474,0.10745343565940857
-0.051165930926799774,0.09174355864524841,-0.10837574303150177,0.025483256205916405,0.08742348104715347,0.11095090955495834
-0.051998112350702286,0.09363610297441483,-0.11123470216989517,0.025791969150304794,0.08974171429872513,0.11480312049388885
-0.052889738231897354,0.09564753621816635,-0.11431033164262772,0.026146702468395233,0.09205226600170135,0.11869943141937256
-0.05398845300078392,0.09808272868394852,-0.11810310184955597,0.026612648740410805,0.09491122514009476,0.12360817193984985
-0.05487432703375816,0.10006540268659592,-0.1211538016796112,0.027009567245841026,0.09725246578454971,0.1276751458644867
-0.055762119591236115,0.1020193099975586,-0.1241949200630188,0.02742757648229599,0.09960521012544632,0.1318034678697586
-0.05663648992776871,0.10395403951406479,-0.12720918655395508,0.02786092646420002,0.10177195817232132,0.13568060100078583
-0.05769301578402519,0.10632020980119705,-0.13093292713165283,0.028416994959115982,0.10468268394470215,0.14094407856464386
-0.05827401205897331,0.10762600600719452,-0.1330229789018631,0.02874104678630829,0.10649853199720383,0.14426705241203308
-0.05929986387491226,0.10991739481687546,-0.13674096763134003,0.029339300468564034,0.1094418615102768,0.14967241883277893
-0.060128211975097656,0.11178501695394516,-0.139734148979187,0.029847431927919388,0.11183678358793259,0.15414397418498993
-0.06094697490334511,0.11364113539457321,-0.14273498952388763,0.03037090227007866,0.1142374649643898,0.158680722117424
-0.061761900782585144,0.11547040194272995,-0.1457224190235138,0.03090587817132473,0.11647132784128189,0.1628991663455963
-0.0627647414803505,0.11771576851606369,-0.14938096702098846,0.03156740590929985,0.11942807585000992,0.16857872903347015
-0.06351064145565033,0.1193763017654419,-0.15207694470882416,0.03208896145224571,0.12187285721302032,0.17329764366149902
-0.06430639326572418,0.12114038318395615,-0.15500108897686005,0.03267379105091095,0.12430421262979507,0.17809517681598663
-0.0650944784283638,0.12288528680801392,-0.15790031850337982,0.03327587991952896,0.12674133479595184,0.18294638395309448
-0.06589214503765106,0.12463785707950592,-0.1607976257801056,0.03389330580830574,0.12918418645858765,0.1878838837146759
-0.06686621904373169,0.126731738448143,-0.1643027663230896,0.03468905761837959,0.13217546045780182,0.19404856860637665
-0.06765046715736389,0.12840569019317627,-0.1671598106622696,0.03536209091544151,0.13443616032600403,0.19872912764549255
-0.06838102638721466,0.12993967533111572,-0.16975989937782288,0.035998694598674774,0.136875182390213,0.20386412739753723
-0.06917102634906769,0.13158871233463287,-0.17258433997631073,0.03670816123485565,0.1392950415611267,0.20903556048870087
-0.07013168185949326,0.1335790455341339,-0.17602045834064484,0.03759978711605072,0.1422863006591797,0.21544376015663147
-0.07090634107589722,0.13518014550209045,-0.17879121005535126,0.03834376856684685,0.1446869820356369,0.22068998217582703
-0.07186124473810196,0.13714554905891418,-0.18219473958015442,0.03926607221364975,0.1476859152317047,0.22717297077178955
-0.07246141880750656,0.13836506009101868,-0.18430203199386597,0.03984514996409416,0.1493464559316635,0.2308257520198822
-0.07341823726892471,0.14027871191501617,-0.18765570223331451,0.040777042508125305,0.15231853723526,0.2373509258031845
-0.07414112985134125,0.14170339703559875,-0.19015993177890778,0.04149226099252701,0.15472880005836487,0.24265851080417633
-0.07492920756340027,0.14324696362018585,-0.1928865760564804,0.042270757257938385,0.15711989998817444,0.2479775846004486
-0.0757192075252533,0.14477327466011047,-0.19559980928897858,0.04305117204785347,0.15952825546264648,0.25331008434295654
-0.0765053778886795,0.14628423750400543,-0.19832070171833038,0.043833501636981964,0.16192126274108887,0.2586310803890228
-0.0774717852473259,0.14813652634620667,-0.20163986086845398,0.04479415714740753,0.1648530811071396,0.26520034670829773
-0.07826945185661316,0.14965900778770447,-0.20437034964561462,0.04557456821203232,0.16705241799354553,0.2701224982738495
-0.07900767773389816,0.15104533731937408,-0.20687073469161987,0.04629170522093773,0.1694205105304718,0.2754569351673126
-0.07981877028942108,0.15253138542175293,-0.20956286787986755,0.047070201486349106,0.17180393636226654,0.2807970941066742
-0.08081202208995819,0.15434914827346802,-0.21286092698574066,0.048040442168712616,0.17473575472831726,0.28737786412239075
-0.08162311464548111,0.15583519637584686,-0.21553580462932587,0.04883236065506935,0.17710000276565552,0.2927218973636627
-0.08241887390613556,0.15730206668376923,-0.21823368966579437,0.049628112465143204,0.17929743230342865,0.29766130447387695
-0.08321462571620941,0.15875551104545593,-0.22090473771095276,0.05042961984872818,0.18165592849254608,0.3029995560646057
-0.08393751084804535,0.16009198129177094,-0.22338786721229553,0.051164012402296066,0.18404318392276764,0.30832821130752563
-0.08472751080989838,0.1615588515996933,-0.2260800004005432,0.05196168273687363,0.18642084300518036,0.3136684000492096
-0.0855175107717514,0.16302764415740967,-0.22878555953502655,0.052749764174222946,0.18879085779190063,0.3190124034881592
-0.0864858403801918,0.16481664776802063,-0.23210854828357697,0.05371809005737305,0.1917111724615097,0.32559508085250854
-0.08727584034204483,0.1662605106830597,-0.2348121851682663,0.05451192334294319,0.19407349824905396,0.33094677329063416
-0.08807350695133209,0.16769669950008392,-0.23751774430274963,0.05530384182929993,0.19626900553703308,0.3358881175518036
-0.08880022913217545,0.1690274327993393,-0.24000664055347443,0.05603056401014328,0.1986505091190338,0.34122636914253235
-0.0897589698433876,0.17078958451747894,-0.24333153665065765,0.056993138045072556,0.20156316459178925,0.3478052020072937
-0.09036681056022644,0.1718825399875641,-0.24540433287620544,0.05758947506546974,0.20338860154151917,0.35192012786865234
-0.09134088456630707,0.17363512516021729,-0.24873307347297668,0.05853862315416336,0.2063031643629074,0.35848554968833923
-0.09213855862617493,0.17507897317409515,-0.25142520666122437,0.059309449046850204,0.20868657529354095,0.36383339762687683
-0.09293622523546219,0.17651516199111938,-0.2541288435459137,0.06007452309131622,0.2109108567237854,0.3687632381916046
-0.09366486966609955,0.17782288789749146,-0.2566388249397278,0.060791660100221634,0.2132846862077713,0.374109148979187
-0.09463319182395935,0.17955052852630615,-0.25999823212623596,0.061750397086143494,0.2162376046180725,0.38068801164627075
-0.09540977329015732,0.18096180260181427,-0.2627229690551758,0.06253080815076828,0.21861910820007324,0.38603201508522034
-0.0961652547121048,0.182374969124794,-0.2654496133327484,0.06331121921539307,0.22101019322872162,0.39137792587280273
-0.0969264954328537,0.18376323580741882,-0.2682127058506012,0.06409163773059845,0.22341087460517883,0.3967162072658539
-0.09769156575202942,0.1851418912410736,-0.2709585428237915,0.06487012654542923,0.22562365233898163,0.40164220333099365
-0.09862729161977768,0.1868657022714615,-0.27433905005455017,0.06581927835941315,0.228568896651268,0.40821337699890137
-0.09933292865753174,0.1881619244813919,-0.2768566906452179,0.06653833389282227,0.2309638112783432,0.41355738043785095
-0.10009416192770004,0.18955017626285553,-0.27959293127059937,0.06731874495744705,0.23334723711013794,0.4188994765281677
-0.10086306929588318,0.1909269243478775,-0.2823368310928345,0.06809724122285843,0.23576901853084564,0.42424923181533813
-0.1017911285161972,0.19261813163757324,-0.28572502732276917,0.06905598193407059,0.23871424794197083,0.4308280944824219
-0.10254278033971786,0.19399870932102203,-0.2884765863418579,0.06983255594968796,0.24095195531845093,0.43577325344085693
-0.10330209881067276,0.19536779820919037,-0.2912435233592987,0.07060913741588593,0.24336029589176178,0.44112110137939453
-0.1040019765496254,0.1966198980808258,-0.29381677508354187,0.07132435590028763,0.24577057361602783,0.44646701216697693
-0.10476130247116089,0.19796788692474365,-0.29659518599510193,0.072100929915905,0.24820959568023682,0.45182061195373535
-0.10569319128990173,0.1996399313211441,-0.30005621910095215,0.07307308912277222,0.25119510293006897,0.4583975672721863
-0.1064467653632164,0.20098792016506195,-0.3028404116630554,0.07386308908462524,0.25362837314605713,0.46374157071113586
-0.10720224678516388,0.20232056081295013,-0.3056418299674988,0.07466460019350052,0.2560597360134125,0.46908172965049744
-0.10793855786323547,0.2036474496126175,-0.3084375262260437,0.0754661038517952,0.2582955062389374,0.47401347756385803
-0.10860775411128998,0.20486313104629517,-0.311035692691803,0.07621008157730103,0.2607403099536896,0.47936132550239563
-0.1094897985458374,0.20650257170200348,-0.3144679665565491,0.0771937444806099,0.2637373208999634,0.4859229326248169
-0.11020884662866592,0.2078237235546112,-0.31727901101112366,0.07799333333969116,0.26617443561553955,0.4912688434123993
-0.11092981696128845,0.2091333568096161,-0.3200976848602295,0.0787852555513382,0.2686077058315277,0.49661093950271606
-0.11165079474449158,0.21043723821640015,-0.3229374587535858,0.07958484441041946,0.27085691690444946,0.5015503764152527
-0.1123698428273201,0.21175646781921387,-0.3257695734500885,0.08038634806871414,0.27332279086112976,0.5068943500518799
-0.11326146870851517,0.213399738073349,-0.32926705479621887,0.08136425912380219,0.2763274610042572,0.5134924054145813
-0.11392492055892944,0.21461157500743866,-0.33191317319869995,0.08209673315286636,0.2787914276123047,0.5188363790512085
-0.11463821679353714,0.21590779721736908,-0.33474913239479065,0.08288673311471939,0.2812323570251465,0.5241842269897461
-0.11534193158149719,0.2172040045261383,-0.337588906288147,0.08366906642913818,0.2836829125881195,0.529520571231842
-0.1160590723156929,0.2185194045305252,-0.34041911363601685,0.08445331454277039,0.28594934940338135,0.5344465970993042
-0.11694110929965973,0.2201109081506729,-0.3439300060272217,0.0854235514998436,0.28896746039390564,0.5410158634185791
-0.1176505759358406,0.2213956117630005,-0.3467716872692108,0.08621738851070404,0.2914218306541443,0.5463464260101318
-0.11830826848745346,0.22256143391132355,-0.3494178056716919,0.08695369958877563,0.29387810826301575,0.5516846776008606
-0.11902348697185516,0.22384615242481232,-0.3522767722606659,0.0877513736486435,0.29632481932640076,0.5570210218429565
-0.11989210546016693,0.22544340789318085,-0.35583367943763733,0.08873887360095978,0.2993716895580292,0.5635921955108643
-0.12042324244976044,0.22643281519412994,-0.3580445349216461,0.08935246616601944,0.3010648190975189,0.5673044323921204
-0.12126117944717407,0.22799748182296753,-0.3616071939468384,0.09033229202032089,0.3041020929813385,0.5738641023635864
-0.12193804979324341,0.229257270693779,-0.364512175321579,0.09112612903118134,0.30655455589294434,0.5792196393013
-0.1225593090057373,0.23041541874408722,-0.3671908974647522,0.09186244010925293,0.3090165853500366,0.5845578908920288
-0.12323426455259323,0.23168478906154633,-0.370090126991272,0.09266010671854019,0.31149205565452576,0.5899057388305664
-0.12391304969787598,0.23292730748653412,-0.37298935651779175,0.09345202893018723,0.31395217776298523,0.5952554941177368
-0.12474332004785538,0.2344421148300171,-0.37655967473983765,0.09442802518606186,0.316987544298172,0.6018458604812622
-0.12542018294334412,0.23567697405815125,-0.3794608414173126,0.09521610289812088,0.31944382190704346,0.6071937084197998
-0.12609130144119263,0.23692141473293304,-0.38238880038261414,0.09600035101175308,0.3217121958732605,0.612136960029602
-0.12671448290348053,0.23807765543460846,-0.3851001262664795,0.09672132134437561,0.32419151067733765,0.6174752116203308
-0.12752366065979004,0.2396077960729599,-0.38872799277305603,0.0976858139038086,0.3272211253643036,0.6240501999855042
-0.12803371250629425,0.24055695533752441,-0.39099445939064026,0.09829173982143402,0.32912132143974304,0.6281594038009644
-0.12886205315589905,0.24205449223518372,-0.39465299248695374,0.09927156567573547,0.3321528732776642,0.6347286701202393
-0.12953124940395355,0.24327592551708221,-0.3976154923439026,0.10007115453481674,0.33463406562805176,0.6396623253822327
-0.13019661605358124,0.24449928104877472,-0.40057989954948425,0.1008669063448906,0.3369311988353729,0.6450082659721375
-0.13080446422100067,0.24561524391174316,-0.40329504013061523,0.1016070544719696,0.3393990099430084,0.6503445506095886
-0.13146215677261353,0.24680791795253754,-0.40627482533454895,0.10240280628204346,0.341887891292572,0.6556866765022278
-0.13227133452892303,0.24826328456401825,-0.40993526577949524,0.1033807173371315,0.3449251651763916,0.6622501611709595
-0.1329060196876526,0.24946554005146027,-0.41293996572494507,0.10418030619621277,0.3474121391773224,0.6675865054130554
-0.13353878259658813,0.2506716251373291,-0.41593313217163086,0.10497797280550003,0.3497016131877899,0.6725029349327087
-0.1341734677553177,0.25186237692832947,-0.41895124316215515,0.10576797276735306,0.3521828055381775,0.6778411865234375
-0.13494811952114105,0.2533177435398102,-0.4226481318473816,0.10674205422401428,0.35524117946624756,0.6843932271003723
-0.13552911579608917,0.25439730286598206,-0.42544764280319214,0.10746877640485764,0.35770323872566223,0.6897314786911011
-0.1361580491065979,0.25557655096054077,-0.4284619390964508,0.10824918746948242,0.36017486453056335,0.6950754523277283
-0.13678506016731262,0.2567538619041443,-0.4314838647842407,0.10902576893568039,0.3626483976840973,0.7004213929176331
-0.1375616490840912,0.2581804692745209,-0.4351654350757599,0.1099749207496643,0.36566075682640076,0.7070155739784241
-0.13819441199302673,0.25932711362838745,-0.43817010521888733,0.11075149476528168,0.367927223443985,0.7119550108909607
-0.13863542675971985,0.2601171135902405,-0.44022947549819946,0.11129222065210342,0.36978331208229065,0.7160545587539673
-0.13941392302513123,0.2615245580673218,-0.4439283013343811,0.11226055026054382,0.37278610467910767,0.722641110420227
-0.14004477858543396,0.26267310976982117,-0.4469233751296997,0.11304479837417603,0.37519827485084534,0.7279908657073975
-0.1406794637441635,0.26379868388175964,-0.44992998242378235,0.11382904648780823,0.37760278582572937,0.7333272099494934
-0.1413199007511139,0.2649146616458893,-0.45290398597717285,0.1146075427532196,0.37981554865837097,0.7382627725601196
-0.14211757481098175,0.26626837253570557,-0.456585556268692,0.11556052416563034,0.3827243745326996,0.7448358535766602
-0.14276759326457977,0.2673613429069519,-0.45931604504585266,0.11633135378360748,0.3850732743740082,0.7501798868179321
-0.1433735191822052,0.2683718502521515,-0.4622727930545807,0.11704465001821518,0.3874260187149048,0.7555219531059265
-0.14402928948402405,0.26946672797203064,-0.4652007520198822,0.11781547963619232,0.3897557556629181,0.7608659863471985
-0.14483654499053955,0.270801305770874,-0.4688037037849426,0.118755042552948,0.3926166296005249,0.7674409747123718
-0.1453312635421753,0.271621972322464,-0.47104331851005554,0.11933411657810211,0.39419662952423096,0.7711378931999207
-0.14612126350402832,0.2729220390319824,-0.47463473677635193,0.12025642395019531,0.3969903886318207,0.7777148485183716
-0.1467617005109787,0.27398815751075745,-0.477323055267334,0.1209908202290535,0.3992741107940674,0.7830588221549988
-0.14735227823257446,0.2749890685081482,-0.4802548587322235,0.12167152017354965,0.4015309810638428,0.7884066700935364
-0.1481442004442215,0.2763255536556244,-0.4838501513004303,0.12257273495197296,0.40433239936828613,0.7949855327606201
-0.14864082634449005,0.27714622020721436,-0.48609358072280884,0.12313839048147202,0.40605428814888,0.7990927696228027
-0.14945191144943237,0.2784232795238495,-0.48966777324676514,0.12405494600534439,0.4088020324707031,0.8056716322898865
-0.15011920034885406,0.279460608959198,-0.4925574064254761,0.1247950866818428,0.41085565090179443,0.810595691204071
-0.15079031884670258,0.2805056571960449,-0.49522078037261963,0.1255333125591278,0.4130607545375824,0.8159454464912415
-0.15140007436275482,0.28147396445274353,-0.4980912208557129,0.12621018290519714,0.4152543544769287,0.8212913870811462
-0.1522034853696823,0.2827414274215698,-0.5016213059425354,0.12710565328598022,0.41793882846832275,0.8278836607933044
-0.1527097076177597,0.2835199236869812,-0.5038091540336609,0.12766171991825104,0.41959935426712036,0.8320004940032959
-0.15352846682071686,0.28474709391593933,-0.5073583722114563,0.12853991985321045,0.42222437262535095,0.8385831713676453
-0.15421301126480103,0.2857288420200348,-0.5102249979972839,0.12926089763641357,0.42420127987861633,0.843513011932373
-0.15490904450416565,0.2867220938205719,-0.5128788352012634,0.12998761236667633,0.42630094289779663,0.8488512635231018
-0.15555715560913086,0.2876444160938263,-0.5157243609428406,0.13065490126609802,0.42837756872177124,0.854193389415741
-0.15643535554409027,0.2888447344303131,-0.5192371606826782,0.13154268264770508,0.4309239685535431,0.8607568740844727
-0.1571544110774994,0.2897939085960388,-0.5220788717269897,0.13226941227912903,0.4329488277435303,0.8660970330238342
-0.15786388516426086,0.2907296121120453,-0.5249013900756836,0.13299421966075897,0.4349870979785919,0.8714333772659302
-0.15856951475143433,0.2916615307331085,-0.5276893973350525,0.13370752334594727,0.43686047196388245,0.8763728141784668
-0.1592751443386078,0.29259341955184937,-0.5302645564079285,0.13441698253154755,0.4388508200645447,0.88172447681427
-0.16016484797000885,0.29374006390571594,-0.5338713526725769,0.1352817714214325,0.44128599762916565,0.8882976174354553
-0.160847470164299,0.2945856750011444,-0.5364158153533936,0.13593371212482452,0.4432379901409149,0.8936377763748169
-0.16159528493881226,0.2954811453819275,-0.5391674041748047,0.13663934171199799,0.4451688826084137,0.8989817500114441
-0.1623450219631195,0.29636508226394653,-0.5418882966041565,0.13734880089759827,0.4470787048339844,0.9043219685554504
-0.16328075528144836,0.29745805263519287,-0.5452496409416199,0.1382097452878952,0.44941800832748413,0.9109046459197998
-0.16387133300304413,0.2981310784816742,-0.5471211075782776,0.13874472677707672,0.45071038603782654,0.914599597454071
-0.16482239961624146,0.2992163896560669,-0.5504364371299744,0.1395903378725052,0.45297685265541077,0.9211784601211548
-0.16555103659629822,0.3000255525112152,-0.5530921220779419,0.14022502303123474,0.45482146739959717,0.926520586013794
-0.16634678840637207,0.3009018301963806,-0.555734395980835,0.14091147482395172,0.45663923025131226,0.9318607449531555
-0.167347714304924,0.301960289478302,-0.5589749217033386,0.14174941182136536,0.4588404893875122,0.9384377002716064
-0.168174147605896,0.30280014872550964,-0.5615865588188171,0.14242245256900787,0.46062758564949036,0.9437854886054993
-0.1690082550048828,0.3036208152770996,-0.5641847252845764,0.14308972656726837,0.46226128935813904,0.9487134218215942
-0.16984234750270844,0.30444151163101196,-0.5665547251701355,0.14374741911888123,0.4639793336391449,0.9540650844573975
-0.17087587714195251,0.30545201897621155,-0.5697473287582397,0.14453741908073425,0.4660808742046356,0.9606286287307739
-0.1714511215686798,0.306021511554718,-0.5717204213142395,0.14497460424900055,0.467373251914978,0.9647511839866638
-0.1724865585565567,0.3070300817489624,-0.5748688578605652,0.14574159681797028,0.46940386295318604,0.9713166356086731
-0.17333407700061798,0.3078315854072571,-0.5774133801460266,0.1463475227355957,0.47104141116142273,0.9766625761985779
-0.1741930991411209,0.3086215853691101,-0.5799406170845032,0.1469476968050003,0.47254469990730286,0.9816000461578369
-0.17505981028079987,0.30939432978630066,-0.5822741985321045,0.1475421041250229,0.4741515517234802,0.9869325757026672
-0.17586897313594818,0.3100999593734741,-0.5847707390785217,0.14808858931064606,0.4757353663444519,0.9922689199447632
-0.17694659531116486,0.3110625445842743,-0.5878598093986511,0.14879421889781952,0.47765669226646423,0.9988324046134949
-0.17782481014728546,0.31186214089393616,-0.5903390645980835,0.14935028553009033,0.4791944921016693,1.0041860342025757
-0.17870493233203888,0.31266745924949646,-0.592814564704895,0.1498967707157135,0.48072272539138794,1.0095319747924805
-0.17959271371364594,0.3134593963623047,-0.5952900052070618,0.150425985455513,0.48211097717285156,1.0144752264022827
-0.18070484697818756,0.3143874406814575,-0.5983023643493652,0.15106642246246338,0.483917236328125,1.021067500114441
-0.18162140250205994,0.3151256740093231,-0.6005649566650391,0.1515783965587616,0.4853879511356354,1.0264095067977905
-0.18247659504413605,0.31580063700675964,-0.6029790639877319,0.1520405113697052,0.4868663251399994,1.0317573547363281
-0.18339699506759644,0.31653884053230286,-0.6054027676582336,0.1525256335735321,0.4883044362068176,1.0370956659317017
-0.18430779874324799,0.3172847628593445,-0.6078149676322937,0.15298965573310852,0.48971760272979736,1.0424357652664185
-0.18521283566951752,0.31803256273269653,-0.6102079749107361,0.1534421741962433,0.4910214841365814,1.0473560094833374
-0.18633264303207397,0.3189414441585541,-0.6131302118301392,0.1539790779352188,0.4927644729614258,1.0539273023605347
-0.18724344670772552,0.319668173789978,-0.6153026819229126,0.1543913334608078,0.49414506554603577,1.0592654943466187
-0.188089057803154,0.3203373849391937,-0.6176266670227051,0.15474990010261536,0.49550455808639526,1.0646076202392578
-0.18900944292545319,0.32106027007102966,-0.6199621558189392,0.15512189269065857,0.4968717098236084,1.0699573755264282
-0.19012542068958282,0.3219480514526367,-0.6227827668190002,0.1555456519126892,0.49856293201446533,1.076528549194336
-0.19102662801742554,0.32266902923583984,-0.6250722408294678,0.155863955616951,0.499916672706604,1.0818897485733032
-0.19192975759506226,0.3233976662158966,-0.6273214221000671,0.1561688333749771,0.501149594783783,1.0868158340454102
-0.19282521307468414,0.32412630319595337,-0.6293942332267761,0.15645261108875275,0.5024937391281128,1.092161774635315
-0.19365164637565613,0.3248031735420227,-0.6316587924957275,0.1566961407661438,0.503834068775177,1.0975075960159302
-0.1947292685508728,0.3256947994232178,-0.6344007849693298,0.15698759257793427,0.505483090877533,1.1040846109390259
-0.19559021294116974,0.3264176845550537,-0.6366135478019714,0.15719851851463318,0.5068119168281555,1.1094189882278442
-0.1964358240365982,0.3271271586418152,-0.6388224363327026,0.15739217400550842,0.5081426501274109,1.1147592067718506
-0.1972641795873642,0.3278423845767975,-0.6410006880760193,0.15756283700466156,0.5093755722045898,1.119685173034668
-0.19807526469230652,0.3285537660121918,-0.6430102586746216,0.1577104777097702,0.510715901851654,1.1250214576721191
-0.1988115757703781,0.32921338081359863,-0.6451789140701294,0.15783128142356873,0.5120638608932495,1.1303654909133911
-0.19978182017803192,0.33009541034698486,-0.647792398929596,0.1579635888338089,0.5137128829956055,1.1369520425796509
-0.20055648684501648,0.3308221399784088,-0.649890124797821,0.15804603695869446,0.5150321125984192,1.1422998905181885
-0.20131772756576538,0.33154886960983276,-0.6519782543182373,0.15810547769069672,0.516366720199585,1.1476553678512573
-0.20223426818847656,0.33244431018829346,-0.6545093059539795,0.1581476628780365,0.5180310606956482,1.1542361974716187
-0.2027941793203354,0.33299463987350464,-0.6559378504753113,0.15816491842269897,0.5189571976661682,1.1579445600509644
-0.20368388295173645,0.33387666940689087,-0.6584516763687134,0.1581745147705078,0.5205851197242737,1.1645195484161377
-0.20435117185115814,0.3345324397087097,-0.6604765057563782,0.1581745147705078,0.5219177603721619,1.1698540449142456
-0.2050587236881256,0.335247665643692,-0.6625013947486877,0.1581745147705078,0.5232772827148438,1.175176978111267
-0.20575667917728424,0.33597055077552795,-0.6645032167434692,0.1581745147705078,0.5246425271034241,1.180515170097351
-0.2064412236213684,0.3367011249065399,-0.666476309299469,0.1581745147705078,0.5258773565292358,1.1854392290115356
-0.20727531611919403,0.33760425448417664,-0.6689211130142212,0.15814000368118286,0.5275225639343262,1.1920162439346313
-0.2079349309206009,0.338336706161499,-0.6707311868667603,0.15805178880691528,0.5288801193237305,1.197364091873169
-0.2085389345884323,0.3390040099620819,-0.6726793646812439,0.15795591473579407,0.5302319526672363,1.2027195692062378
-0.20916979014873505,0.339717298746109,-0.6746121644973755,0.15784087777137756,0.5315722823143005,1.2080655097961426
-0.20993869006633759,0.34058400988578796,-0.6769667863845825,0.1576874703168869,0.5332193970680237,1.214665412902832
-0.21055994927883148,0.3412819504737854,-0.6788497567176819,0.15756091475486755,0.534576952457428,1.220018982887268
-0.21116012334823608,0.34198951721191406,-0.6807135343551636,0.1574305295944214,0.5358386635780334,1.2249430418014526
-0.21175454556941986,0.3427066504955292,-0.6824469566345215,0.15730014443397522,0.5372058153152466,1.2302813529968262
-0.2124793529510498,0.34359636902809143,-0.6847211122512817,0.1571352332830429,0.5388797521591187,1.236841082572937
-0.21302199363708496,0.34426364302635193,-0.6865541934967041,0.15700677037239075,0.5402373671531677,1.2421811819076538
-0.2136087417602539,0.34498268365859985,-0.6883796453475952,0.15686678886413574,0.5415892004966736,1.2475156784057617
-0.2141839861869812,0.3456864058971405,-0.6901705265045166,0.15672682225704193,0.5429409742355347,1.2528557777404785
-0.21474772691726685,0.34639012813568115,-0.69195955991745,0.15658684074878693,0.5441892743110657,1.2577952146530151
-0.21529611945152283,0.34709957242012024,-0.6936181783676147,0.1564430296421051,0.5455276966094971,1.2631354331970215
-0.2157946676015854,0.3477553725242615,-0.6953880190849304,0.1563030481338501,0.5468698740005493,1.2684928178787231
-0.21644660830497742,0.3486374020576477,-0.697541356086731,0.15611514449119568,0.5485591888427734,1.2750678062438965
-0.2169739156961441,0.3493679463863373,-0.6992785930633545,0.1559598296880722,0.5499474406242371,1.2804234027862549
-0.21749354898929596,0.35010427236557007,-0.7010157704353333,0.1557968407869339,0.5513107776641846,1.2857692241668701
-0.218007430434227,0.350823312997818,-0.7027376890182495,0.1556357741355896,0.5525705814361572,1.2907048463821411
-0.2186325341463089,0.35169193148612976,-0.7048488259315491,0.15543827414512634,0.5542694330215454,1.2972683906555176
-0.21913491189479828,0.3523994982242584,-0.7064307332038879,0.15528103709220886,0.5556615591049194,1.3026008605957031
-0.21959125995635986,0.35305336117744446,-0.7081296443939209,0.1551314741373062,0.5570229291915894,1.3079372644424438
-0.22007447481155396,0.35377049446105957,-0.7098054885864258,0.15497040748596191,0.5583728551864624,1.3132716417312622
-0.22054234147071838,0.35448378324508667,-0.7114468812942505,0.15481317043304443,0.5597400069236755,1.3186137676239014
-0.22112716734409332,0.3553619980812073,-0.7134602069854736,0.15463292598724365,0.5614408254623413,1.325202226638794
-0.22159118950366974,0.3560637831687927,-0.7150747179985046,0.15450254082679749,0.562702476978302,1.330147385597229
-0.22205905616283417,0.3567732572555542,-0.7165588736534119,0.1543702334165573,0.5640581846237183,1.3354990482330322
-0.22248856723308563,0.3574194312095642,-0.7181695103645325,0.15424752235412598,0.5654272437095642,1.3408564329147339
-0.2230599820613861,0.35828039050102234,-0.7201694846153259,0.15407878160476685,0.5671145915985107,1.3474276065826416
-0.2235182523727417,0.35897451639175415,-0.7217782139778137,0.15394839644432068,0.5684875249862671,1.3527697324752808
-0.2239803671836853,0.35966479778289795,-0.7233659029006958,0.15382759273052216,0.5698585510253906,1.35811185836792
-0.2244386523962021,0.36035701632499695,-0.7249631285667419,0.15371446311473846,0.5711297988891602,1.3630281686782837
-0.22488924860954285,0.36104923486709595,-0.7264165878295898,0.15361091494560242,0.5725046396255493,1.3683607578277588
-0.22530917823314667,0.36168965697288513,-0.7279659509658813,0.15352654457092285,0.5738967061042786,1.3736932277679443
-0.22586524486541748,0.36254292726516724,-0.7298738360404968,0.153421089053154,0.5756186246871948,1.3802682161331177
-0.22631777822971344,0.36323705315589905,-0.7314384579658508,0.15333864092826843,0.576993465423584,1.3856122493743896
-0.2267683744430542,0.3639235198497772,-0.7330069541931152,0.1532600224018097,0.5783606171607971,1.3909715414047241
-0.22721131145954132,0.3646061420440674,-0.7345467209815979,0.15318715572357178,0.5796338319778442,1.3959147930145264
-0.22765617072582245,0.3652791678905487,-0.7359521985054016,0.1531238853931427,0.5810239911079407,1.401262640953064
-0.22821223735809326,0.36609986424446106,-0.737808346748352,0.1530529260635376,0.5826960206031799,1.4078530073165894
-0.22862833738327026,0.36671537160873413,-0.7392982244491577,0.153010755777359,0.5840535759925842,1.413191318511963
-0.22908277809619904,0.36738649010658264,-0.7407727241516113,0.15297622978687286,0.5854284167289734,1.4185237884521484
-0.22953912615776062,0.368063360452652,-0.7422165870666504,0.15295130014419556,0.5868262648582458,1.4238601922988892
-0.23009136319160461,0.3688916862010956,-0.744013249874115,0.15293404459953308,0.5885117053985596,1.430429458618164
-0.23044034838676453,0.3694075047969818,-0.745031476020813,0.15292829275131226,0.5894513130187988,1.4341282844543457
-0.23099066317081451,0.3702281713485718,-0.7468166351318359,0.1529187113046646,0.5911444425582886,1.4406936168670654
-0.2314048409461975,0.3708283603191376,-0.7482393980026245,0.1529129594564438,0.5925288200378418,1.4460433721542358
-0.23184585571289062,0.37147262692451477,-0.7496679425239563,0.15290720760822296,0.5938998460769653,1.451385498046875
-0.2323904186487198,0.3722626268863678,-0.7514224052429199,0.15290145576000214,0.5955699682235718,1.4579758644104004
-0.2328333556652069,0.3729088008403778,-0.7528279423713684,0.15290145576000214,0.5969390273094177,1.4633218050003052
-0.2332686185836792,0.3735492527484894,-0.7542257308959961,0.15290145576000214,0.598210334777832,1.4682650566101074
-0.23370389640331268,0.3742031157016754,-0.7555238604545593,0.15290145576000214,0.599587082862854,1.473612904548645
-0.23422735929489136,0.3750276267528534,-0.7572438716888428,0.15290145576000214,0.6012706160545349,1.4801840782165527
-0.23462428152561188,0.37563738226890564,-0.7586187124252319,0.15290528535842896,0.6026396751403809,1.4855165481567383
-0.23505187034606934,0.37628164887428284,-0.7599743604660034,0.15295514464378357,0.6040011048316956,1.490847110748291
-0.2354833036661148,0.37690484523773193,-0.7613338232040405,0.1530318409204483,0.6053682565689087,1.4961854219436646
-0.23591473698616028,0.377520352602005,-0.7626914381980896,0.1531200408935547,0.606631875038147,1.5011075735092163
-0.23635192215442657,0.37813010811805725,-0.763945460319519,0.15321975946426392,0.6079933047294617,1.5064496994018555
-0.23689840734004974,0.37889134883880615,-0.765579104423523,0.15334247052669525,0.6096519231796265,1.513038158416748
-0.2373049110174179,0.3794589042663574,-0.7669137120246887,0.1534421741962433,0.6110228896141052,1.518391728401184
-0.23774977028369904,0.3800801634788513,-0.7682424783706665,0.153561070561409,0.612409234046936,1.5237510204315186
-0.23830008506774902,0.38085100054740906,-0.7698838710784912,0.15371063351631165,0.6140812635421753,1.5303337574005127
-0.2387545257806778,0.38146650791168213,-0.7711992263793945,0.1538390964269638,0.6154292821884155,1.535685420036316
-0.23920321464538574,0.38206860423088074,-0.7724858522415161,0.1539790779352188,0.616683304309845,1.5406172275543213
-0.23964805901050568,0.38266491889953613,-0.7736574411392212,0.15412288904190063,0.6180561780929565,1.5459496974945068
-0.24019646644592285,0.38338205218315125,-0.7752125263214111,0.1543203890323639,0.6197224855422974,1.5525035858154297
-0.24060679972171783,0.38391897082328796,-0.7764819264411926,0.15447378158569336,0.6210589408874512,1.5578495264053345
-0.24105358123779297,0.38449612259864807,-0.7777340412139893,0.1546425223350525,0.6224146485328674,1.5631839036941528
-0.24150609970092773,0.3850752115249634,-0.778976559638977,0.15481509268283844,0.6237933039665222,1.5685298442840576
-0.2419605404138565,0.3856523633003235,-0.7802056670188904,0.15500684082508087,0.6250569224357605,1.5734692811965942
-0.24241115152835846,0.3861815929412842,-0.7813465595245361,0.15520626306533813,0.6264067888259888,1.5788114070892334
-0.24282723665237427,0.3867568373680115,-0.7825947999954224,0.15538841485977173,0.6277605295181274,1.5841611623764038
-0.2433852255344391,0.3874528706073761,-0.7841095924377441,0.1556357741355896,0.6294345259666443,1.5907496213912964
-0.24384158849716187,0.38801276683807373,-0.7853310704231262,0.15583902597427368,0.6307939887046814,1.5961050987243652
-0.24429795145988464,0.38856691122055054,-0.7865486741065979,0.15604420006275177,0.6321496367454529,1.6014394760131836
-0.24475239217281342,0.38911914825439453,-0.7877624034881592,0.1562570333480835,0.6333960294723511,1.6063674688339233
-0.24530653655529022,0.38977301120758057,-0.7892560958862305,0.15652740001678467,0.6350737810134888,1.6129308938980103
-0.24561716616153717,0.39013540744781494,-0.790082573890686,0.15668463706970215,0.6361226439476013,1.6170343160629272
-0.24617132544517517,0.3907720148563385,-0.7915264368057251,0.1569741666316986,0.6378138661384583,1.6236094236373901
-0.24662384390830994,0.39129549264907837,-0.7926979660987854,0.15721385180950165,0.6391772031784058,1.6289476156234741
-0.24708403646945953,0.39181897044181824,-0.7938810586929321,0.15746696293354034,0.6405251622200012,1.6342954635620117
-0.24754422903060913,0.3923347592353821,-0.7950641512870789,0.15772007405757904,0.6417811512947083,1.6392271518707275
-0.24800442159175873,0.3928007185459137,-0.7961322069168091,0.15798276662826538,0.643152117729187,1.6445808410644531
-0.2485758364200592,0.3934257924556732,-0.79753577709198,0.1583087295293808,0.6448356509208679,1.6511672735214233
-0.24900726974010468,0.3939339220523834,-0.7986747622489929,0.15855801105499268,0.6461797952651978,1.656515121459961
-0.24947896599769592,0.394442081451416,-0.7998003363609314,0.15882645547389984,0.6475316286087036,1.6618648767471313
-0.24995258450508118,0.3949425220489502,-0.8009220361709595,0.159094899892807,0.6489160656929016,1.6672089099884033
-0.2505354881286621,0.3955446183681488,-0.8022968769073486,0.15942662954330444,0.6506149172782898,1.673761010169983
-0.2510167956352234,0.39602014422416687,-0.8034051656723022,0.15969698131084442,0.651861310005188,1.6786831617355347
-0.2515038251876831,0.3964592516422272,-0.8044137954711914,0.1599711924791336,0.6532169580459595,1.6840251684188843
-0.25195249915122986,0.39693862199783325,-0.8055028915405273,0.16022621095180511,0.6545917987823486,1.689355731010437
-0.25255268812179565,0.39751771092414856,-0.8068528175354004,0.16057710349559784,0.6562715172767639,1.6959365606307983
-0.25303781032562256,0.39797598123550415,-0.8079515099525452,0.16086281836032867,0.6576213836669922,1.701284408569336
-0.2535267472267151,0.39843040704727173,-0.8090329766273499,0.1611427664756775,0.6589751243591309,1.7066360712051392
-0.25402721762657166,0.3988887071609497,-0.8100914359092712,0.16142846643924713,0.6602349281311035,1.7115850448608398
-0.25453343987464905,0.39931628108024597,-0.8110558986663818,0.16170841455459595,0.6616135835647583,1.7169463634490967
-0.25515660643577576,0.39988961815834045,-0.8123387098312378,0.16205164790153503,0.663306713104248,1.7235270738601685
-0.2556225657463074,0.4003421366214752,-0.8133952021598816,0.16230666637420654,0.6646738648414612,1.7288615703582764
-0.2562476694583893,0.4008867144584656,-0.8146780133247375,0.16264797747135162,0.6663593649864197,1.7354251146316528
-0.25663691759109497,0.4012203514575958,-0.8154757022857666,0.16286273300647736,0.667410135269165,1.7395226955413818
-0.2572639286518097,0.4017438292503357,-0.8167278170585632,0.16320213675498962,0.6690993905067444,1.746090054512024
-0.2577778100967407,0.4021618366241455,-0.8177402019500732,0.16348016262054443,0.6703687906265259,1.7510160207748413
-0.2582820951938629,0.4025472402572632,-0.8186913132667542,0.16375628113746643,0.671728253364563,1.7563600540161133
-0.25890910625457764,0.4030860364437103,-0.8199683427810669,0.1640956699848175,0.6734156608581543,1.7629389762878418
-0.25937697291374207,0.40346187353134155,-0.8209846019744873,0.1643487811088562,0.6748135089874268,1.7682887315750122
-0.2598927915096283,0.4038626253604889,-0.8219720721244812,0.16462107002735138,0.6762017607688904,1.7736423015594482
-0.26040858030319214,0.4042614698410034,-0.8229596018791199,0.16489718854427338,0.6775612235069275,1.77899968624115
-0.2609339654445648,0.4046679735183716,-0.8239566683769226,0.16516754031181335,0.6788248419761658,1.783935308456421
-0.26158207654953003,0.40516650676727295,-0.8251972794532776,0.16550502181053162,0.6805332899093628,1.7905160188674927
-0.26211512088775635,0.40553849935531616,-0.826127290725708,0.1657753884792328,0.6819139122962952,1.7958524227142334
-0.2626079320907593,0.4059373438358307,-0.8271186351776123,0.16602082550525665,0.6832772493362427,1.8011791706085205
-0.26326560974121094,0.40643396973609924,-0.8283189535140991,0.16634295880794525,0.684966504573822,1.8077503442764282
-0.2636740505695343,0.40673691034317017,-0.8290667533874512,0.16654428839683533,0.6860441565513611,1.8118594884872437
-0.26433366537094116,0.4072105288505554,-0.8302613496780396,0.1668645143508911,0.6877583861351013,1.8184287548065186
-0.26486480236053467,0.4075767695903778,-0.8312315940856934,0.16711953282356262,0.6890354156494141,1.8233662843704224
-0.265397846698761,0.40791234374046326,-0.8321194052696228,0.1673707216978073,0.690412163734436,1.8287122249603271
-0.26589062809944153,0.4082708954811096,-0.8330685496330261,0.16760465502738953,0.6917985081672668,1.8340734243392944
-0.26642560958862305,0.40862947702407837,-0.8340080976486206,0.16785776615142822,0.6931828856468201,1.839436650276184
-0.2670871615409851,0.4090743362903595,-0.8351547718048096,0.1681530624628067,0.6948913931846619,1.8460270166397095
-0.26762211322784424,0.40943098068237305,-0.8360828161239624,0.16839465498924255,0.6962738633155823,1.8513710498809814
-0.26815900206565857,0.4097857177257538,-0.8370031714439392,0.16864009201526642,0.6975604891777039,1.8562970161437988
-0.2686939835548401,0.4101366102695465,-0.8378545641899109,0.16888362169265747,0.6989641189575195,1.8616371154785156
-0.26919060945510864,0.4104548990726471,-0.8387883901596069,0.16910795867443085,0.7003811001777649,1.8669524192810059
-0.269727498292923,0.4107981324195862,-0.8397106528282166,0.16934381425380707,0.701790452003479,1.8722867965698242
-0.27039095759391785,0.4112218916416168,-0.8408209085464478,0.1696275919675827,0.7035008668899536,1.87886381149292
-0.27092593908309937,0.4115651249885559,-0.8417144417762756,0.16985385119915009,0.7049044370651245,1.8842097520828247
-0.2714589834213257,0.411904513835907,-0.8426098823547363,0.17008012533187866,0.7062198519706726,1.8891414403915405
-0.27198630571365356,0.41221708059310913,-0.8434382677078247,0.17030446231365204,0.7076330184936523,1.8945122957229614
-0.2726420760154724,0.41263315081596375,-0.8445599675178528,0.17058250308036804,0.7093453407287598,1.9011180400848389
-0.27313679456710815,0.41295912861824036,-0.8454688787460327,0.17078766226768494,0.7107585072517395,1.9064888954162598
-0.2736717462539673,0.4132736027240753,-0.8463643193244934,0.17100434005260468,0.7121965885162354,1.911840558052063
-0.274204820394516,0.41358038783073425,-0.8472444415092468,0.17121143639087677,0.7136212587356567,1.9171844720840454
-0.27474361658096313,0.41388145089149475,-0.8481149673461914,0.17141276597976685,0.7149174809455872,1.9221067428588867
-0.27528053522109985,0.41415947675704956,-0.8489164710044861,0.17161601781845093,0.7163364291191101,1.9274276494979858
-0.27594780921936035,0.41452762484550476,-0.8499941229820251,0.1718633770942688,0.7181004881858826,1.933995008468628
-0.27645209431648254,0.41482484340667725,-0.8508780598640442,0.17205128073692322,0.7195213437080383,1.939337134361267
-0.2769889831542969,0.41512012481689453,-0.8517581820487976,0.17225070297718048,0.7209326028823853,1.9446773529052734
-0.2775220572948456,0.4154154062271118,-0.8526191115379333,0.17245012521743774,0.7223515510559082,1.9500271081924438
-0.2780531942844391,0.4157164692878723,-0.8534590005874634,0.1726495325565338,0.7236669659614563,1.9549626111984253
-0.27871665358543396,0.41609227657318115,-0.8545001745223999,0.17289113998413086,0.7254329323768616,1.9615607261657715
-0.27926695346832275,0.4163760840892792,-0.8552939891815186,0.17307905852794647,0.726857602596283,1.966908574104309
-0.27977699041366577,0.41667136549949646,-0.8561607003211975,0.17325162887573242,0.7282765507698059,1.9722621440887451
-0.2803330719470978,0.4169608950614929,-0.8570350408554077,0.1734318733215332,0.72968590259552,1.9776041507720947
-0.28101953864097595,0.4173060655593872,-0.8580954074859619,0.17365045845508575,0.7314346432685852,1.9841657876968384
-0.28157559037208557,0.41759175062179565,-0.8589257001876831,0.17382687330245972,0.7328612208366394,1.9894963502883911
-0.2821354866027832,0.4178755283355713,-0.8597502112388611,0.17399559915065765,0.7341670393943787,1.994431972503662
-0.28269731998443604,0.4181382358074188,-0.8605114221572876,0.17416051030158997,0.7355821132659912,1.9997682571411133
-0.28320929408073425,0.41842201352119446,-0.8613417148590088,0.1743043214082718,0.737018346786499,2.0051026344299316
-0.28376534581184387,0.4187058210372925,-0.8621777296066284,0.17445963621139526,0.7384622097015381,2.0104563236236572
-0.2844364643096924,0.41904711723327637,-0.8632054924964905,0.17464755475521088,0.7401955723762512,2.01703143119812
-0.2849887013435364,0.4193251430988312,-0.8640319108963013,0.17480094730854034,0.7416107058525085,2.0223963260650635
-0.28554093837738037,0.41959935426712036,-0.8648468852043152,0.174952432513237,0.7429337501525879,2.0273396968841553
-0.2861027419567108,0.41984862089157104,-0.8655965924263,0.1750923991203308,0.7443737387657166,2.032693386077881
-0.28662431240081787,0.4201151430606842,-0.8664095997810364,0.17524388432502747,0.7457849979400635,2.0380468368530273
-0.2873222827911377,0.42044496536254883,-0.8674047589302063,0.17542988061904907,0.7475242018699646,2.044591188430786
-0.28788408637046814,0.4207172393798828,-0.8682101368904114,0.17556984722614288,0.7489660978317261,2.0499255657196045
-0.28844398260116577,0.4209895133972168,-0.8690173625946045,0.17570215463638306,0.7504003643989563,2.05525803565979
-0.28899815678596497,0.4212503135204315,-0.8698303699493408,0.17583446204662323,0.7517138719558716,2.0601918697357178
-0.28954654932022095,0.4214918911457062,-0.8705801367759705,0.17595909535884857,0.7531308531761169,2.0655243396759033
-0.29021573066711426,0.42181020975112915,-0.8715580105781555,0.17610099911689758,0.754889190196991,2.0720953941345215
-0.2907162010669708,0.4220709800720215,-0.8723365068435669,0.17620262503623962,0.7563177347183228,2.077439546585083
-0.29125502705574036,0.42233943939208984,-0.8731034994125366,0.1763100028038025,0.7577366828918457,2.082775831222534
-0.2917938232421875,0.42261171340942383,-0.8738647699356079,0.17640970647335052,0.7591498494148254,2.088127613067627
-0.2924668490886688,0.4229472577571869,-0.8748062252998352,0.1765190064907074,0.7608909010887146,2.0946929454803467
-0.2930152714252472,0.42321956157684326,-0.8755905032157898,0.17660337686538696,0.7622101306915283,2.0996055603027344
-0.2935674786567688,0.42346882820129395,-0.8763229846954346,0.1766800731420517,0.7636443972587585,2.1048996448516846
-0.294079452753067,0.4237315058708191,-0.8770995140075684,0.17675869166851044,0.7650690674781799,2.110182285308838
-0.2946297824382782,0.4239865243434906,-0.8778607845306396,0.176839217543602,0.7664842009544373,2.115436315536499
-0.2952970564365387,0.42429715394973755,-0.8787773251533508,0.17693893611431122,0.7682424783706665,2.1218905448913574
-0.2958320379257202,0.42455410957336426,-0.8795194029808044,0.17701563239097595,0.7696844339370728,2.127129077911377
-0.29648396372795105,0.42487239837646484,-0.8804359436035156,0.1770980805158615,0.7714350819587708,2.133554458618164
-0.2969997823238373,0.42513126134872437,-0.8811952471733093,0.17715752124786377,0.77274090051651,2.1383864879608154
-0.29751941561698914,0.4253652095794678,-0.8818970322608948,0.17721505463123322,0.7741828560829163,2.1435961723327637
-0.29799684882164,0.4256221354007721,-0.8826563954353333,0.17726489901542664,0.7756343483924866,2.148815631866455
-0.2986373007297516,0.42594045400619507,-0.8835633397102356,0.17732051014900208,0.7773869633674622,2.15521240234375
-0.29915502667427063,0.4262031316757202,-0.8842747211456299,0.17735694348812103,0.7787982225418091,2.16038179397583
-0.2996708154678345,0.4264600872993469,-0.8849822878837585,0.17738762497901917,0.7802363038063049,2.165543794631958
-0.3001789450645447,0.4267131984233856,-0.8857070803642273,0.1774183064699173,0.7815536260604858,2.1702933311462402
-0.3006889820098877,0.42694327235221863,-0.8863762617111206,0.17744514346122742,0.7829725742340088,2.175422430038452
-0.30116069316864014,0.4271906316280365,-0.8871106505393982,0.17747390270233154,0.7843895554542542,2.180534601211548
-0.30178579688072205,0.4274974465370178,-0.8879984617233276,0.17749115824699402,0.7861517071723938,2.1868276596069336
-0.30229201912879944,0.42775246500968933,-0.8887098431587219,0.17749883234500885,0.7875783443450928,2.191909074783325
-0.30280014872550964,0.42801323533058167,-0.8894059062004089,0.17750267684459686,0.7889991998672485,2.196995973587036
-0.30343097448349,0.42832961678504944,-0.8902457356452942,0.1775103360414505,0.7907383441925049,2.2032508850097656
-0.30383172631263733,0.4285022020339966,-0.8907193541526794,0.1775141805410385,0.7917143106460571,2.206782817840576
-0.30448752641677856,0.4288051426410675,-0.8915764689445496,0.17751993238925934,0.7934458255767822,2.2130396366119385
-0.3049784004688263,0.4290544390678406,-0.8922763466835022,0.17751993238925934,0.794858992099762,2.2181169986724854
-0.3055095374584198,0.42930176854133606,-0.8929781317710876,0.17751993238925934,0.7962664365768433,2.2231791019439697
-0.30605027079582214,0.42954912781715393,-0.8936722874641418,0.17751993238925934,0.7976527810096741,2.2282068729400635
-0.3065967261791229,0.4298022389411926,-0.8943663835525513,0.17751993238925934,0.7989451289176941,2.2328412532806396
-0.30727553367614746,0.4301128685474396,-0.8952043652534485,0.17751993238925934,0.8006861805915833,2.2389907836914062
-0.3078315854072571,0.4303487241268158,-0.8958237171173096,0.17751993238925934,0.8020898103713989,2.243987560272217
-0.3083397150039673,0.4306018352508545,-0.8964948058128357,0.17750267684459686,0.8034741878509521,2.2489845752716064
-0.30888620018959045,0.4308587610721588,-0.897163987159729,0.1774393916130066,0.8048624396324158,2.25396990776062
-0.3094230890274048,0.4311138093471527,-0.8978274464607239,0.17736652493476868,0.8062698841094971,2.25895357131958
-0.31008654832839966,0.4314282536506653,-0.8986327648162842,0.17726682126522064,0.8079783320426941,2.2650721073150635
-0.3106215298175812,0.43167752027511597,-0.8992847204208374,0.1771862804889679,0.8092477321624756,2.2696759700775146
-0.31116417050361633,0.43190956115722656,-0.8998848795890808,0.17710958421230316,0.8106359839439392,2.274655818939209
-0.3116627037525177,0.43215689063072205,-0.9005426168441772,0.1770252138376236,0.8120434284210205,2.279627799987793
-0.3122130334377289,0.4324042499065399,-0.9012041091918945,0.17694659531116486,0.813441276550293,2.284590244293213
-0.31289756298065186,0.4327014684677124,-0.902015209197998,0.17684689164161682,0.8151439428329468,2.290670394897461
-0.3134613037109375,0.4329373240470886,-0.9026575684547424,0.17676059901714325,0.8165245652198792,2.295609951019287
-0.31402313709259033,0.43316933512687683,-0.9032884240150452,0.17667624354362488,0.8178035020828247,2.30015230178833
-0.3145427703857422,0.43338409066200256,-0.9038713574409485,0.17659570276737213,0.8191936612129211,2.3050687313079834
-0.31510841846466064,0.43361034989356995,-0.9045079350471497,0.17650750279426575,0.8205761909484863,2.3099987506866455
-0.3157929480075836,0.43388456106185913,-0.9052960276603699,0.17639820277690887,0.8222674131393433,2.3160464763641357
-0.3163413405418396,0.4341127276420593,-0.905932605266571,0.17631575465202332,0.8236556649208069,2.320960760116577
-0.31688976287841797,0.43435049057006836,-0.9065864682197571,0.17623521387577057,0.8250515460968018,2.325863838195801
-0.31743621826171875,0.4345920979976654,-0.9072518348693848,0.17615659534931183,0.8263516426086426,2.330381393432617
-0.3181111812591553,0.43489697575569153,-0.9080572128295898,0.1760588139295578,0.8280619978904724,2.3364310264587402
-0.3186289072036743,0.4351193904876709,-0.9086534976959229,0.17598019540309906,0.8294349312782288,2.3413493633270264
-0.3191945552825928,0.4353552460670471,-0.9092901349067688,0.17589007318019867,0.830819308757782,2.3462772369384766
-0.31976595520973206,0.4355853497982025,-0.9099248051643372,0.1758076250553131,0.8322171568870544,2.3511993885040283
-0.3203373849391937,0.43582311272621155,-0.9105613827705383,0.17572516202926636,0.8335996866226196,2.3560948371887207
-0.32089343667030334,0.43605896830558777,-0.9111961126327515,0.17563696205615997,0.8348671197891235,2.360604763031006
-0.32140156626701355,0.4362756311893463,-0.9117828607559204,0.17554683983325958,0.8362611532211304,2.3654673099517822
-0.3220784366130829,0.43656325340270996,-0.912568986415863,0.17542988061904907,0.838007926940918,2.371455669403076
-0.3226364254951477,0.43679144978523254,-0.9132152199745178,0.17533016204833984,0.8394115567207336,2.37630295753479
-0.32320207357406616,0.4370081126689911,-0.9138498902320862,0.17522087693214417,0.8407998085021973,2.3811330795288086
-0.32377925515174866,0.4372190535068512,-0.9144826531410217,0.17510774731636047,0.8421995639801025,2.385967254638672
-0.32448869943618774,0.4374759793281555,-0.9152381420135498,0.17496393620967865,0.8439368009567261,2.391901731491089
-0.32507163286209106,0.4376830756664276,-0.9158363938331604,0.17484505474567413,0.8452310562133789,2.3963541984558105
-0.3256142735481262,0.4378652274608612,-0.9163867235183716,0.17473383247852325,0.8466250896453857,2.401155471801758
-0.326202929019928,0.43805697560310364,-0.916986882686615,0.1746091991662979,0.8480267524719238,2.4059433937072754
-0.32679733633995056,0.43824681639671326,-0.9175947308540344,0.17447496950626373,0.8494399189949036,2.410738945007324
-0.3273879289627075,0.4384347200393677,-0.9182083010673523,0.17433883249759674,0.8508531451225281,2.4155287742614746
-0.3279785215854645,0.43861111998558044,-0.9188295602798462,0.17419502139091492,0.8521474003791809,2.419919967651367
-0.3285154104232788,0.43877220153808594,-0.9194048047065735,0.17406463623046875,0.8535529375076294,2.424652099609375
-0.32924404740333557,0.43898120522499084,-0.9201602935791016,0.17388246953487396,0.8552767634391785,2.430464029312134
-0.329848051071167,0.4391518533229828,-0.9207662343978882,0.1737309992313385,0.856684148311615,2.435202121734619
-0.3304789066314697,0.4393205940723419,-0.9213740825653076,0.17357568442821503,0.8580973744392395,2.439955711364746
-0.3312612473964691,0.4395257532596588,-0.9221122860908508,0.17337433993816376,0.8598211407661438,2.4457828998565674
-0.3318959176540375,0.4396906793117523,-0.9227124452590942,0.17320752143859863,0.8612247705459595,2.4505093097686768
-0.3325229287147522,0.43985557556152344,-0.9233222007751465,0.1730387806892395,0.8625363111495972,2.4548563957214355
-0.3331020176410675,0.4400070607662201,-0.9238840341567993,0.17288155853748322,0.8639724850654602,2.4595789909362793
-0.33386901021003723,0.440212219953537,-0.924643337726593,0.17267830669879913,0.8657059073448181,2.4653947353363037
-0.3343464434146881,0.44033876061439514,-0.9251208305358887,0.17254982888698578,0.8667796850204468,2.4690072536468506
-0.3351057767868042,0.4405324459075928,-0.925876259803772,0.17233507335186005,0.8685303330421448,2.4747750759124756
-0.3357231914997101,0.44068583846092224,-0.9264726042747498,0.17215290665626526,0.8699665069580078,2.479426860809326
-0.33634063601493835,0.4408334791660309,-0.9270517230033875,0.17197075486183167,0.8712704181671143,2.4837143421173096
-0.336900532245636,0.44096770882606506,-0.9275904893875122,0.17180776596069336,0.8726797699928284,2.4883391857147217
-0.3375045359134674,0.4411191940307617,-0.9281734228134155,0.17162944376468658,0.8741082549095154,2.492943048477173
-0.33824852108955383,0.4413051903247833,-0.9288713932037354,0.1713993400335312,0.8758819103240967,2.498603582382202
-0.3388601839542389,0.44145667552948,-0.929442822933197,0.17120759189128876,0.8773027658462524,2.5032169818878174
-0.3396252691745758,0.4416388273239136,-0.9301599264144897,0.17097750306129456,0.8790457844734192,2.508882999420166
-0.3401046395301819,0.44175195693969727,-0.9306028485298157,0.17083176970481873,0.8800275325775146,2.512066125869751
-0.3408620357513428,0.4419226050376892,-0.9313104152679443,0.17059016227722168,0.8817819952964783,2.517726421356201
-0.3414238691329956,0.44204533100128174,-0.9318358302116394,0.17040225863456726,0.8832009434700012,2.5223207473754883
-0.34203362464904785,0.4421776235103607,-0.9324129819869995,0.17020283639431,0.8846179842948914,2.52689790725708
-0.3426491320133209,0.4423080086708069,-0.9329901337623596,0.16999958455562592,0.8860407471656799,2.5314459800720215
-0.343404620885849,0.44246718287467957,-0.9336861968040466,0.16973881423473358,0.8878105282783508,2.5370450019836426
-0.3440239429473877,0.44259563088417053,-0.9342479705810547,0.16952981054782867,0.8892524838447571,2.541574239730835
-0.34465673565864563,0.4427222013473511,-0.9348059892654419,0.1693265587091446,0.890569806098938,2.5457370281219482
-0.34523963928222656,0.44283533096313477,-0.9353217482566833,0.16913096606731415,0.8919829726219177,2.5502219200134277
-0.3458666503429413,0.4429542124271393,-0.9358701705932617,0.16891621053218842,0.8934096097946167,2.5546820163726807
-0.3466106355190277,0.4431018531322479,-0.9365278482437134,0.16866885125637054,0.8951736688613892,2.5601601600646973
-0.34719163179397583,0.44322457909584045,-0.9370436668395996,0.1684713512659073,0.8965830206871033,2.5645837783813477
-0.3477630317211151,0.44334346055984497,-0.937549889087677,0.16827769577503204,0.8979712724685669,2.5689749717712402
-0.34832867980003357,0.4434700012207031,-0.9380657076835632,0.1680801957845688,0.8992751240730286,2.573038101196289
-0.3490228056907654,0.4436253309249878,-0.9387003779411316,0.16783666610717773,0.9010449647903442,2.5784451961517334
-0.3495558798313141,0.44373080134391785,-0.9391835927963257,0.16765259206295013,0.9024620056152344,2.5828611850738525
-0.35014262795448303,0.4438381791114807,-0.9397032260894775,0.1674397587776184,0.9038713574409485,2.587275266647339
-0.3507370352745056,0.44394171237945557,-0.9402209520339966,0.16722308099269867,0.9053017497062683,2.591700792312622
-0.3513391315937042,0.4440414309501648,-0.9407213926315308,0.16700640320777893,0.9067475199699402,2.5960822105407715
-0.3520869314670563,0.44414880871772766,-0.9413292407989502,0.16673412919044495,0.9085173606872559,2.601454973220825
-0.35268327593803406,0.4442293345928192,-0.9418239593505859,0.16650019586086273,0.90984046459198,2.6054511070251465
-0.353227823972702,0.44430410861968994,-0.9422764778137207,0.166283518075943,0.9112919569015503,2.609801769256592
-0.35380882024765015,0.4443865716457367,-0.9427654147148132,0.16604958474636078,0.912739634513855,2.614131450653076
-0.35438981652259827,0.44447094202041626,-0.9432563185691833,0.1658214032649994,0.9141815900802612,2.6184496879577637
-0.3549746572971344,0.44455721974372864,-0.9437490701675415,0.165597066283226,0.9156139492988586,2.622788906097412
-0.3556879460811615,0.4446607530117035,-0.9443550109863281,0.16531135141849518,0.9173741936683655,2.6281137466430664
-0.35625937581062317,0.44474896788597107,-0.9448439478874207,0.16508126258850098,0.9186915159225464,2.6320924758911133
-0.35678860545158386,0.444825679063797,-0.9452945590019226,0.16486841440200806,0.9201238751411438,2.636416435241699
-0.35736575722694397,0.44490429759025574,-0.9457700848579407,0.16463640332221985,0.921550452709198,2.6407480239868164
-0.35794100165367126,0.4449809789657593,-0.9462360739707947,0.16440056264400482,0.9229674935340881,2.6450564861297607
-0.3585239052772522,0.44506725668907166,-0.9466904997825623,0.16417045891284943,0.9243863821029663,2.649388074874878
-0.3592391312122345,0.44516506791114807,-0.9472484588623047,0.16388475894927979,0.926163911819458,2.654716730117798
-0.3598181903362274,0.4452455937862396,-0.9477067589759827,0.1636584997177124,0.9274869561195374,2.6586954593658447
-0.3603474199771881,0.4453146159648895,-0.9481343626976013,0.1634494811296463,0.9288944005966187,2.662992477416992
-0.3610549867153168,0.44541049003601074,-0.948715329170227,0.1631714552640915,0.9306354522705078,2.668278932571411
-0.3616340458393097,0.44548720121383667,-0.9491908550262451,0.1629432737827301,0.932069718837738,2.6725761890411377
-0.3622150421142578,0.4455600678920746,-0.9496625661849976,0.1627112627029419,0.9334944486618042,2.676842451095581
-0.3627941310405731,0.4456329345703125,-0.9501304626464844,0.1624830812215805,0.9348999261856079,2.6811013221740723
-0.3633693754673004,0.4457058012485504,-0.9505944848060608,0.1622529774904251,0.93620765209198,2.685030221939087
-0.3639005124568939,0.4457671344280243,-0.9510124921798706,0.16203822195529938,0.9376534223556519,2.6892716884613037
-0.3644738495349884,0.44583043456077576,-0.9514515995979309,0.16180238127708435,0.9390953779220581,2.693484306335449
-0.3651602864265442,0.44590136408805847,-0.9519769549369812,0.16150516271591187,0.9408537149429321,2.6986711025238037
-0.36570867896080017,0.4459531307220459,-0.9523911476135254,0.161261647939682,0.9422860741615295,2.7028703689575195
-0.3662494122982025,0.44600874185562134,-0.9527976512908936,0.16101238131523132,0.9437222480773926,2.7070446014404297
-0.36678439378738403,0.44606244564056396,-0.9532003402709961,0.16076885163784027,0.9450491070747375,2.7109084129333496
-0.36745551228523254,0.4461333751678467,-0.9537007808685303,0.1604754775762558,0.946803629398346,2.716064453125
-0.3678428530693054,0.44617748260498047,-0.9539922475814819,0.16032208502292633,0.9478927254676819,2.719285726547241
-0.3685235381126404,0.44624844193458557,-0.9545060992240906,0.16004596650600433,0.9496510624885559,2.7244150638580322
-0.3690757751464844,0.446304053068161,-0.954918384552002,0.15982162952423096,0.9510930180549622,2.728581666946411
-0.36974114179611206,0.44636157155036926,-0.9554150104522705,0.15952633321285248,0.9528762698173523,2.7336573600769043
-0.3701476454734802,0.4463903307914734,-0.955716073513031,0.15933458507061005,0.9538791179656982,2.736497163772583
-0.3707842528820038,0.446432501077652,-0.9561954140663147,0.15902970731258392,0.9556585550308228,2.7415611743927
-0.3712482750415802,0.4464631974697113,-0.9565559029579163,0.15880152583122253,0.9571196436882019,2.745676040649414
-0.37174299359321594,0.44650155305862427,-0.9569470882415771,0.1585637629032135,0.9585731029510498,2.749819755554199
-0.3722357749938965,0.44654563069343567,-0.957330584526062,0.1583298295736313,0.9599977731704712,2.753955602645874
-0.3728436231613159,0.4466031789779663,-0.957790732383728,0.1580575406551361,0.9617561101913452,2.759023666381836
-0.3733383119106293,0.44665300846099854,-0.9581608176231384,0.15784087777137756,0.9632152915000916,2.7631309032440186
-0.3738311231136322,0.44670096039772034,-0.9585328102111816,0.15762419998645782,0.9645594358444214,2.766937017440796
-0.3744332194328308,0.4467642307281494,-0.9589911103248596,0.15735766291618347,0.9663196802139282,2.771989583969116
-0.3747706711292267,0.44679874181747437,-0.9592499732971191,0.157206192612648,0.9674222469329834,2.7751572132110596
-0.37536126375198364,0.446852445602417,-0.9597063064575195,0.15693582594394684,0.9692170023918152,2.7802059650421143
-0.3758367896080017,0.44689270853996277,-0.9600744843482971,0.1567172259092331,0.9706627726554871,2.7842862606048584
-0.37631040811538696,0.4469406306743622,-0.9604387879371643,0.15650054812431335,0.9720855355262756,2.7883551120758057
-0.3767821192741394,0.446992427110672,-0.9607992768287659,0.15628963708877563,0.9734066724777222,2.792109727859497
-0.3772173821926117,0.4470384418964386,-0.9611271619796753,0.1560940444469452,0.9748543500900269,2.7961459159851074
-0.37768715620040894,0.447090208530426,-0.9614895582199097,0.15589463710784912,0.9763020873069763,2.800199508666992
-0.3781569302082062,0.44714197516441345,-0.9618577361106873,0.15569713711738586,0.977749764919281,2.804260730743408
-0.3787168562412262,0.4471956789493561,-0.9623044729232788,0.155451700091362,0.9795234203338623,2.809234619140625
-0.379173219203949,0.44723019003868103,-0.9626592397689819,0.15525420010089874,0.9809615612030029,2.813272714614868
-0.37962573766708374,0.447264701128006,-0.9630139470100403,0.15505285561084747,0.9822980165481567,2.8169851303100586
-0.3801875412464142,0.44730496406555176,-0.9634473323822021,0.1548074185848236,0.9840812683105469,2.8219263553619385
-0.380605548620224,0.4473433196544647,-0.9637790322303772,0.15463101863861084,0.9855194091796875,2.825951099395752
-0.38105425238609314,0.4473835825920105,-0.964137613773346,0.15444502234458923,0.986961305141449,2.8299970626831055
-0.38149526715278625,0.44742000102996826,-0.9644923210144043,0.1542551964521408,0.9884185791015625,2.834033250808716
-0.3819228708744049,0.4474564492702484,-0.9648278951644897,0.15406152606010437,0.9898893237113953,2.8380560874938965
-0.38244059681892395,0.4475043714046478,-0.9652267098426819,0.1538180112838745,0.9916533827781677,2.84298038482666
-0.38285475969314575,0.4475446343421936,-0.9655488729476929,0.15362434089183807,0.9929841160774231,2.846644639968872
-0.3832401633262634,0.4475906789302826,-0.9658652544021606,0.1534690260887146,0.994437575340271,2.8506617546081543
-0.38366392254829407,0.44765394926071167,-0.9662449359893799,0.15334630012512207,0.9958871603012085,2.854726791381836
-0.38418740034103394,0.44773831963539124,-0.9667242765426636,0.15321208536624908,0.9976397156715393,2.8597044944763184
-0.3846111595630646,0.44780734181404114,-0.9671173691749573,0.1531008630990982,0.9990720748901367,2.8637447357177734
-0.3850330114364624,0.44785526394844055,-0.9674816727638245,0.15295705199241638,1.000540852546692,2.8677637577056885
-0.38546061515808105,0.4478859603404999,-0.9678134322166443,0.15278448164463043,1.0018984079360962,2.8714394569396973
-0.3858421742916107,0.447910875082016,-0.96811443567276,0.15262916684150696,1.0033557415008545,2.875439405441284
-0.3862506151199341,0.4479338824748993,-0.9684404134750366,0.15246042609214783,1.0048110485076904,2.8794333934783936
-0.38665327429771423,0.4479549825191498,-0.968768298625946,0.15229745209217072,1.00627601146698,2.8834025859832764
-0.3871345520019531,0.4479818344116211,-0.9691805839538574,0.15209035575389862,1.0080803632736206,2.8883113861083984
-0.38753339648246765,0.4480048418045044,-0.9695180654525757,0.15191970765590668,1.0095338821411133,2.892313003540039
-0.38792648911476135,0.4480297565460205,-0.9698535799980164,0.15174904465675354,1.0108779668807983,2.895996570587158
-0.38840392231941223,0.448058545589447,-0.9702562689781189,0.15153813362121582,1.012670874595642,2.900897741317749
-0.3887471556663513,0.4480815529823303,-0.970553457736969,0.15138857066631317,1.0141472816467285,2.9048726558685303
-0.3891095519065857,0.44810837507247925,-0.9708660244941711,0.15123900771141052,1.0156179666519165,2.9088377952575684
-0.38947388529777527,0.44813522696495056,-0.9711804986000061,0.15109902620315552,1.0170695781707764,2.912828207015991
-0.3899149000644684,0.4481659233570099,-0.9715524911880493,0.15092453360557556,1.0188642740249634,2.917731285095215
-0.39018717408180237,0.4481850862503052,-0.9717787504196167,0.15080372989177704,1.0198862552642822,2.920452117919922
-0.39062052965164185,0.4482138454914093,-0.9721449613571167,0.15060432255268097,1.0216983556747437,2.925305128097534
-0.39094266295433044,0.4482368528842926,-0.9724172949790955,0.1504509150981903,1.0231441259384155,2.929245710372925
-0.39128589630126953,0.4482637047767639,-0.9727163910865784,0.150289848446846,1.0246013402938843,2.933189868927002
-0.3916291296482086,0.44829246401786804,-0.9730212688446045,0.15014603734016418,1.0260854959487915,2.937168598175049
-0.39198195934295654,0.448323130607605,-0.9733338356018066,0.1500099003314972,1.0275639295578003,2.941145420074463
-0.39240187406539917,0.4483576714992523,-0.9737058281898499,0.14983348548412323,1.0293548107147217,2.946021556854248
-0.39274701476097107,0.44838833808898926,-0.9740068316459656,0.1496877670288086,1.030712366104126,2.949676275253296
-0.39306339621543884,0.44841518998146057,-0.97428297996521,0.14954203367233276,1.0321927070617676,2.953612804412842
-0.3934027850627899,0.4484439492225647,-0.9745801687240601,0.14938288927078247,1.0336652994155884,2.957534074783325
-0.3938169777393341,0.44847655296325684,-0.9749521613121033,0.14920072257518768,1.0354619026184082,2.9624083042144775
-0.3941391110420227,0.44849956035614014,-0.975251317024231,0.1490645855665207,1.0369346141815186,2.9663889408111572
-0.39445358514785767,0.4485302269458771,-0.9755600094795227,0.14894185960292816,1.0382959842681885,2.9703755378723145
-0.39477378129959106,0.4485628306865692,-0.9758782982826233,0.14882297813892365,1.039770483970642,2.97406268119812
-0.39516687393188477,0.448599249124527,-0.9762675762176514,0.14868108928203583,1.0415748357772827,2.9789485931396484
-0.39546215534210205,0.4486241936683655,-0.9765532612800598,0.14856795966625214,1.0430397987365723,2.9828813076019287
-0.3957785367965698,0.4486491084098816,-0.9768447279930115,0.14845483005046844,1.0445104837417603,2.986823558807373
-0.39608535170555115,0.4486740529537201,-0.9771323204040527,0.14834745228290558,1.0459870100021362,2.9907658100128174
-0.39638447761535645,0.448700875043869,-0.9774256944656372,0.14824198186397552,1.047459602355957,2.9947121143341064
-0.39668551087379456,0.4487258195877075,-0.9777114391326904,0.1481422781944275,1.0488038063049316,2.9983744621276855
-0.39695972204208374,0.448746919631958,-0.9779741168022156,0.14804640412330627,1.0502763986587524,3.0023436546325684
-0.3973240256309509,0.4487660825252533,-0.9783115983009338,0.14790834486484528,1.052117109298706,3.0072083473205566
-0.3976212441921234,0.44878143072128296,-0.978581964969635,0.14778946340084076,1.0535955429077148,3.011160135269165
-0.397985577583313,0.4488082528114319,-0.9789290428161621,0.14765332639217377,1.055388331413269,3.0160210132598877
-0.398215651512146,0.4488351047039032,-0.9791533350944519,0.14758045971393585,1.0564007759094238,3.019062042236328
-0.39857998490333557,0.448875367641449,-0.9795234203338623,0.14746348559856415,1.0583393573760986,3.0239670276641846
-0.3988810181617737,0.4489041268825531,-0.9798206686973572,0.1473599523305893,1.0596892833709717,3.0276505947113037
-0.39915522933006287,0.4489233195781708,-0.9800929427146912,0.14725257456302643,1.0611485242843628,3.031623601913452
-0.39944666624069214,0.44894248247146606,-0.9803786277770996,0.14713560044765472,1.062626838684082,3.0355753898620605
-0.3997342884540558,0.44896358251571655,-0.9806604981422424,0.14703397452831268,1.0641167163848877,3.0395331382751465
-0.4000852108001709,0.4489923417568207,-0.9810171723365784,0.1469246745109558,1.0659267902374268,3.0444188117980957
-0.4003613293170929,0.4490230083465576,-0.9813105463981628,0.14684797823429108,1.0672709941864014,3.048405170440674
-0.40062975883483887,0.44905370473861694,-0.9815770387649536,0.14677895605564117,1.0687416791915894,3.0520694255828857
-0.40088096261024475,0.44907861948013306,-0.9818665981292725,0.14670608937740326,1.070216178894043,3.0560386180877686
-0.4012184143066406,0.4491150677204132,-0.9822155833244324,0.14660829305648804,1.0720224380493164,3.0609185695648193
-0.4014887809753418,0.4491419196128845,-0.982499361038208,0.1465315967798233,1.0734854936599731,3.064880132675171
-0.40175914764404297,0.44917067885398865,-0.9827869534492493,0.14645682275295258,1.0749485492706299,3.068855047225952
-0.40202951431274414,0.4492032527923584,-0.9830707907676697,0.14638586342334747,1.0763118267059326,3.072814702987671
-0.40235739946365356,0.44923776388168335,-0.9834120869636536,0.14630533754825592,1.078244686126709,3.077702283859253
-0.4026181995868683,0.44926655292510986,-0.9836613535881042,0.146230548620224,1.0795888900756836,3.081355094909668
-0.4028540253639221,0.4492933750152588,-0.983927845954895,0.14615577459335327,1.0810461044311523,3.0853071212768555
-0.40311482548713684,0.4493221342563629,-0.9841963052749634,0.14608673751354218,1.0825167894363403,3.0892763137817383
-0.4033755958080292,0.44935858249664307,-0.984470546245575,0.1460253894329071,1.0839914083480835,3.0932531356811523
-0.4037053883075714,0.4494084417819977,-0.9848214387893677,0.14596977829933167,1.0857669115066528,3.0981369018554688
-0.40397384762763977,0.44944870471954346,-0.9851071238517761,0.14592184126377106,1.0872164964675903,3.102123260498047
-0.4042365252971649,0.4494832158088684,-0.9853602051734924,0.1458643227815628,1.0885875225067139,3.1058106422424316
-0.40448197722435,0.4495081305503845,-0.9856305718421936,0.14581254124641418,1.0900754928588867,3.1097779273986816
-0.4048060178756714,0.4495445787906647,-0.985966145992279,0.1457454264163971,1.0918625593185425,3.114684820175171
-0.40507638454437256,0.4495790898799896,-0.9862537980079651,0.1457013338804245,1.093317985534668,3.1186883449554443
-0.4053448438644409,0.4496174454689026,-0.986545205116272,0.14566297829151154,1.094788670539856,3.1226978302001953
-0.4056132733821869,0.44965386390686035,-0.9868290424346924,0.14562463760375977,1.096247911453247,3.1267263889312744
-0.40587788820266724,0.4496845602989197,-0.9870878458023071,0.14557860791683197,1.097582459449768,3.130427122116089
-0.4061214029788971,0.4497094750404358,-0.9873678088188171,0.14553259313106537,1.0990320444107056,3.1343963146209717
-0.40643778443336487,0.44974592328071594,-0.9877071976661682,0.1454693228006363,1.1008344888687134,3.1393070220947266
-0.40669283270835876,0.44978809356689453,-0.9879910349845886,0.1454252153635025,1.102293610572815,3.1433145999908447
-0.40694400668144226,0.44983410835266113,-0.9882863163948059,0.14539070427417755,1.1037452220916748,3.1473124027252197
-0.4072584807872772,0.4498916268348694,-0.9886410236358643,0.1453542709350586,1.1055227518081665,3.152251958847046
-0.40745407342910767,0.44992807507514954,-0.9888346791267395,0.14532741904258728,1.1065198183059692,3.1550283432006836
-0.4077666103839874,0.44997408986091614,-0.9891740679740906,0.14527757465839386,1.1083106994628906,3.1599504947662354
-0.40800052881240845,0.44999900460243225,-0.9894387125968933,0.14522771537303925,1.1097661256790161,3.163944721221924
-0.408267080783844,0.4500181972980499,-0.9896937012672424,0.145168274641037,1.1112079620361328,3.167919635772705
-0.40853360295295715,0.4500335454940796,-0.9899449348449707,0.14511649310588837,1.1126537322998047,3.1718714237213135
-0.40885382890701294,0.4500584602355957,-0.9902670383453369,0.14505130052566528,1.1144580841064453,3.1767935752868652
-0.4091126620769501,0.45008912682533264,-0.9905374050140381,0.14500145614147186,1.1158061027526855,3.1808204650878906
-0.40936195850372314,0.4501217305660248,-0.9907885789871216,0.14495351910591125,1.1172404289245605,3.184530735015869
-0.40959012508392334,0.4501504898071289,-0.9910589456558228,0.14490558207035065,1.1186784505844116,3.1885554790496826
-0.40982213616371155,0.4501754343509674,-0.9913139939308167,0.14482121169567108,1.1201434135437012,3.192549467086792
-0.41004839539527893,0.4501965045928955,-0.9915575385093689,0.14472149312496185,1.1216140985488892,3.1965224742889404
-0.41028615832328796,0.450221449136734,-0.9918106198310852,0.14463138580322266,1.1229525804519653,3.2005455493927
-0.41058528423309326,0.4502636194229126,-0.9921404123306274,0.14454509317874908,1.124724268913269,3.2055137157440186
-0.41083264350891113,0.4503058195114136,-0.992399275302887,0.14448948204517365,1.126185417175293,3.2092506885528564
-0.4110608398914337,0.45034223794937134,-0.9926754236221313,0.14444729685783386,1.1276427507400513,3.21331787109375
-0.4113062620162964,0.4503786861896515,-0.992951512336731,0.14439360797405243,1.129084587097168,3.2173731327056885
-0.41155171394348145,0.4504074454307556,-0.9932141900062561,0.14433033764362335,1.1305304765701294,3.221409559249878
-0.41184699535369873,0.45044195652008057,-0.9935286641120911,0.1442497968673706,1.1323232650756836,3.226362466812134
-0.41208475828170776,0.45048031210899353,-0.9937971234321594,0.14418460428714752,1.1336654424667358,3.2303755283355713
-0.41231870651245117,0.4505224823951721,-0.9940540790557861,0.14412708580493927,1.1351016759872437,3.2340590953826904
-0.41253727674484253,0.4505627453327179,-0.9943320751190186,0.14407722651958466,1.1365360021591187,3.2380876541137695
-0.41277697682380676,0.4506087601184845,-0.9946178197860718,0.14403121173381805,1.1379683017730713,3.2421183586120605
-0.4130780100822449,0.45066821575164795,-0.9949802160263062,0.14398135244846344,1.1397515535354614,3.247065305709839
-0.4133177101612091,0.45071423053741455,-0.9952735900878906,0.14393149316310883,1.1411992311477661,3.251091957092285
-0.41355931758880615,0.45076024532318115,-0.9955592751502991,0.14387205243110657,1.1425204277038574,3.2550995349884033
-0.413802832365036,0.45080626010894775,-0.9958181381225586,0.14381453394889832,1.143943190574646,3.2588021755218506
-0.41410771012306213,0.4508638083934784,-0.9961613416671753,0.14375126361846924,1.1457148790359497,3.2637531757354736
-0.41433778405189514,0.450905978679657,-0.9964298009872437,0.14370715618133545,1.147156834602356,3.2677969932556152
-0.4145870804786682,0.4509519934654236,-0.9967020750045776,0.14365729689598083,1.148573875427246,3.2718505859375
-0.4148325026035309,0.4509999454021454,-0.996978223323822,0.14360745251178741,1.1499966382980347,3.275934934616089
-0.41512203216552734,0.4510478675365448,-0.9973137974739075,0.14353841543197632,1.1517798900604248,3.280927896499634
-0.41535982489585876,0.4510900676250458,-0.9975917935371399,0.1434866487979889,1.1531144380569458,3.2849833965301514
-0.4155994951725006,0.45113223791122437,-0.9978583455085754,0.14343295991420746,1.154531478881836,3.288745403289795
-0.41582190990448,0.45117634534835815,-0.9981459379196167,0.14338885247707367,1.1559542417526245,3.2928028106689453
-0.4160558581352234,0.45122429728507996,-0.9984316825866699,0.1433505117893219,1.1573961973190308,3.2968640327453613
-0.4162917137145996,0.45127221941947937,-0.9987115859985352,0.14331215620040894,1.158832311630249,3.300950288772583
-0.41657933592796326,0.4513239860534668,-0.9990567564964294,0.1432584673166275,1.1605792045593262,3.305953025817871
-0.4168151915073395,0.4513700008392334,-0.9993329048156738,0.1432143598794937,1.1618945598602295,3.310004472732544
-0.41705676913261414,0.4514179527759552,-0.9995898008346558,0.1431664228439331,1.1633307933807373,3.313764810562134
-0.4172811210155487,0.451462060213089,-0.9998793601989746,0.1431204080581665,1.1647669076919556,3.3178162574768066
-0.4175744950771332,0.45152148604393005,-1.0002474784851074,0.14306096732616425,1.1665157079696655,3.3227884769439697
-0.4178141951560974,0.45156943798065186,-1.0005524158477783,0.14301110804080963,1.1679308414459229,3.326845645904541
-0.41805195808410645,0.45161545276641846,-1.0008630752563477,0.1429574191570282,1.1693382263183594,3.330906867980957
-0.41828396916389465,0.45166531205177307,-1.0011698007583618,0.14289414882659912,1.1706535816192627,3.334947109222412
-0.41851407289505005,0.4517132341861725,-1.0014517307281494,0.14282703399658203,1.172080159187317,3.338697671890259
-0.4187268912792206,0.4517611861228943,-1.0017489194869995,0.14276567101478577,1.1734952926635742,3.342747449874878
-0.41895508766174316,0.4518129527568817,-1.0020461082458496,0.14269280433654785,1.1749026775360107,3.3467912673950195
-0.41923120617866516,0.451874315738678,-1.002397060394287,0.142589271068573,1.1766552925109863,3.351749897003174
-0.41945937275886536,0.4519241750240326,-1.002680778503418,0.1424991488456726,1.1780972480773926,3.3557517528533936
-0.41968563199043274,0.45197594165802,-1.0029665231704712,0.14241477847099304,1.1794087886810303,3.3597495555877686
-0.4199118912220001,0.45202961564064026,-1.0032330751419067,0.14234191179275513,1.1808085441589355,3.3634772300720215
-0.4201880097389221,0.4521044194698334,-1.0036011934280396,0.1422632932662964,1.182547688484192,3.368453025817871
-0.4203912615776062,0.4521619379520416,-1.0039021968841553,0.14220960438251495,1.1839781999588013,3.372493267059326
-0.4206175208091736,0.4522233009338379,-1.0041993856430054,0.14214633405208588,1.1853817701339722,3.3765389919281006
-0.42084187269210815,0.45228081941604614,-1.0044946670532227,0.14206579327583313,1.1867834329605103,3.3805580139160156
-0.42111989855766296,0.45235174894332886,-1.0048590898513794,0.14195841550827026,1.1885321140289307,3.385486125946045
-0.4213384985923767,0.4524054527282715,-1.0051543712615967,0.14186637103557587,1.1898552179336548,3.3892135620117188
-0.42155325412750244,0.45246681571006775,-1.0054285526275635,0.14177817106246948,1.191272258758545,3.3932478427886963
-0.4217526912689209,0.4525262415409088,-1.0057392120361328,0.14170339703559875,1.1926796436309814,3.3972766399383545
-0.4219636023044586,0.4525914490222931,-1.0060516595840454,0.14161327481269836,1.1940947771072388,3.4013242721557617
-0.42222052812576294,0.45267581939697266,-1.0064467191696167,0.14150205254554749,1.1958281993865967,3.4062886238098145
-0.422423779964447,0.45274674892425537,-1.0067707300186157,0.14140617847442627,1.1972355842590332,3.410323143005371
-0.42263472080230713,0.45281580090522766,-1.00709867477417,0.14131605625152588,1.198529839515686,3.41438627243042
-0.42284563183784485,0.45288482308387756,-1.0073996782302856,0.1412317007780075,1.199933409690857,3.418121337890625
-0.42310258746147156,0.45296725630760193,-1.007794737815857,0.14112240076065063,1.201664924621582,3.4231011867523193
-0.4232962429523468,0.4530267119407654,-1.008101463317871,0.14103610813617706,1.203083872795105,3.4271509647369385
-0.4235033392906189,0.4530957341194153,-1.008406400680542,0.14093832671642303,1.2044951915740967,3.4311928749084473
-0.4237123429775238,0.4531666934490204,-1.0087189674377441,0.140836700797081,1.205889105796814,3.4352080821990967
-0.4239213466644287,0.4532318711280823,-1.0090218782424927,0.14072930812835693,1.2071795463562012,3.438918352127075
-0.4241706132888794,0.45331433415412903,-1.0093880891799927,0.14058934152126312,1.2089226245880127,3.443859815597534
-0.42437195777893066,0.45338335633277893,-1.0096622705459595,0.1404704600572586,1.2103300094604492,3.447859525680542
-0.42455795407295227,0.4534485638141632,-1.0099672079086304,0.14036883413791656,1.2117124795913696,3.451892137527466
-0.42476120591163635,0.4535214304924011,-1.0102778673171997,0.1402614563703537,1.2131065130233765,3.455920696258545
-0.42501431703567505,0.4536096155643463,-1.0106689929962158,0.14013105630874634,1.214853286743164,3.4608850479125977
-0.42517152428627014,0.45366331934928894,-1.0109182596206665,0.14005053043365479,1.2158293724060059,3.4636826515197754
-0.425418883562088,0.45375534892082214,-1.0113247632980347,0.13992014527320862,1.2175358533859253,3.4686355590820312
-0.42561447620391846,0.45383012294769287,-1.011635422706604,0.1398204267024994,1.2189260721206665,3.472658395767212
-0.42579472064971924,0.453901082277298,-1.011976718902588,0.139734148979187,1.2203277349472046,3.4766945838928223
-0.4259903132915497,0.4539777934551239,-1.012316107749939,0.13965170085430145,1.221725583076477,3.4807116985321045
-0.4262414872646332,0.4540698230266571,-1.0127360820770264,0.13955198228359222,1.223416805267334,3.4856607913970947
-0.42644283175468445,0.45414650440216064,-1.0130773782730103,0.13946761190891266,1.2247954607009888,3.4896912574768066
-0.42664414644241333,0.45422130823135376,-1.0134186744689941,0.13937748968601227,1.2260820865631104,3.4934208393096924
-0.4268435835838318,0.4542979896068573,-1.0137312412261963,0.13928736746311188,1.2274761199951172,3.497436046600342
-0.4270314872264862,0.4543689489364624,-1.0140647888183594,0.13921067118644714,1.2288624048233032,3.501462697982788
-0.4272328317165375,0.4544552266597748,-1.014398455619812,0.13912247121334076,1.2302372455596924,3.5054969787597656
-0.42747825384140015,0.45456069707870483,-1.0148087739944458,0.1390170156955719,1.2319360971450806,3.5104784965515137
-0.4276738464832306,0.4546393156051636,-1.0151329040527344,0.13893647491931915,1.2333166599273682,3.5145456790924072
-0.42786943912506104,0.45472174882888794,-1.0154531002044678,0.1388521045446396,1.2345956563949585,3.5182807445526123
-0.4280669391155243,0.4548003673553467,-1.0157464742660522,0.1387600600719452,1.235976219177246,3.5223114490509033
-0.4282509982585907,0.4548732340335846,-1.0160666704177856,0.138668030500412,1.2373453378677368,3.526345729827881
-0.4284868538379669,0.4549614489078522,-1.0164501667022705,0.13854147493839264,1.2390327453613281,3.531306266784668
-0.42865559458732605,0.4550113081932068,-1.0167531967163086,0.1384187489748001,1.240420937538147,3.53535795211792
-0.42881664633750916,0.4550534784793854,-1.017046570777893,0.1383037120103836,1.2417881488800049,3.539430618286133
-0.4289853870868683,0.45511099696159363,-1.0173590183258057,0.1382097452878952,1.2430306673049927,3.54316782951355
-0.42921164631843567,0.45520496368408203,-1.0177751779556274,0.13811196386814117,1.244712233543396,3.5481417179107666
-0.4294072389602661,0.4552931785583496,-1.0180915594100952,0.13803717494010925,1.2461005449295044,3.552197217941284
-0.4295913279056549,0.455379456281662,-1.0184366703033447,0.13796815276145935,1.247481107711792,3.5562353134155273
-0.429794579744339,0.4554695785045624,-1.0187838077545166,0.13789720833301544,1.2488348484039307,3.5602619647979736
-0.4299997389316559,0.4555635452270508,-1.0191346406936646,0.13783201575279236,1.2502001523971558,3.5643041133880615
-0.43025094270706177,0.45566898584365845,-1.0195679664611816,0.13775339722633362,1.2519104480743408,3.569289445877075
-0.43045225739479065,0.455753356218338,-1.0199151039123535,0.13769011199474335,1.2531837224960327,3.573026657104492
-0.4306516945362091,0.4558396339416504,-1.0202314853668213,0.13762684166431427,1.2545489072799683,3.5770955085754395
-0.4308280944824219,0.45592209696769714,-1.0205650329589844,0.137563556432724,1.2559064626693726,3.5811567306518555
-0.4310198426246643,0.4560103118419647,-1.0208910703659058,0.13750028610229492,1.2572736740112305,3.5852160453796387
-0.43121543526649475,0.4560984969139099,-1.021228551864624,0.13743892312049866,1.258638858795166,3.58929443359375
-0.4314570128917694,0.456207811832428,-1.0216445922851562,0.13736990094184875,1.2603167295455933,3.5943164825439453
-0.43165645003318787,0.45629793405532837,-1.0219898223876953,0.13731621205806732,1.2615649700164795,3.598097562789917
-0.4318520128726959,0.4563784599304199,-1.022300362586975,0.13726060092449188,1.2629225254058838,3.6021838188171387
-0.4320303499698639,0.4564666748046875,-1.0226359367370605,0.13721074163913727,1.264285922050476,3.6062450408935547
-0.4322623610496521,0.45657211542129517,-1.0230520963668823,0.13713404536247253,1.2659674882888794,3.6112284660339355
-0.4324502646923065,0.45665842294692993,-1.0233895778656006,0.13707268238067627,1.2673269510269165,3.615283966064453
-0.4326381981372833,0.45675045251846313,-1.0237308740615845,0.13701899349689484,1.2686614990234375,3.6193490028381348
-0.43283185362815857,0.45684632658958435,-1.0240740776062012,0.13697680830955505,1.2698925733566284,3.62310528755188
-0.4330255091190338,0.45693454146385193,-1.0243923664093018,0.1369403749704361,1.271246314048767,3.627197265625
-0.43319809436798096,0.4570227265357971,-1.0247317552566528,0.13690011203289032,1.2726038694381714,3.6312854290008545
-0.43342819809913635,0.45712435245513916,-1.0251479148864746,0.13683491945266724,1.2742414474487305,3.636305332183838
-0.43361419439315796,0.45721256732940674,-1.0254892110824585,0.13677740097045898,1.275579810142517,3.6403894424438477
-0.43379634618759155,0.4572892487049103,-1.0258246660232544,0.1367141157388687,1.2769430875778198,3.6444525718688965
-0.43402451276779175,0.45739471912384033,-1.0262484550476074,0.13663166761398315,1.2786247730255127,3.649441957473755
-0.43421244621276855,0.4574848413467407,-1.026599407196045,0.1365741491317749,1.2798596620559692,3.6531944274902344
-0.4344061017036438,0.4575711190700531,-1.0269311666488647,0.1365300416946411,1.2811864614486694,3.6572632789611816
-0.4345882534980774,0.4576669931411743,-1.027295470237732,0.13649936020374298,1.2825325727462769,3.6613495349884033
-0.43478575348854065,0.45776286721229553,-1.0276597738265991,0.13647252321243286,1.283880591392517,3.665454864501953
-0.4349775016307831,0.45786067843437195,-1.028010606765747,0.13644184172153473,1.2852094173431396,3.66953706741333
-0.4351673424243927,0.45795655250549316,-1.028357744216919,0.13640157878398895,1.2864327430725098,3.6732800006866455
-0.4354031980037689,0.4580734968185425,-1.0287814140319824,0.13635364174842834,1.2880760431289673,3.6782941818237305
-0.43559685349464417,0.45816361904144287,-1.0291074514389038,0.13633061945438385,1.2894182205200195,3.6823744773864746
-0.43577709794044495,0.4582614302635193,-1.0294660329818726,0.1363172084093094,1.290764331817627,3.6864492893218994
-0.4359745979309082,0.4583592116832733,-1.0298227071762085,0.13630186021327972,1.2920892238616943,3.6905622482299805
-0.43621620535850525,0.45847809314727783,-1.0302598476409912,0.13628268241882324,1.2937268018722534,3.695620536804199
-0.4364079535007477,0.4585663080215454,-1.0306107997894287,0.13625776767730713,1.2950499057769775,3.6996893882751465
-0.43660351634025574,0.4586525857448578,-1.030957818031311,0.13621748983860016,1.2962827682495117,3.703463077545166
-0.43679720163345337,0.4587292969226837,-1.0312799215316772,0.13617530465126038,1.2976173162460327,3.707524299621582
-0.4370349645614624,0.4588385820388794,-1.031707525253296,0.1361369639635086,1.2992395162582397,3.7125325202941895
-0.4372152090072632,0.4589306116104126,-1.0320756435394287,0.13612161576747894,1.3005491495132446,3.7166457176208496
-0.43741270899772644,0.4590264856815338,-1.0324496030807495,0.1361120343208313,1.3018646240234375,3.720777750015259
-0.4376102089881897,0.45912235975265503,-1.032821536064148,0.13610436022281647,1.3032068014144897,3.72491192817688
-0.43780770897865295,0.4592124819755554,-1.0331820249557495,0.13609860837459564,1.3044339418411255,3.728750705718994
-0.4380033016204834,0.459293007850647,-1.0335099697113037,0.13609477877616882,1.3057397603988647,3.732875108718872
-0.4382372200489044,0.4593946635723114,-1.0339337587356567,0.13607752323150635,1.307360053062439,3.7379276752471924
-0.4384136199951172,0.4594790041446686,-1.0342750549316406,0.1360640972852707,1.3086907863616943,3.742023468017578
-0.43860921263694763,0.45957106351852417,-1.0346144437789917,0.13605451583862305,1.3100234270095825,3.7461307048797607
-0.4388067126274109,0.4596630930900574,-1.0349652767181396,0.13605451583862305,1.3113235235214233,3.7502379417419434
-0.43905022740364075,0.4597800672054291,-1.035402536392212,0.13605451583862305,1.3129246234893799,3.755317211151123
-0.4392036199569702,0.45983949303627014,-1.0356460809707642,0.13605451583862305,1.3138411045074463,3.7581512928009033
-0.4394490718841553,0.45993921160697937,-1.0360736846923828,0.13605451583862305,1.3154767751693726,3.76315975189209
-0.4396350681781769,0.4600178301334381,-1.0364207029342651,0.13605259358882904,1.3167921304702759,3.767241954803467
-0.43983447551727295,0.4601041078567505,-1.0367735624313354,0.13605259358882904,1.3180902004241943,3.7713301181793213
-0.4400358200073242,0.4601980745792389,-1.0371378660202026,0.13605067133903503,1.3193998336791992,3.7754008769989014
-0.4402333199977875,0.4602958559989929,-1.0375040769577026,0.13604874908924103,1.320605993270874,3.7791590690612793
-0.44048067927360535,0.4604109227657318,-1.0379661321640015,0.13603724539279938,1.3222185373306274,3.7841734886169434
-0.44068199396133423,0.46049144864082336,-1.0383094549179077,0.13600657880306244,1.3235167264938354,3.788205862045288
-0.44087374210357666,0.46057388186454773,-1.0386813879013062,0.13597014546394348,1.324814796447754,3.792247772216797
-0.44107893109321594,0.4606620967388153,-1.039049506187439,0.1359298676252365,1.3261148929595947,3.7962841987609863
-0.44133394956588745,0.4607733190059662,-1.0395078659057617,0.13589152693748474,1.327717900276184,3.8012428283691406
-0.44154295325279236,0.4608615040779114,-1.0398664474487305,0.1358570158481598,1.3290237188339233,3.805269479751587
-0.44175195693969727,0.46094781160354614,-1.0402172803878784,0.13580715656280518,1.3302221298217773,3.8089911937713623
-0.4419686198234558,0.4610264301300049,-1.0405393838882446,0.13575346767902374,1.3315068483352661,3.812991142272949
-0.4421757161617279,0.46111080050468445,-1.0408941507339478,0.1356959342956543,1.332789659500122,3.816992998123169
-0.4424038827419281,0.46120283007621765,-1.0412489175796509,0.13564033806324005,1.3340896368026733,3.8209850788116455
-0.4426857531070709,0.46131980419158936,-1.0416898727416992,0.13557705283164978,1.335679292678833,3.8258938789367676
-0.4429139494895935,0.46140608191490173,-1.0420522689819336,0.13552336394786835,1.3369505405426025,3.829920530319214
-0.4431383013725281,0.4614904522895813,-1.0424185991287231,0.1354658454656601,1.3381240367889404,3.833655834197998
-0.44336456060409546,0.46157291531562805,-1.0427675247192383,0.1354179084300995,1.3394144773483276,3.837676763534546
-0.44356971979141235,0.46166494488716125,-1.0431548357009888,0.13537955284118652,1.3407126665115356,3.8417224884033203
-0.44384583830833435,0.46177423000335693,-1.0436265468597412,0.1353258639574051,1.342284917831421,3.846696615219116
-0.4440682530403137,0.4618624448776245,-1.0440043210983276,0.13526834547519684,1.3435466289520264,3.8507137298583984
-0.4442945122718811,0.46194297075271606,-1.0443859100341797,0.13520315289497375,1.3448294401168823,3.854736566543579
-0.4445188641548157,0.46202734112739563,-1.0447713136672974,0.13513796031475067,1.3460183143615723,3.858431577682495
-0.4447988271713257,0.4621347188949585,-1.0452468395233154,0.1350516676902771,1.3475944995880127,3.863342046737671
-0.4450269937515259,0.46221718192100525,-1.0456054210662842,0.13497880101203918,1.348852276802063,3.8673362731933594
-0.44523024559020996,0.4623034596443176,-1.0459870100021362,0.13490977883338928,1.350117802619934,3.8713302612304688
-0.44545459747314453,0.4623859226703644,-1.046355128288269,0.13482540845870972,1.3513967990875244,3.87530517578125
-0.4457288086414337,0.4624817967414856,-1.0467922687530518,0.13471610844135284,1.3529863357543945,3.880204439163208
-0.44590330123901367,0.46253737807273865,-1.0470646619796753,0.13464324176311493,1.3538799285888672,3.8829405307769775
-0.4461813271045685,0.46262750029563904,-1.0475056171417236,0.13450902700424194,1.3554542064666748,3.8877766132354736
-0.44633471965789795,0.46268120408058167,-1.0477567911148071,0.13442273437976837,1.3564320802688599,3.890810012817383
-0.4465993344783783,0.4627770781517029,-1.0482170581817627,0.13427700102329254,1.3579890727996826,3.8956477642059326
-0.44682174921035767,0.46285760402679443,-1.0486024618148804,0.1341753751039505,1.3592565059661865,3.89959979057312
-0.4471017122268677,0.46295541524887085,-1.0490837097167969,0.13405266404151917,1.360817313194275,3.9044930934906006
-0.44732987880706787,0.4630301892757416,-1.0494556427001953,0.1339452862739563,1.3620848655700684,3.9084527492523193
-0.4475427269935608,0.46309536695480347,-1.0498161315917969,0.13382640480995178,1.3632525205612183,3.9121170043945312
-0.44775938987731934,0.4631548225879669,-1.0501421689987183,0.13369792699813843,1.364543080329895,3.916066884994507
-0.4479549825191498,0.46321234107017517,-1.0504950284957886,0.13357137143611908,1.3658546209335327,3.9199976921081543
-0.4481697380542755,0.4632698595523834,-1.050851583480835,0.13342756032943726,1.3671488761901855,3.923926591873169
-0.44838833808898926,0.4633331298828125,-1.051223635673523,0.13328567147254944,1.3684163093566895,3.9278671741485596
-0.44866061210632324,0.46341559290885925,-1.0516934394836426,0.13312268257141113,1.369965672492981,3.9326953887939453
