Der-mark/objtrans/data/sim/qtarget_trajectory.csv
q0,q1,q2,q3,q4,q5
0.0,0.0,0.0,0.0,0.0,0.0
0.004,0.004,-0.004,-0.004,-0.004,0.004
0.008,0.008,-0.008,-0.008,-0.008,0.0
0.012,0.012,-0.012,-0.012,-0.012,-0.004
0.016,0.016,-0.016,-0.016,-0.016,-0.008
0.020000001,0.020000001,-0.020000001,-0.020000001,-0.020000001,-0.012
0.024000002,0.024000002,-0.024000002,-0.024000002,-0.024000002,-0.016
0.028000003,0.028000003,-0.028000003,-0.028000003,-0.028000003,-0.020000001
0.032,0.032,-0.032,-0.032,-0.032,-0.024000002
0.036000002,0.036000002,-0.036000002,-0.036000002,-0.036000002,-0.028000003
0.040000003,0.040000003,-0.040000003,-0.040000003,-0.040000003,-0.032
0.044000003,0.044000003,-0.044000003,-0.044000003,-0.044000003,-0.036000002
0.048000004,0.048000004,-0.048000004,-0.048000004,-0.048000004,-0.03806046
0.052000005,0.052000005,-0.052000005,-0.052000005,-0.052000005,-0.03480841
0.056000005,0.056000005,-0.056000005,-0.056000005,-0.056000005,-0.03172099
0.060000006,0.054711957,-0.060000006,-0.060000006,-0.060000006,-0.02864191
0.064,0.058711957,-0.064,-0.064,-0.064,-0.029471679
0.068,0.05583551,-0.068,-0.068,-0.068,-0.026928304
0.072000004,0.059835512,-0.072000004,-0.072000004,-0.072000004,-0.029120004
0.076000005,0.061883617,-0.076000005,-0.076000005,-0.076000005,-0.026834462
0.080000006,0.06127411,-0.080000006,-0.080000006,-0.080000006,-0.025516061
0.08400001,0.06527411,-0.08400001,-0.08400001,-0.08400001,-0.026274148
0.08800001,0.06349131,-0.08800001,-0.08800001,-0.08800001,-0.023906065
0.09200001,0.06749131,-0.09200001,-0.09200001,-0.09200001,-0.025536591
0.09600001,0.068792276,-0.09600001,-0.09600001,-0.09600001,-0.023347175
0.10000001,0.07054164,-0.10000001,-0.10000001,-0.10000001,-0.02279268
0.10400001,0.07218254,-0.10400001,-0.10400001,-0.10400001,-0.022100847
0.10800001,0.0742311,-0.10800001,-0.10800001,-0.10800001,-0.021535778
0.11200001,0.0756924,-0.11200001,-0.11200001,-0.11200001,-0.020745127
0.11600001,0.07846804,-0.11600001,-0.11600001,-0.11600001,-0.020444607
0.12000001,0.078934774,-0.12000001,-0.12000001,-0.12000001,-0.01927784
0.12400001,0.082934774,-0.12400001,-0.12400001,-0.12400001,-0.019824138
0.128,0.08285612,-0.128,-0.128,-0.128,-0.017978735
0.132,0.08685612,-0.132,-0.132,-0.132,-0.019041514
0.13599999,0.08889344,-0.13599999,-0.13599999,-0.13599999,-0.017460812
0.13999999,0.09151778,-0.13999999,-0.13999999,-0.13999999,-0.017160833
0.14399998,0.09355841,-0.14399998,-0.14399998,-0.14399998,-0.016610662
0.14799997,0.096925616,-0.14799997,-0.14799997,-0.14799997,-0.01655092
0.15199997,0.09783618,-0.15199997,-0.15199997,-0.15199997,-0.015638692
0.15599996,0.10183618,-0.15599996,-0.15599996,-0.15599996,-0.016508568
0.15999995,0.10398809,-0.15999995,-0.15999995,-0.15999995,-0.0153922215
0.16399994,0.10730349,-0.16399994,-0.16399994,-0.16399994,-0.015503376
0.16248514,0.10874573,-0.16799994,-0.16799994,-0.16799994,-0.014966005
0.15970139,0.11245196,-0.17199993,-0.17199993,-0.17199993,-0.014725058
0.1593353,0.11138325,-0.17599992,-0.17599992,-0.17599992,-0.0128454985
0.1553353,0.11538325,-0.17999992,-0.17999992,-0.17999992,-0.014835593
0.15639377,0.1190691,-0.18399991,-0.18399991,-0.18399991,-0.01299006
0.15239377,0.11797104,-0.1879999,-0.1879999,-0.1879999,-0.012085429
0.15153247,0.12197104,-0.1919999,-0.1919999,-0.1919999,-0.0138055105
0.14862023,0.12501822,-0.1879999,-0.19599989,-0.19599989,-0.012956147
0.14733844,0.12101822,-0.18559432,-0.19999988,-0.19999988,-0.012410524
0.14333844,0.12501822,-0.18159433,-0.20399988,-0.20399988,-0.016410524
0.14332204,0.12101822,-0.17967033,-0.20799987,-0.20799987,-0.0155023085
0.13932204,0.12501822,-0.17567034,-0.21199986,-0.20927373,-0.019502308
0.1377273,0.12101822,-0.17493407,-0.21599986,-0.21219388,-0.01857534
0.13449849,0.12501822,-0.17093408,-0.21999985,-0.20819388,-0.022575341
0.13376102,0.12101822,-0.16917448,-0.22399984,-0.21182843,-0.01993531
0.12976103,0.12291479,-0.16517448,-0.22799984,-0.20782843,-0.02393531
0.12967725,0.11891479,-0.16432697,-0.23199983,-0.20989417,-0.02387747
0.12567726,0.12291479,-0.16032697,-0.23599982,-0.20589417,-0.02787747
0.12501262,0.11891479,-0.15932067,-0.23999982,-0.20989417,-0.026172409
0.12101262,0.11904802,-0.15532067,-0.24399981,-0.20589417,-0.03017241
0.12037853,0.11527907,-0.15132068,-0.2474015,-0.20612743,-0.032042544
0.11637853,0.11127907,-0.14834724,-0.24340151,-0.20428984,-0.032003578
0.116955556,0.11527907,-0.14513895,-0.23940152,-0.20069206,-0.03600358
0.112955555,0.11127907,-0.14118369,-0.23540153,-0.20244825,-0.037006084
0.11389618,0.1124164,-0.1401996,-0.23140153,-0.19844826,-0.041006085
0.11014634,0.10949725,-0.13833962,-0.22740154,-0.19839683,-0.04411019
0.112553515,0.11349725,-0.13433963,-0.22340155,-0.19439684,-0.04811019
0.108553514,0.10949725,-0.13079022,-0.21940155,-0.19640027,-0.050910484
0.10911653,0.10869018,-0.12946373,-0.21540156,-0.19240028,-0.054910485
0.10650136,0.11017368,-0.1273892,-0.21140157,-0.19097812,-0.058910485
0.10643619,0.10617368,-0.12743607,-0.20740157,-0.19210349,-0.058058955
0.10456734,0.109431855,-0.12343607,-0.20340158,-0.1881035,-0.062058955
0.10542935,0.105431855,-0.122866586,-0.19940159,-0.18848194,-0.06588855
0.10142935,0.106302105,-0.118866585,-0.1954016,-0.18448195,-0.06988855
0.10487379,0.102302104,-0.117186606,-0.1914016,-0.1844918,-0.07388855
0.10087379,0.106302105,-0.113642156,-0.18740161,-0.1804918,-0.07788855
0.099569194,0.102302104,-0.1153345,-0.18340161,-0.18279299,-0.08031815
0.10018034,0.10479661,-0.1113345,-0.17940162,-0.178793,-0.08431815
0.096342616,0.10079661,-0.11019112,-0.17540163,-0.17737205,-0.088318154
0.10034262,0.10114559,-0.10619112,-0.17140163,-0.17337206,-0.092318155
0.096342616,0.09790206,-0.10660215,-0.16740164,-0.1719316,-0.096318156
0.096149586,0.10190206,-0.10260215,-0.16340165,-0.1679316,-0.100318156
0.09488132,0.09790206,-0.10496067,-0.15940166,-0.1719316,-0.10431816
0.09589591,0.098108426,-0.10096067,-0.15540166,-0.1679316,-0.10831816
0.09189591,0.09440287,-0.0996228,-0.15140167,-0.16393161,-0.11231816
0.09589591,0.09601959,-0.096192405,-0.14740168,-0.15993161,-0.11631816
0.09189591,0.09201959,-0.100192405,-0.14340168,-0.15593162,-0.117649615
0.08789591,0.08801959,-0.096192405,-0.13940169,-0.15193163,-0.121649615
0.09189591,0.09201959,-0.092192404,-0.1354017,-0.14793164,-0.12564962
0.08789591,0.08801959,-0.09153489,-0.1314017,-0.14782767,-0.12964961
0.08863468,0.08401959,-0.09416383,-0.12740171,-0.14382768,-0.1336496
0.0907185,0.08801959,-0.09016383,-0.12340171,-0.13982768,-0.1376496
0.0867185,0.087661795,-0.08751791,-0.11940171,-0.13582769,-0.13962899
0.08271871,0.08616707,-0.0881648,-0.11540171,-0.1318277,-0.14137952
0.08421632,0.08216707,-0.08762896,-0.11140171,-0.1278277,-0.14174674
0.08021632,0.08616707,-0.08434291,-0.10740171,-0.1238277,-0.14574674
0.08421632,0.08216707,-0.08444779,-0.103401706,-0.1198277,-0.14663215
0.08100415,0.08478842,-0.08044779,-0.099401705,-0.1158277,-0.15063214
0.08500415,0.08078842,-0.08192586,-0.095401704,-0.11622101,-0.15346615
0.08100415,0.08478842,-0.07792586,-0.0914017,-0.11222101,-0.15746614
0.08500415,0.08078842,-0.07919043,-0.0874017,-0.11412553,-0.16003583
0.08100415,0.08063829,-0.07547032,-0.0834017,-0.11012553,-0.16403583
0.08421456,0.076858476,-0.07517023,-0.0794017,-0.106125526,-0.16803582
0.08021456,0.08085848,-0.07207058,-0.0754017,-0.102125525,-0.17203581
0.08421456,0.076858476,-0.07413449,-0.0714017,-0.106125526,-0.17335074
0.08021456,0.07843143,-0.07050114,-0.0674017,-0.102125525,-0.17735073
0.08421456,0.07443143,-0.06937239,-0.0634017,-0.10132213,-0.18135072
0.08021456,0.07236536,-0.06667035,-0.0594017,-0.09732213,-0.18535072
0.08421456,0.07343224,-0.0653429,-0.055401698,-0.09332213,-0.18935071
0.08021456,0.07008569,-0.06518863,-0.051401697,-0.09290641,-0.1933507
0.08421456,0.07408569,-0.06118863,-0.047401696,-0.08890641,-0.1973507
0.08021456,0.077568814,-0.06267069,-0.043401696,-0.08490641,-0.20135069
0.08148118,0.07356881,-0.06297546,-0.039401695,-0.08865942,-0.20046632
0.08032491,0.075115055,-0.059058607,-0.035401694,-0.08465942,-0.20446631
0.08345895,0.071115054,-0.05952186,-0.031401694,-0.08065942,-0.2084663
0.07945895,0.075115055,-0.05552186,-0.027401693,-0.07665942,-0.2124663
0.08345895,0.071115054,-0.058370214,-0.023401693,-0.08065942,-0.21485126
0.07945895,0.075115055,-0.054370213,-0.019401692,-0.07665942,-0.21885125
0.08181683,0.073449865,-0.055239167,-0.015401691,-0.07265942,-0.22240403
0.07781683,0.07346188,-0.05302405,-0.011401691,-0.068838075,-0.2255129
0.08181683,0.06946188,-0.052670117,-0.0074016904,-0.06982146,-0.22831742
0.07781683,0.07346188,-0.04922402,-0.0035500803,-0.06582146,-0.23231742
0.08181683,0.06946188,-0.05189548,0.00044991984,-0.06774598,-0.2356296
0.07781683,0.07346188,-0.04789548,0.0031963692,-0.06374598,-0.2396296
0.08181683,0.06946188,-0.049541365,0.0071963696,-0.06502222,-0.24236636
0.07781683,0.071349874,-0.045547854,0.00918492,-0.061022222,-0.24636635
0.08181683,0.06734987,-0.0469664,0.01318492,-0.06075185,-0.25036636
0.07781683,0.071349874,-0.0429664,0.014355513,-0.05675185,-0.25436637
0.081315465,0.06734987,-0.045823872,0.018355513,-0.060392935,-0.25683674
0.077315465,0.06816881,-0.04182387,0.021477759,-0.056392934,-0.26083675
0.07854279,0.06416881,-0.042486724,0.02547776,-0.052392934,-0.26483676
0.07749803,0.066612594,-0.038486723,0.028506238,-0.048392933,-0.26883677
0.07955326,0.06261259,-0.040797185,0.03250624,-0.049190294,-0.27283677
0.07586691,0.06592744,-0.036797184,0.031903543,-0.045190293,-0.27683678
0.07986691,0.061927438,-0.038165156,0.035903543,-0.048261106,-0.28070566
0.07586691,0.06431241,-0.034783576,0.034776386,-0.044261105,-0.28470567
0.07986691,0.060312413,-0.03620658,0.038776387,-0.044786226,-0.28835604
0.07586691,0.062471777,-0.032404225,0.04095794,-0.040786225,-0.29235604
0.07986691,0.058471777,-0.034103684,0.04495794,-0.042207688,-0.29635605
0.07586691,0.062471777,-0.030256262,0.044286065,-0.038207687,-0.30035606
0.07986691,0.058471777,-0.033049345,0.048286065,-0.040962037,-0.30384082
0.07586691,0.05656367,-0.029325524,0.04912329,-0.036962036,-0.30784082
0.07986691,0.057205137,-0.028263493,0.05312329,-0.032962035,-0.31184083
0.07586691,0.053205136,-0.029847452,0.051373687,-0.031326644,-0.314
0.07574963,0.057205137,-0.025847452,0.052102186,-0.027326643,-0.314
0.07606953,0.053205136,-0.029549161,0.056102186,-0.029920483,-0.314
0.07714726,0.05434064,-0.02554916,0.054946918,-0.025920482,-0.314
0.073297404,0.050340638,-0.026866203,0.058519777,-0.024235578,-0.314
0.077297404,0.054068357,-0.022866203,0.062519774,-0.020235578,-0.314
0.07617351,0.050068356,-0.026866203,0.06369161,-0.023847861,-0.314
0.079124145,0.049699966,-0.022866203,0.06477821,-0.01984786,-0.314
0.075124145,0.04970891,-0.02288566,0.064010635,-0.016177446,-0.314
0.079124145,0.04570891,-0.021606898,0.068010636,-0.019376922,-0.314
0.075124145,0.04970891,-0.019656967,0.06747314,-0.015376922,-0.314
0.079124145,0.04570891,-0.021527318,0.071473144,-0.018488875,-0.314
0.07701307,0.04592696,-0.018346688,0.072025925,-0.014488874,-0.314
0.080491446,0.041926958,-0.019070638,0.076025926,-0.0118342815,-0.314
0.076491445,0.04592696,-0.016236158,0.07358747,-0.007834282,-0.314
0.080491446,0.041926958,-0.019041047,0.07758747,-0.011834282,-0.314
0.07682239,0.040808547,-0.015706088,0.07792176,-0.007834282,-0.314
0.08082239,0.03974646,-0.014853187,0.08192176,-0.004137946,-0.314
0.07724514,0.040446132,-0.015085133,0.08048325,-0.0023007968,-0.314
0.08124514,0.03644613,-0.0137003455,0.08448325,-0.005255657,-0.314
0.07727482,0.040446132,-0.012576982,0.08048325,-0.0012556566,-0.314
0.08127482,0.03644613,-0.013091444,0.08448325,-0.0038367887,-0.314
0.07727482,0.03244613,-0.012604907,0.087714985,0.00016321149,-0.314
0.08127482,0.030769622,-0.0095761,0.091714986,0.0041632117,-0.314
0.07727482,0.034137726,-0.009666105,0.090189554,0.006345051,-0.314
0.08127482,0.030137725,-0.009315894,0.094189554,0.0023450507,-0.314
0.07766112,0.030287912,-0.008272036,0.09261318,0.006345051,-0.314
0.08166112,0.026383374,-0.006639227,0.09661318,0.005891191,-0.314
0.077732734,0.030383375,-0.006487815,0.09261318,0.0098911915,-0.314
0.081732735,0.026383374,-0.0059520924,0.09661318,0.005944082,-0.314
0.07934495,0.030383375,-0.005286313,0.09567704,0.009944082,-0.314
0.08334495,0.026383374,-0.006393637,0.09967704,0.00980494,-0.314
0.07934495,0.026931897,-0.0045496756,0.09736162,0.0138049405,-0.314
0.08334495,0.022931896,-0.0017261824,0.10136162,0.00980494,-0.314
0.07934495,0.026931897,-0.002522168,0.10066276,0.0138049405,-0.314
0.08317789,0.022931896,-0.003911914,0.10466276,0.010814922,-0.314
0.079177886,0.025845516,-0.002891937,0.10066276,0.014814923,-0.314
0.08176203,0.021845516,-0.0031148244,0.10466276,0.011766062,-0.314
0.07818749,0.025484487,-0.0026272386,0.10066276,0.015766062,-0.314
0.08218749,0.021484487,-0.0028073227,0.10466276,0.011766061,-0.314
0.07818749,0.02398108,-0.0027226524,0.10066276,0.015766062,-0.314
0.08123997,0.019981079,-0.0019687961,0.10466276,0.012201729,-0.314
0.07723997,0.02398108,-0.0021829805,0.10066276,0.016201729,-0.314
0.08123997,0.019981079,-0.001986333,0.10466276,0.012201728,-0.314
0.07723997,0.022222163,-0.002126421,0.10066276,0.016201729,-0.314
0.08085311,0.018222163,-0.0010271451,0.10466276,0.013171735,-0.314
0.08485311,0.01747949,-0.0027628166,0.10866276,0.0091717355,-0.314
0.08862566,0.021479491,-0.0023926916,0.111302614,0.01029215,-0.314
0.08462566,0.017848378,-0.0054031564,0.11111766,0.0070483177,-0.314
0.08525291,0.021848379,-0.0014031562,0.11270555,0.011048318,-0.314
0.08304669,0.017848378,-0.0054031564,0.115870856,0.0070483177,-0.314
0.08704669,0.021848379,-0.0017695469,0.11454667,0.011048318,-0.314
0.08304669,0.017848378,-0.0053523052,0.11769128,0.0070483177,-0.314
0.08678376,0.021848379,-0.0013523051,0.117734365,0.008761343,-0.314
0.08278376,0.017848378,-0.0053523052,0.117767565,0.004827793,-0.314
0.08550052,0.021848379,-0.0013523051,0.118879996,0.008827793,-0.314
0.08150052,0.017848378,-0.0053523052,0.120490305,0.004827793,-0.314
0.08550052,0.021848379,-0.0014434792,0.12109764,0.008492359,-0.314
0.08150052,0.017848378,-0.0054434794,0.12174618,0.004492359,-0.314
0.08550052,0.021523988,-0.0016215984,0.12306221,0.008027569,-0.314
0.08150052,0.017523987,-0.0056215986,0.12305453,0.004027569,-0.314
0.08550052,0.021523988,-0.0016215984,0.1241786,0.008027569,-0.314
0.08150052,0.017523987,-0.0056215986,0.12670563,0.004027569,-0.314
0.08550052,0.021118565,-0.0022343742,0.12732933,0.008027569,-0.314
0.08150052,0.017118564,-0.0062343744,0.12842868,0.004027569,-0.314
0.08550052,0.021118565,-0.0022343742,0.12910582,0.008027569,-0.314
0.08150052,0.017118564,-0.0062343744,0.13029346,0.004027569,-0.314
0.08550052,0.021118565,-0.0022343742,0.13141206,0.007860511,-0.314
0.08171621,0.017118564,-0.0062343744,0.13230784,0.0038605104,-0.314
0.08571621,0.020633075,-0.0026354175,0.13205563,0.0075074555,-0.314
0.08171621,0.016633075,-0.0066354177,0.13138,0.0035074553,-0.314
0.08571621,0.020633075,-0.0026944662,0.13249122,0.0069663795,-0.314
0.08189027,0.016633075,-0.0066944663,0.13132702,0.0029663793,-0.314
0.08589027,0.020633075,-0.003471717,0.13233483,0.006367734,-0.314
0.08193294,0.016633075,-0.007471717,0.13176988,0.002367734,-0.314
0.08593294,0.020633075,-0.003602859,0.13287063,0.006009887,-0.314
0.0823533,0.016633075,-0.0076028593,0.1318718,0.0020098868,-0.314
0.0863533,0.020633075,-0.004140472,0.13282399,0.0051999395,-0.314
0.0823533,0.016633075,-0.008140473,0.13245909,0.0011999393,-0.314
0.0863533,0.020633075,-0.004415539,0.1343963,0.0045699263,-0.314
0.08343261,0.016633075,-0.008415539,0.13357475,0.0005699261,-0.314
0.08743261,0.020633075,-0.0052454,0.13430497,0.0042666174,-0.314
0.08343261,0.016633075,-0.0092454,0.13401072,0.00026661716,-0.314
0.08743261,0.020633075,-0.0052454,0.13394772,0.0040438985,-0.314
0.08343261,0.016633075,-0.0092454,0.13445114,4.3898355e-05,-0.314
0.07943261,0.01291574,-0.0052454,0.13045114,0.0031139448,-0.314
0.08343261,0.01691574,-0.0025051925,0.13106371,0.0023301993,-0.314
0.07943261,0.013055473,-0.0065051927,0.13222018,-0.0003051809,-0.314
0.08343261,0.017055472,-0.004063419,0.13622017,0.0030355628,-0.314
0.08310309,0.013055472,-0.008063419,0.13590278,-0.00039905962,-0.314
0.08710309,0.017055472,-0.005359754,0.13916028,0.0034504558,-0.314
0.08310309,0.015062637,-0.009359755,0.13757302,0.00019984785,-0.314
0.08710309,0.0187485,-0.00547641,0.14115086,0.0014594252,-0.314
0.08310309,0.014748499,-0.00947641,0.13715087,0.0013107465,-0.314
0.08710309,0.0187485,-0.005664093,0.13315088,-0.0026892535,-0.314
0.08310309,0.0227485,-0.009664093,0.12915088,-0.0052564614,-0.314
0.08710309,0.0187485,-0.013664093,0.13128008,-0.009256462,-0.314
0.09110309,0.014748499,-0.016390657,0.12728009,-0.013256462,-0.314
0.08710964,0.012883811,-0.012390656,0.123280086,-0.016883653,-0.314
0.09017413,0.016883811,-0.008945694,0.12028638,-0.01333649,-0.314
0.08617413,0.014289595,-0.012945695,0.12428638,-0.01733649,-0.314
0.09017413,0.018289596,-0.011434193,0.12828638,-0.018691791,-0.314
0.08764143,0.0148597555,-0.015275697,0.12549448,-0.019659944,-0.314
0.09164143,0.018859755,-0.0112756975,0.12949447,-0.019590976,-0.314
0.08764143,0.017556189,-0.015275698,0.12663929,-0.020704588,-0.314
0.09164143,0.018834593,-0.013842717,0.13063928,-0.023710167,-0.314
0.095641434,0.021566734,-0.017842717,0.13463928,-0.02164605,-0.314
0.093627885,0.017566733,-0.021287868,0.13863927,-0.025646051,-0.314
0.097627886,0.021566734,-0.017287867,0.14263926,-0.02164605,-0.314
0.093627885,0.019748338,-0.021287868,0.14137746,-0.022605464,-0.314
0.097627886,0.021777624,-0.017850794,0.14454924,-0.023986433,-0.314
0.093627885,0.020106187,-0.021850795,0.14054924,-0.023162916,-0.314
0.097627886,0.021720205,-0.018051071,0.14418496,-0.026457582,-0.314
0.093627885,0.02176531,-0.022051072,0.14018497,-0.023224492,-0.314
0.09709698,0.018278731,-0.019374976,0.14346799,-0.027224492,-0.314
0.09309698,0.022278732,-0.020700937,0.139468,-0.023224492,-0.314
0.09518759,0.019511696,-0.020189716,0.14169447,-0.027224492,-0.314
0.09118759,0.023511697,-0.020172046,0.13769448,-0.02351861,-0.314
0.09518759,0.019511696,-0.02055881,0.14169447,-0.027518611,-0.314
0.09118759,0.023511697,-0.02011674,0.13769448,-0.02447267,-0.314
0.09436832,0.019511696,-0.020507323,0.14169447,-0.028472671,-0.314
0.09036832,0.023511697,-0.019876355,0.13769448,-0.02447267,-0.314
0.09369316,0.019511696,-0.02040083,0.14149842,-0.028472671,-0.314
0.08969316,0.023511697,-0.019750958,0.13749842,-0.024965046,-0.314
0.09255337,0.019511696,-0.020243991,0.14042065,-0.028965047,-0.314
0.08855337,0.023511697,-0.01930279,0.13642065,-0.025659893,-0.314
0.09255337,0.01991023,-0.020151442,0.1403722,-0.029659893,-0.314
0.08855337,0.02391023,-0.019471588,0.13637221,-0.025749017,-0.314
0.08914727,0.02012535,-0.019813731,0.13907845,-0.029749017,-0.314
0.088674955,0.02412535,-0.018586403,0.13507846,-0.027387252,-0.314
0.08683912,0.020249363,-0.020623118,0.13716733,-0.03138725,-0.314
0.09083912,0.024249364,-0.01737762,0.13483953,-0.028134746,-0.314
0.08683912,0.021867162,-0.021377621,0.13405703,-0.032134745,-0.314
0.08795447,0.025867162,-0.017419336,0.13603215,-0.030972315,-0.314
0.08539077,0.021867162,-0.021419337,0.13572884,-0.034154028,-0.314
0.08939077,0.025867162,-0.017419336,0.13594216,-0.030154027,-0.314
0.08539077,0.021867162,-0.021419337,0.13316254,-0.034154028,-0.314
0.08660184,0.025867162,-0.017419336,0.1348411,-0.031064918,-0.314
0.083666965,0.021867162,-0.021419337,0.13498203,-0.035064917,-0.314
0.087666966,0.025867162,-0.017419336,0.13505533,-0.031064916,-0.314
0.083666965,0.021867162,-0.021402521,0.13296442,-0.034712285,-0.314
0.087094925,0.025867162,-0.01740252,0.13453226,-0.03102238,-0.314
0.083094925,0.021867162,-0.021201475,0.13208489,-0.034942847,-0.314
0.08613555,0.025867162,-0.017201474,0.13405351,-0.031374197,-0.314
0.08213555,0.021867162,-0.021109225,0.13193937,-0.035278086,-0.314
0.08613555,0.025867162,-0.017109225,0.13353309,-0.031533454,-0.314
0.08213555,0.021867162,-0.021054445,0.1308568,-0.035443645,-0.314
0.08400442,0.025867162,-0.017054444,0.13256885,-0.03182636,-0.314
0.08000442,0.021867162,-0.02036467,0.13233861,-0.03582636,-0.314
0.08400442,0.025867162,-0.01636467,0.13338584,-0.03182636,-0.314
0.08000442,0.021867162,-0.02036467,0.13072366,-0.035508793,-0.314
0.08400442,0.025867162,-0.01636467,0.13267642,-0.032036312,-0.314
0.08000442,0.021867162,-0.02036467,0.12867643,-0.036036313,-0.314
0.082554005,0.017867161,-0.023247512,0.12844975,-0.036361735,-0.314
0.078554004,0.021867162,-0.019247511,0.12463766,-0.032361735,-0.314
0.082554005,0.017867161,-0.018694391,0.12863766,-0.036361735,-0.314
0.078554004,0.021867162,-0.01929038,0.124637656,-0.032361735,-0.314
0.08185396,0.017867161,-0.019112093,0.12863766,-0.036361735,-0.314
0.07785396,0.021867162,-0.01866701,0.1254819,-0.032361735,-0.314
0.08185396,0.017867161,-0.01927041,0.1294819,-0.036361735,-0.314
0.07785396,0.021867162,-0.018629167,0.1254819,-0.032361735,-0.314
0.081264935,0.017867161,-0.019019786,0.1294819,-0.036361735,-0.314
0.077264935,0.021867162,-0.018408377,0.1257792,-0.032921948,-0.314
0.081264935,0.017867161,-0.018898396,0.12977919,-0.03692195,-0.314
0.077264935,0.021867162,-0.0183372,0.1257792,-0.033169296,-0.314
0.07954311,0.017867161,-0.018772736,0.12977919,-0.037169296,-0.314
0.076066345,0.021867162,-0.01786485,0.12610537,-0.03357726,-0.314
0.080066346,0.017867161,-0.018864669,0.13010536,-0.03757726,-0.314
0.076066345,0.021867162,-0.017951148,0.12610537,-0.03357726,-0.314
0.07936898,0.017867161,-0.018593607,0.13010536,-0.03757726,-0.314
0.07536898,0.021867162,-0.017831497,0.12610537,-0.033663936,-0.314
0.07936898,0.017867161,-0.018484175,0.13010536,-0.037663937,-0.314
0.07536898,0.021867162,-0.017827192,0.12610537,-0.033787254,-0.314
0.077678196,0.017867161,-0.0182856,0.13010536,-0.037787255,-0.314
0.07428549,0.021867162,-0.017420404,0.12610537,-0.03416464,-0.314
0.07828549,0.017867161,-0.018364824,0.13010536,-0.03816464,-0.314
0.07428549,0.021867162,-0.017483795,0.12610537,-0.03416464,-0.314
0.07731626,0.017867161,-0.018115846,0.13010536,-0.03816464,-0.314
0.07331626,0.021867162,-0.017319676,0.12610537,-0.034310587,-0.314
0.07731626,0.017867161,-0.018020341,0.13010536,-0.038310587,-0.314
0.07331626,0.021867162,-0.017367963,0.12610537,-0.034409463,-0.314
0.07677122,0.018258443,-0.017850326,0.13010536,-0.038409464,-0.314
0.07277122,0.022258444,-0.01741114,0.12610537,-0.03493813,-0.314
0.07677122,0.018258443,-0.01783425,0.13010536,-0.03893813,-0.314
0.07277122,0.022258444,-0.017352354,0.12610537,-0.03493813,-0.314
0.07526227,0.018258443,-0.017760959,0.12990865,-0.03893813,-0.314
0.071489945,0.022258444,-0.016956419,0.12590866,-0.03532173,-0.314
0.075489946,0.018258443,-0.017781489,0.12990865,-0.03932173,-0.314
0.071489945,0.022258444,-0.017037759,0.12590866,-0.03532173,-0.314
0.075489946,0.018258443,-0.017585889,0.1294749,-0.03932173,-0.314
0.071489945,0.022258444,-0.016986702,0.1254749,-0.035425324,-0.314
0.074027926,0.018609365,-0.017449731,0.12891798,-0.039425325,-0.314
0.07010493,0.022609366,-0.016756384,0.12491798,-0.036246147,-0.314
0.07410493,0.018609365,-0.017485123,0.12891798,-0.040246148,-0.314
0.07010493,0.022609366,-0.016830724,0.12491798,-0.036246147,-0.314
0.07410493,0.018609365,-0.017329145,0.12891798,-0.040246148,-0.314
0.07010493,0.022609366,-0.016832275,0.12491798,-0.036246147,-0.314
0.0735765,0.018609365,-0.017240321,0.12831847,-0.040246148,-0.314
0.0695765,0.022609366,-0.016590804,0.12431847,-0.036308955,-0.314
0.07330545,0.018609365,-0.017186044,0.12819023,-0.040308956,-0.314
0.06930545,0.022609366,-0.016559718,0.12419023,-0.036397707,-0.314
0.072684385,0.018609365,-0.017082863,0.12775509,-0.040397707,-0.314
0.068684384,0.022609366,-0.01638289,0.12375509,-0.03666714,-0.314
0.072684385,0.018609365,-0.01700729,0.12757431,-0.04066714,-0.314
0.068684384,0.022609366,-0.016405387,0.12357431,-0.03666714,-0.314
0.07149391,0.01864459,-0.01687972,0.12699841,-0.04066714,-0.314
0.06749391,0.02264459,-0.01611108,0.12299841,-0.03708177,-0.314
0.07149391,0.01864459,-0.016861679,0.12699841,-0.04108177,-0.314
0.06749391,0.02264459,-0.016215103,0.12299841,-0.03708177,-0.314
0.07149391,0.01864459,-0.016703157,0.12639898,-0.04108177,-0.314
0.06749391,0.02264459,-0.016554665,0.12239898,-0.03708177,-0.314
0.06801628,0.02012097,-0.016863907,0.12174449,-0.04108177,-0.314
0.06679649,0.024120972,-0.015918305,0.11912371,-0.03739775,-0.314
0.067258246,0.02012097,-0.017920155,0.12312371,-0.04139775,-0.314
0.0680609,0.024120972,-0.015758848,0.11936245,-0.03747426,-0.314
0.0640609,0.02012097,-0.018368473,0.12247097,-0.04147426,-0.314
0.0680609,0.023550278,-0.014938007,0.12216418,-0.038828727,-0.314
0.0640609,0.019550277,-0.018938007,0.11992943,-0.042368438,-0.314
0.0680609,0.023550278,-0.014938006,0.12218185,-0.03888225,-0.314
0.0640609,0.019550277,-0.018938007,0.119196035,-0.04210956,-0.314
0.0680609,0.023550278,-0.014938006,0.12200405,-0.03933194,-0.314
0.0640609,0.019550277,-0.018938007,0.11865204,-0.042052817,-0.314
0.0679909,0.023550278,-0.014938006,0.12186326,-0.039805096,-0.314
0.0639909,0.019550277,-0.018938007,0.11833705,-0.041903198,-0.314
0.066456385,0.023550278,-0.014938006,0.12191706,-0.040174115,-0.314
0.062456384,0.019550277,-0.018841611,0.11932768,-0.042081054,-0.314
0.066456385,0.023550278,-0.014841611,0.12276129,-0.04020777,-0.314
0.062456384,0.019550277,-0.018841611,0.118761286,-0.04193322,-0.314
0.066456385,0.023550278,-0.014841611,0.12260946,-0.040677235,-0.314
0.062456384,0.019550277,-0.018841611,0.11860946,-0.041878868,-0.314
0.066456385,0.023550278,-0.014841611,0.12232127,-0.040992487,-0.314
0.062456384,0.019550277,-0.018841611,0.11832127,-0.041872524,-0.314
0.06510799,0.023550278,-0.014841611,0.12218368,-0.04119877,-0.314
0.061107986,0.019550277,-0.018841611,0.11879076,-0.04213348,-0.314
0.06510799,0.023550278,-0.014841611,0.12279076,-0.041270938,-0.314
0.061107986,0.019550277,-0.018841611,0.11879076,-0.041974973,-0.314
0.06510799,0.023550278,-0.014841611,0.122571886,-0.0414467,-0.314
0.061107986,0.019550277,-0.018841611,0.118571885,-0.042102225,-0.314
0.06500557,0.023550278,-0.014841611,0.1222195,-0.041603502,-0.314
0.06100557,0.019550277,-0.018841611,0.1182195,-0.042196702,-0.314
0.063828416,0.023550278,-0.014841611,0.12212353,-0.0417411,-0.314
0.059828416,0.019550277,-0.018841611,0.11839944,-0.042420637,-0.314
0.063828416,0.023550278,-0.014841611,0.12239944,-0.04187432,-0.314
0.059828416,0.019550277,-0.018841611,0.11839944,-0.042311262,0.0
0.05989958,0.015550276,-0.022841612,0.12239944,-0.03831126,0.0
0.063768454,0.019550277,-0.024560167,0.12639944,-0.03431126,0.0
0.059768453,0.016841616,-0.024906091,0.12698972,-0.03031126,0.0
0.063768454,0.02040433,-0.022621728,0.13073717,-0.02631126,0.0
0.059768453,0.016404329,-0.02662173,0.1287295,-0.022311259,0.0
0.063768454,0.018602142,-0.022621728,0.1327295,-0.019133504,0.0
0.059768453,0.01576699,-0.02662173,0.1309987,-0.020611646,0.0
0.063768454,0.01976699,-0.022621728,0.13453674,-0.020339873,0.0
0.059768453,0.01576699,-0.02662173,0.13075906,-0.021679834,0.0
0.063768454,0.01976699,-0.023275098,0.13450287,-0.021294212,0.0
0.059768453,0.01576699,-0.027275098,0.13088113,-0.02252611,0.0
0.063768454,0.01976699,-0.023275098,0.1345293,-0.021935193,0.0
0.059768453,0.01576699,-0.027275098,0.13087638,-0.022986053,0.0
0.063768454,0.01976699,-0.023815876,0.13396244,-0.02255319,0.0
0.059768453,0.01576699,-0.027815877,0.12996244,-0.01855319,0.0
0.063768454,0.018479666,-0.02635934,0.12596245,-0.017851355,0.0
0.059768453,0.01508663,-0.027990017,0.12196245,-0.020049177,0.0
0.055768453,0.019086631,-0.023990016,0.11927538,-0.017213987,0.0
0.059768453,0.01508663,-0.026783967,0.123275384,-0.021213988,0.0
0.055768453,0.019086631,-0.02540107,0.11927538,-0.017213987,0.0
0.05928851,0.01508663,-0.026038026,0.123275384,-0.021213988,0.0
0.05528851,0.019086631,-0.02550981,0.11958267,-0.017213987,0.0
0.05822429,0.01508663,-0.025924442,0.12358267,-0.021213988,0.0
0.05422429,0.019086631,-0.025321772,0.120870315,-0.017213987,0.0
0.05822429,0.01508663,-0.026034622,0.124870315,-0.021213988,0.0
0.05422429,0.019086631,-0.025472865,0.120870315,-0.017213987,0.0
0.057461392,0.01508663,-0.025787348,0.124870315,-0.021213988,0.0
0.05346139,0.019086631,-0.025275504,0.12194909,-0.017213987,0.0
0.057461392,0.01508663,-0.025880832,0.12594908,-0.021213988,0.0
0.05346139,0.018777473,-0.025377546,0.121949084,-0.017213987,0.0
0.05574676,0.014777472,-0.025528733,0.12594908,-0.021213988,0.0
0.05234912,0.018777473,-0.024943318,0.1235496,-0.017213987,0.0
0.05634912,0.014777472,-0.025909001,0.1275496,-0.020806234,0.0
0.05234912,0.018530272,-0.025118291,0.1235496,-0.016806234,0.0
0.05551816,0.014530271,-0.02545428,0.1275496,-0.020699928,0.0
0.05151816,0.018530272,-0.024932444,0.123753905,-0.016699927,0.0
0.05551816,0.014530271,-0.025403297,0.1277539,-0.020636499,0.0
0.05151816,0.018501114,-0.02499224,0.12398455,-0.016636498,0.0
0.054073937,0.014501113,-0.025270266,0.12798455,-0.02038127,0.0
0.050189722,0.017735524,-0.024661813,0.12571803,-0.01638127,0.0
0.054189723,0.013735523,-0.02521219,0.12971802,-0.019299103,0.0
0.050189722,0.017735524,-0.024764918,0.12571803,-0.015299102,0.0
0.054189723,0.013735523,-0.024990913,0.12971802,-0.019299103,0.0
0.050189722,0.017735524,-0.02467394,0.12571803,-0.015299102,0.0
0.052906252,0.013735523,-0.024898982,0.12971802,-0.019299103,0.0
0.04890625,0.017735524,-0.024332097,0.12638599,-0.015299102,0.0
0.052906252,0.013735523,-0.024999054,0.13038598,-0.019299103,0.0
0.04890625,0.017735524,-0.024476415,0.12638599,-0.015299102,0.0
0.052906252,0.013735523,-0.024791066,0.13038598,-0.019299103,0.0
0.04890625,0.017735524,-0.02442824,0.12663211,-0.015299102,0.0
0.051857978,0.013735523,-0.024724005,0.1306321,-0.01893768,0.0
0.047857977,0.017329538,-0.024190677,0.12800065,-0.01493768,0.0
0.051857978,0.013329538,-0.024741543,0.13200064,-0.01836065,0.0
0.047857977,0.017329538,-0.024283228,0.12800065,-0.0143606495,0.0
0.051857978,0.013329538,-0.024557004,0.13200064,-0.01836065,0.0
0.047857977,0.017329538,-0.024202358,0.12800065,-0.0143606495,0.0
0.05063654,0.013329538,-0.024465522,0.13200064,-0.018325353,0.0
0.04663654,0.01723042,-0.023907302,0.12908612,-0.014325352,0.0
0.05063654,0.013230419,-0.024596084,0.13308612,-0.01797808,0.0
0.04663654,0.01688702,-0.024062961,0.12908612,-0.013978079,0.0
0.05063654,0.01288702,-0.02424007,0.13308612,-0.017770447,0.0
0.04663654,0.01688702,-0.023950068,0.12908612,-0.013770446,0.0
0.050122153,0.01288702,-0.024171008,0.13308612,-0.017562307,0.0
0.046122152,0.01688702,-0.023764519,0.12948136,-0.013562307,0.0
0.050122153,0.01288702,-0.02421016,0.13348135,-0.017467363,0.0
0.046122152,0.01688702,-0.023779733,0.12957709,-0.013467362,0.0
0.04894182,0.01288702,-0.024102284,0.13357708,-0.017313892,0.0
0.04494182,0.016487436,-0.02351702,0.13093285,-0.013313891,0.0
0.04894182,0.012487436,-0.024138741,0.13493285,-0.01663793,0.0
0.04494182,0.016487436,-0.02363916,0.13093285,-0.01263793,0.0
0.04894182,0.012487436,-0.023952594,0.13493285,-0.01663793,0.0
0.04494182,0.016487436,-0.023567928,0.13093285,-0.01263793,0.0
0.048837874,0.012487436,-0.023871612,0.13493285,-0.01663793,0.0
0.044837873,0.016487436,-0.023471802,0.13093285,-0.01263793,0.0
0.047762275,0.012487436,-0.023802532,0.13493285,-0.016417308,0.0
0.043762274,0.01616732,-0.023240568,0.13189964,-0.012417307,0.0
0.047762275,0.01216732,-0.023817878,0.13589963,-0.015997998,0.0
0.043762274,0.01616732,-0.023332855,0.13189964,-0.011997998,0.0
0.047762275,0.01216732,-0.02366235,0.13589963,-0.015997998,0.0
0.043762274,0.01616732,-0.023257675,0.13189964,-0.011997998,0.0
0.04757186,0.01216732,-0.0235864,0.13589963,-0.01584129,0.0
0.04357186,0.01616732,-0.023170121,0.13189964,-0.01184129,0.0
0.046860993,0.01216732,-0.023533266,0.13589963,-0.01576626,0.0
0.042860992,0.015818195,-0.023006994,0.13267635,-0.011766259,0.0
0.046860993,0.011818195,-0.023477323,0.13667634,-0.015165386,0.0
0.042860992,0.015818195,-0.023044707,0.13267635,-0.011165386,0.0
0.046860993,0.011818195,-0.02336458,0.13667634,-0.015165387,0.0
0.042860992,0.015818195,-0.022958446,0.13267635,-0.011165386,0.0
0.045687623,0.011818195,-0.023301153,0.13667634,-0.01507379,0.0
0.041687623,0.015689168,-0.02269878,0.13353841,-0.0110737905,0.0
0.045687623,0.0116891675,-0.023407046,0.1375384,-0.014821445,0.0
0.041694332,0.015502796,-0.022834845,0.13353841,-0.010821445,0.0
0.045694333,0.011502795,-0.023157602,0.1375384,-0.014681487,0.0
0.041694332,0.015502796,-0.022756277,0.13353841,-0.010681488,0.0
0.045694333,0.011502795,-0.023097485,0.1375384,-0.01445452,0.0
0.041694332,0.015502796,-0.022699717,0.13353841,-0.010454521,0.0
0.04511529,0.011502795,-0.023041056,0.1375384,-0.014356543,0.0
0.041115288,0.015502796,-0.022533933,0.13381103,-0.010356544,0.0
0.04511529,0.011502795,-0.023079423,0.13781102,-0.014258714,0.0
0.041115288,0.015240549,-0.022571214,0.13381103,-0.010258714,0.0
0.044819806,0.011240549,-0.022855826,0.13781102,-0.01387388,0.0
0.040819805,0.01524055,-0.02244041,0.13387226,-0.00987388,0.0
0.04456478,0.011240549,-0.022855358,0.13787225,-0.013873881,0.0
0.04056478,0.01524055,-0.022352781,0.1341186,-0.00987388,0.0
0.04439963,0.011240549,-0.022849781,0.1381186,-0.01363527,0.0
0.04039963,0.015176353,-0.022325605,0.1343221,-0.00963527,0.0
0.04400327,0.011176353,-0.022787271,0.1383221,-0.013505888,0.0
0.04000327,0.015029808,-0.022232682,0.1346115,-0.009505888,0.0
0.04400327,0.011029808,-0.022727042,0.1386115,-0.013228275,0.0
0.04000327,0.0150298085,-0.0222304,0.1346115,-0.009228274,0.0
0.04334683,0.011029808,-0.022648174,0.1386115,-0.013166383,0.0
0.03934683,0.014845008,-0.02205926,0.13503744,-0.009166382,0.0
0.04334683,0.010845007,-0.02263279,0.13903743,-0.012818361,0.0
0.03934683,0.014845008,-0.022099463,0.13503744,-0.00881836,0.0
0.04334683,0.010845007,-0.022538912,0.13903743,-0.012818361,0.0
0.03934683,0.014845008,-0.022031786,0.13503744,-0.00881836,0.0
0.04258502,0.010845007,-0.022485794,0.13903743,-0.012553699,0.0
0.03858502,0.014487535,-0.021868285,0.13552435,-0.008553699,0.0
0.04258502,0.010487534,-0.022415778,0.13952434,-0.0122042,0.0
0.03858502,0.014487535,-0.021889526,0.13552435,-0.008204199,0.0
0.04258502,0.010487534,-0.02233038,0.13952434,-0.012151684,0.0
0.03858502,0.014487535,-0.021811126,0.13552435,-0.008151684,0.0
0.04225659,0.010487534,-0.022287015,0.13952434,-0.011918016,0.0
0.03825659,0.014487535,-0.021713728,0.13552435,-0.007918015,0.0
0.04225659,0.010487534,-0.022270638,0.13952434,-0.011918016,0.0
0.03825659,0.014487535,-0.021698494,0.13552435,-0.007918015,0.0
0.04148404,0.010487534,-0.022205224,0.13952434,-0.011723127,0.0
0.03748404,0.014266725,-0.0215375,0.13596974,-0.007723127,0.0
0.04148404,0.010266725,-0.022194145,0.13996974,-0.011483078,0.0
0.03748404,0.014266726,-0.02158635,0.13596974,-0.0074830777,0.0
0.04148404,0.010266725,-0.02210313,0.13996974,-0.011425901,0.0
0.03748404,0.014266726,-0.021527188,0.13596974,-0.007425901,0.0
0.041459333,0.010266725,-0.022056865,0.13996974,-0.011199645,0.0
0.037459332,0.014266726,-0.021482138,0.13596974,-0.0071996446,0.0
0.040697034,0.010266725,-0.022018123,0.13996974,-0.01112102,0.0
0.036697034,0.01399134,-0.021315642,0.13623427,-0.0071210195,0.0
0.040697034,0.00999134,-0.021954153,0.14023426,-0.010807454,0.0
0.036697034,0.013991341,-0.021348974,0.13623427,-0.0068074535,0.0
0.040697034,0.00999134,-0.021881124,0.14023426,-0.010759299,0.0
0.036697034,0.013991341,-0.021279035,0.13623427,-0.0067592985,0.0
0.04062921,0.00999134,-0.021843018,0.14023426,-0.010525799,0.0
0.03662921,0.013991341,-0.021227546,0.13623427,-0.006525799,0.0
0.040027983,0.00999134,-0.021811537,0.14023426,-0.01046954,0.0
0.036027983,0.013948592,-0.021093598,0.13628858,-0.00646954,0.0
0.040027983,0.009948593,-0.021808505,0.14028858,-0.010406916,0.0
0.036027983,0.013816535,-0.02112779,0.13628858,-0.006406916,0.0
0.040027983,0.009816535,-0.021671018,0.14028858,-0.01010939,0.0
0.036027983,0.0138165355,-0.02106964,0.13628858,-0.00610939,0.0
0.03954586,0.009816535,-0.02164523,0.14028858,-0.010027471,0.0
0.03554586,0.0138165355,-0.02093571,0.1363707,-0.006027471,0.0
0.03954586,0.009816535,-0.021669166,0.1403707,-0.009967356,0.0
0.03554586,0.013628664,-0.020960229,0.1363707,-0.005967356,0.0
0.03952857,0.009628665,-0.021510119,0.1403707,-0.009614187,0.0
0.03552857,0.013628665,-0.020896332,0.1363707,-0.005614187,0.0
0.038785324,0.009628665,-0.021493217,0.1403707,-0.009550105,0.0
0.034785323,0.013628665,-0.020721376,0.13665745,-0.0055501047,0.0
0.038785324,0.009628665,-0.021578657,0.14065744,-0.009496203,0.0
0.034785323,0.013367653,-0.020795042,0.13665745,-0.0054962025,0.0
0.038785324,0.009367652,-0.021359436,0.14065744,-0.009102084,0.0
0.034785323,0.013367653,-0.020730752,0.13665745,-0.0051020836,0.0
0.038785324,0.009367652,-0.021344332,0.14065744,-0.009026397,0.0
0.034785323,0.013367653,-0.020657217,0.13665745,-0.005026397,0.0
0.03822636,0.009367652,-0.021320153,0.14065744,-0.008823723,0.0
0.034226358,0.013367653,-0.020534629,0.13665745,-0.0048237224,0.0
0.03822636,0.009367652,-0.021341695,0.14065744,-0.008823723,0.0
0.034226358,0.013367653,-0.020560982,0.13665745,-0.0048237224,0.0
0.03822636,0.009367652,-0.021273868,0.14065744,-0.00871955,0.0
0.034226358,0.013367653,-0.020532103,0.13665745,-0.0047195503,0.0
0.037875436,0.009367652,-0.021236174,0.14065744,-0.008541807,0.0
0.033875436,0.013241882,-0.020446217,0.13665745,-0.0045418064,0.0
0.037875436,0.009241883,-0.021175947,0.14065744,-0.0084157735,0.0
0.033875436,0.013241883,-0.020430362,0.13665745,-0.0044157733,0.0
0.03754521,0.009241883,-0.021135297,0.14065744,-0.008250456,0.0
0.03354521,0.013241883,-0.020337215,0.13665745,-0.004250456,0.0
0.03754521,0.009241883,-0.021138646,0.14065744,-0.008233593,0.0
0.03354521,0.013116074,-0.0203377,0.13665745,-0.0042335927,0.0
0.03719092,0.009116074,-0.021026108,0.14065744,-0.007892217,0.0
0.03319092,0.013116075,-0.020241408,0.13665745,-0.0038922164,0.0
0.03719092,0.009116074,-0.021042129,0.14065744,-0.007892217,0.0
0.03319092,0.013099603,-0.02022767,0.13665745,-0.0038922164,0.0
0.036923137,0.009099603,-0.020987142,0.14065744,-0.0077300244,0.0
0.032923136,0.012966946,-0.020159507,0.13665745,-0.0037300242,0.0
0.036923137,0.008966945,-0.0209181,0.14065744,-0.007554114,0.0
0.032923136,0.012966946,-0.020133624,0.13665745,-0.0035541137,0.0
0.03639314,0.008966945,-0.020887498,0.14065744,-0.0074039563,0.0
0.03239314,0.012922178,-0.020012608,0.13665879,-0.003403956,0.0
0.03639314,0.008922178,-0.020892514,0.14065878,-0.0074039563,0.0
0.03239314,0.012867789,-0.020033231,0.13665879,-0.003403956,0.0
0.03639314,0.008867789,-0.020809228,0.14065878,-0.0071305553,0.0
0.03239314,0.01286779,-0.019997127,0.13665879,-0.0031305552,0.0
0.03610469,0.008867789,-0.020787498,0.14065878,-0.007054438,0.0
0.03210469,0.012815798,-0.01991156,0.13665879,-0.0030544377,0.0
0.03610469,0.008815797,-0.020764403,0.14065878,-0.006908716,0.0
0.03210469,0.012815798,-0.019907162,0.13665879,-0.002908716,0.0
0.035728913,0.008815797,-0.02072613,0.14065878,-0.006774898,0.0
0.031728912,0.012610297,-0.019818598,0.13665879,-0.002774898,0.0
0.035728913,0.008610297,-0.020635469,0.14065878,-0.0065459656,0.0
0.031728912,0.012610298,-0.019800236,0.13665879,-0.0025459654,0.0
0.035568707,0.008610297,-0.020609044,0.14065878,-0.0064121843,0.0
0.031568706,0.012610298,-0.019724326,0.13665879,-0.0024121841,0.0
0.035405878,0.008610297,-0.020606143,0.14065878,-0.006314675,0.0
0.031405877,0.012610298,-0.019686632,0.13665879,-0.0023146747,0.0
0.03530919,0.008610297,-0.020588418,0.14065878,-0.0062128417,0.0
0.03130919,0.012610298,-0.01966277,0.13665879,-0.0022128415,0.0
0.03502617,0.008610297,-0.020562198,0.14065878,-0.0060886247,0.0
0.03102617,0.012485162,-0.019608287,0.13665879,-0.0020886245,0.0
0.03502617,0.008485163,-0.020496018,0.14065878,-0.0059149414,0.0
0.03102617,0.012485163,-0.019593148,0.13665879,-0.0019149412,0.0
0.034698006,0.008485163,-0.020466765,0.14065878,-0.0057787835,0.0
0.030698005,0.012485163,-0.019507296,0.13665879,-0.0017787833,0.0
0.034698006,0.008485163,-0.02047897,0.14065878,-0.0057480144,0.0
0.030698005,0.01243987,-0.019515026,0.13665879,-0.0017480142,0.0
0.03454412,0.008439871,-0.020412376,0.14065878,-0.0055047083,0.0
0.03054412,0.012439871,-0.019465037,0.13665879,-0.0015047081,0.0
0.03440162,0.008439871,-0.020408034,0.14065878,-0.0054798727,0.0
0.030401621,0.012336297,-0.019425696,0.13665879,-0.0014798725,0.0
0.034245458,0.008336296,-0.020338412,0.14065878,-0.005207613,0.0
0.030245457,0.012336297,-0.019383304,0.13665879,-0.0012076129,0.0
0.03413518,0.008336296,-0.020334443,0.14065878,-0.0051922663,0.0
0.03013518,0.012336297,-0.019341981,0.13665879,-0.0011922661,0.0
0.033913102,0.008336296,-0.020316346,0.14065878,-0.005006287,0.0
0.029913101,0.012185859,-0.019304512,0.13665879,-0.0010062866,0.0
0.033913102,0.008185858,-0.020234091,0.14065878,-0.0048338575,0.0
0.029913101,0.012185859,-0.019276418,0.13665879,-0.00083385734,0.0
0.033441797,0.008185858,-0.020213764,0.14065878,-0.00467627,0.0
0.029441796,0.012185859,-0.019173518,0.13665879,-0.00067626964,0.0
0.033441797,0.008185858,-0.020245282,0.14065878,-0.00467627,0.0
0.029441796,0.012144534,-0.019199459,0.13665879,-0.00067626964,0.0
0.033441797,0.008144533,-0.02017377,0.14065878,-0.0044711814,0.0
0.029441796,0.012144534,-0.019176383,0.13665879,-0.00047118124,0.0
0.033268414,0.008144533,-0.020153275,0.14065878,-0.0043628165,0.0
0.029268414,0.012144534,-0.019120552,0.13665879,-0.00036281627,0.0
0.03321743,0.008144533,-0.020151122,0.14065878,-0.004258195,0.0
0.02921743,0.012063458,-0.01910908,0.13665879,-0.00025819475,0.0
0.032848094,0.008063458,-0.020083914,0.14065878,-0.0040394813,0.0
0.028848093,0.012063459,-0.019030793,0.13665879,-3.9481092e-05,0.0
0.032848094,0.008063458,-0.020106448,0.14065878,-0.0040394813,0.0
0.028848093,0.0119628785,-0.01903794,0.13665879,-3.9481092e-05,0.0
0.032848094,0.007962879,-0.020014104,0.14065878,-0.003751912,0.0
0.028848093,0.011962879,-0.019005693,0.13665879,0.00024808827,0.0
0.032351747,0.007962879,-0.020003341,0.14065878,-0.0036710969,0.0
0.028351746,0.011962879,-0.018900191,0.13665879,0.00032890332,0.0
0.032351747,0.007962879,-0.020038622,0.14065878,-0.0036656882,0.0
0.028351746,0.011825541,-0.01893521,0.13665879,0.00033431198,0.0
0.032351747,0.00782554,-0.019917903,0.14065878,-0.003323581,0.0
0.028351746,0.011825541,-0.018899836,0.13665879,0.0006764191,0.0
0.032290395,0.00782554,-0.019911166,0.14065878,-0.0032294213,0.0
0.028290395,0.011825541,-0.018847262,0.13665879,0.00077057886,0.0
0.031937044,0.00782554,-0.019904708,0.14065878,-0.0030616526,0.0
0.027937043,0.011825541,-0.01878552,0.13665879,0.00093834754,0.0
0.031937044,0.00782554,-0.019920563,0.14065878,-0.0030616526,0.0
0.027937043,0.011825541,-0.018800998,0.13665879,0.00093834754,0.0
0.031937044,0.00782554,-0.019878602,0.14065878,-0.0028654542,0.0
0.027937043,0.011825541,-0.01878827,0.13665879,0.001134546,0.0
0.03153151,0.00782554,-0.019857807,0.14065878,-0.0027628352,0.0
0.027531508,0.011655152,-0.018711723,0.13665879,0.001237165,0.0
0.03153151,0.0076551517,-0.019793218,0.14065878,-0.0025715218,0.0
0.027531508,0.011655152,-0.018710582,0.13665879,0.0014284784,0.0
0.03153151,0.0076551517,-0.019768365,0.14065878,-0.002446668,0.0
0.027531508,0.011655152,-0.01867272,0.13665879,0.0015533322,0.0
0.031210119,0.0076551517,-0.0197556,0.14065878,-0.0022880887,0.0
0.027210118,0.011655152,-0.018608486,0.13665879,0.0017119115,0.0
0.031210119,0.0076551517,-0.019773418,0.14065878,-0.0022841021,0.0
0.027210118,0.011655152,-0.018620146,0.13665879,0.001715898,0.0
0.031210119,0.0076551517,-0.019736212,0.14065878,-0.002072276,0.0
0.027210118,0.011655152,-0.018609554,0.13665879,0.0019277241,0.0
0.030734736,0.0076551517,-0.01971697,0.14065878,-0.0019829078,0.0
0.026734736,0.011538515,-0.018525539,0.13665879,0.0020170924,0.0
0.030734736,0.0075385147,-0.019688671,0.14065878,-0.0018660086,0.0
0.026734736,0.011538515,-0.018543355,0.13665879,0.0021339916,0.0
0.030734736,0.0075385147,-0.01965459,0.14065878,-0.0017185276,0.0
0.026734736,0.011538515,-0.018516948,0.13665879,0.0022814726,0.0
0.03072725,0.0075385147,-0.019640421,0.14065878,-0.0015758378,0.0
0.02672725,0.011538515,-0.018494805,0.13665879,0.0024241623,0.0
0.030264294,0.0075385147,-0.019627584,0.14065878,-0.0014399795,0.0
0.026264293,0.011496217,-0.018418502,0.13665879,0.0025600207,0.0
0.030264294,0.007496217,-0.019642182,0.14065878,-0.001436461,0.0
0.026264293,0.011493746,-0.018446838,0.13665879,0.0025635392,0.0
0.030264294,0.007493746,-0.01960082,0.14065878,-0.001225739,0.0
0.026264293,0.011493746,-0.018435925,0.13665879,0.0027742612,0.0
0.030264294,0.007493746,-0.019589162,0.14065878,-0.0011367637,0.0
0.026264293,0.011493746,-0.018417342,0.13665879,0.0028632365,0.0
0.029862389,0.007493746,-0.019576376,0.14065878,-0.0009621824,0.0
0.025862388,0.011297491,-0.01835412,0.13665879,0.0030378178,0.0
0.029862389,0.007297491,-0.019505687,0.14065878,-0.00080641033,0.0
0.025862388,0.011297491,-0.018347438,0.13665879,0.0031935899,0.0
0.029862389,0.007297491,-0.019486766,0.14065878,-0.0006452666,0.0
0.025862388,0.011297491,-0.018311579,0.13665879,0.0033547336,0.0
0.029636115,0.007297491,-0.019481225,0.14065878,-0.00051399367,0.0
0.025636114,0.011297491,-0.01826112,0.13665879,0.0034860065,0.0
0.029636115,0.007297491,-0.019497396,0.14065878,-0.00045887567,0.0
0.025636114,0.011297491,-0.018270366,0.13665879,0.0035411245,0.0
0.029435629,0.007297491,-0.019472746,0.14065878,-0.00028274045,0.0
0.025435628,0.011297491,-0.018236883,0.13665879,0.0037172597,0.0
0.029435629,0.007297491,-0.019482948,0.14065878,-0.00025273883,0.0
0.025435628,0.011297491,-0.018242536,0.13665879,0.0037472614,0.0
0.029164026,0.007297491,-0.01945828,0.14065878,-5.2947085e-05,0.0
0.025164025,0.011297491,-0.0182034,0.13665879,0.003947053,0.0
0.029164026,0.007297491,-0.019475967,0.14065878,-5.2947085e-05,0.0
0.025164025,0.011297491,-0.01821712,0.13665879,0.003947053,0.0
0.029127492,0.007297491,-0.01944664,0.14065878,0.00015058788,0.0
0.025127491,0.011297491,-0.018210588,0.13665879,0.004150588,0.0
0.028792704,0.007297491,-0.019439489,0.14065878,0.00022694841,0.0
0.024792703,0.011162476,-0.018157957,0.13665879,0.0042269486,0.0
0.028792704,0.0071624755,-0.019390343,0.14065878,0.00041777547,0.0
0.024792703,0.011162476,-0.018161852,0.13665879,0.0044177757,0.0
0.028792704,0.0071624755,-0.019371513,0.14065878,0.00052782474,0.0
0.024792703,0.011162476,-0.01813226,0.13665879,0.004527825,0.0
0.028451402,0.0071624755,-0.019366853,0.14065878,0.0006960428,0.0
0.024451401,0.011162476,-0.018078977,0.13665879,0.004696043,0.0
0.028451402,0.0071624755,-0.019396273,0.14065878,0.000696043,0.0
0.024451401,0.011162476,-0.01810226,0.13665879,0.004696043,0.0
0.028451402,0.0071624755,-0.019365339,0.14056359,0.0008861958,0.0
0.024451401,0.011162476,-0.018084705,0.1365636,0.004886196,0.0
0.028191661,0.0071624755,-0.019351844,0.14045726,0.00096266903,0.0
0.02419166,0.011130883,-0.018025657,0.13645726,0.004962669,0.0
0.028191661,0.007130883,-0.01934505,0.14045392,0.0010468904,0.0
0.02419166,0.011130883,-0.018045194,0.13645393,0.0050468906,0.0
0.028075997,0.007130883,-0.019318191,0.1402577,0.0012095687,0.0
0.024075996,0.011100975,-0.017991295,0.13625771,0.005209569,0.0
0.0278827,0.0071009747,-0.01929897,0.14023487,0.0012586415,0.0
0.0238827,0.011088698,-0.0179676,0.13623488,0.0052586417,0.0
0.0278827,0.007088698,-0.019290136,0.14015177,0.0013891659,0.0
0.0238827,0.011065714,-0.017967938,0.13615178,0.005389166,0.0
0.027591893,0.007065714,-0.019255662,0.13999702,0.0015184176,0.0
0.023591893,0.010993134,-0.017898332,0.13599703,0.005518418,0.0
0.027591893,0.006993134,-0.019231275,0.13999702,0.0015835864,0.0
0.023591893,0.010993134,-0.017911958,0.13599703,0.0055835866,0.0
0.027542595,0.006993134,-0.019205598,0.13979003,0.0017694347,0.0
0.023542594,0.010993134,-0.017867994,0.13579004,0.005769435,0.0
0.027166894,0.006993134,-0.019193038,0.13977008,0.0017923806,0.0
0.023166893,0.010946046,-0.017819462,0.13577008,0.005792381,0.0
0.027166894,0.0069460454,-0.019190494,0.13977008,0.001901756,0.0
0.023166893,0.010946046,-0.017849615,0.13577008,0.005901756,0.0
0.027166894,0.0069460454,-0.019164104,0.13960414,0.0020378577,0.0
0.023166893,0.010946046,-0.017813306,0.13560414,0.006037858,0.0
0.027009455,0.0069460454,-0.019151097,0.13950135,0.0021307631,0.0
0.023009455,0.0109193195,-0.01777595,0.13550135,0.0061307633,0.0
0.026998973,0.0069193193,-0.019135507,0.13944715,0.0022314545,0.0
0.022998972,0.0109193195,-0.01777887,0.13544716,0.0062314547,0.0
0.026560724,0.0069193193,-0.019090964,0.13903144,0.0024188377,0.0
0.022560723,0.01074092,-0.017665956,0.13503145,0.006418838,0.0
0.026560724,0.00674092,-0.019046793,0.13903144,0.002418838,0.0
0.022560723,0.01074092,-0.017694553,0.13503145,0.006418838,0.0
0.026560724,0.00674092,-0.019013012,0.13903144,0.0026016168,0.0
0.022560723,0.01074092,-0.017677821,0.13503145,0.0066016167,0.0
0.026488593,0.00674092,-0.019010691,0.13903144,0.0027118158,0.0
0.022488592,0.01074092,-0.017654426,0.13503145,0.006711816,0.0
0.02628152,0.00674092,-0.01901625,0.13892019,0.0028361639,0.0
0.02228152,0.01074092,-0.017612036,0.1349202,0.006836164,0.0
0.02628152,0.00674092,-0.019025963,0.13892019,0.002853008,0.0
0.02228152,0.01074092,-0.017631387,0.1349202,0.006853008,0.0
0.026094476,0.00674092,-0.01900283,0.1387438,0.00305353,0.0
0.022094475,0.01074092,-0.017583081,0.13474381,0.00705353,0.0
0.026094476,0.00674092,-0.019010989,0.1387438,0.0030535297,0.0
0.022094475,0.01074092,-0.017600656,0.13474381,0.00705353,0.0
0.025796518,0.00674092,-0.018987015,0.13860731,0.0032252667,0.0
0.021796517,0.010715204,-0.017547261,0.13460732,0.0072252667,0.0
0.025796518,0.006715204,-0.018992947,0.13860731,0.0032252665,0.0
0.021796517,0.010715204,-0.017571665,0.13460732,0.0072252667,0.0
0.025796518,0.006715204,-0.018965341,0.13849168,0.0034092811,0.0
0.021796517,0.010715204,-0.017556543,0.13449168,0.007409281,0.0
0.025426617,0.006715204,-0.01895705,0.13840847,0.0034729522,0.0
0.021426616,0.010570081,-0.0174942,0.13440847,0.0074729524,0.0
0.025426617,0.0065700808,-0.018904198,0.1383644,0.0036355183,0.0
0.021426616,0.010570081,-0.017502548,0.13436441,0.0076355184,0.0
0.025426617,0.0065700808,-0.018884301,0.13816883,0.0037551874,0.0
0.021426616,0.010570081,-0.01745209,0.13416883,0.0077551873,0.0
0.025173167,0.0065700808,-0.018877266,0.13807072,0.0038486542,0.0
0.021173166,0.010570081,-0.017408388,0.13407072,0.007848654,0.0
0.025173167,0.0065700808,-0.018889917,0.13807072,0.0038765785,0.0
0.021173166,0.010570081,-0.01743841,0.13407072,0.007876579,0.0
0.02515359,0.0065700808,-0.01886568,0.13792376,0.004061379,0.0
0.02115359,0.010570081,-0.017418943,0.13392377,0.008061379,0.0
0.024756927,0.0065700808,-0.018858343,0.13786738,0.004103677,0.0
0.020756926,0.010553386,-0.017361749,0.13386738,0.008103677,0.0
0.024756927,0.006553386,-0.01887704,0.13786738,0.0041400604,0.0
0.020756926,0.010488742,-0.017405057,0.13386738,0.008140061,0.0
0.024756927,0.006488742,-0.018812228,0.13770257,0.0043790243,0.0
0.020756926,0.010488742,-0.017372604,0.13370258,0.008379024,0.0
0.024731249,0.006488742,-0.01880768,0.13762502,0.004412563,0.0
0.020731248,0.010488742,-0.017346738,0.13362503,0.008412563,0.0
0.02436947,0.006488742,-0.018801933,0.13746028,0.004586808,0.0
0.02036947,0.010488742,-0.017284153,0.13346028,0.008586808,0.0
0.02436947,0.006488742,-0.01882853,0.13746028,0.004586808,0.0
0.02036947,0.010409686,-0.01732531,0.13346028,0.008586808,0.0
0.02436947,0.0064096856,-0.018753666,0.13737665,0.004764122,0.0
0.02036947,0.010409686,-0.017308913,0.13337666,0.008764122,0.0
0.024232471,0.0064096856,-0.018749362,0.13722326,0.004872262,0.0
0.02023247,0.010409686,-0.01725546,0.13322327,0.008872262,0.0
0.024170298,0.0064096856,-0.0187587,0.13721076,0.0049237306,0.0
0.020170297,0.010409686,-0.017265005,0.13321076,0.008923731,0.0
0.023999533,0.0064096856,-0.018749287,0.1370739,0.0050696395,0.0
0.019999532,0.010409686,-0.017234312,0.13307391,0.00906964,0.0
0.023999533,0.0064096856,-0.018756097,0.1370739,0.005072709,0.0
0.019999532,0.010409686,-0.017255722,0.13307391,0.00907271,0.0
0.023739982,0.0064096856,-0.018737402,0.13689843,0.0052814283,0.0
0.019739982,0.010284664,-0.017204816,0.13289843,0.0092814285,0.0
0.023739982,0.006284664,-0.018687038,0.13689843,0.005328405,0.0
0.019739982,0.010284664,-0.01721045,0.13289843,0.009328405,0.0
0.023651082,0.006284664,-0.018672045,0.13663834,0.00555584,0.0
0.019651081,0.010284664,-0.017152205,0.13263835,0.009555841,0.0
0.023411108,0.006284664,-0.018678315,0.13663834,0.0055558407,0.0
0.019411108,0.010284664,-0.0171316,0.13263835,0.009555841,0.0
0.023411108,0.006284664,-0.018686663,0.13663834,0.0056293937,0.0
0.019411108,0.010284664,-0.017168302,0.13263835,0.009629394,0.0
0.023411108,0.006284664,-0.018669069,0.1364872,0.0057752277,0.0
0.019411108,0.010284664,-0.017151644,0.13248721,0.009775228,0.0
0.023017025,0.006284664,-0.018662257,0.13639706,0.0058505028,0.0
0.019017024,0.010228329,-0.017092071,0.13239707,0.009850503,0.0
0.023017025,0.006228329,-0.018661901,0.13639706,0.0058891694,0.0
0.019017024,0.010228329,-0.017129429,0.13239707,0.00988917,0.0
0.023017025,0.006228329,-0.01863746,0.13626142,0.0060777883,0.0
0.019017024,0.010228329,-0.017109385,0.13226143,0.0100777885,0.0
0.023017025,0.006228329,-0.018634895,0.13618916,0.006132289,0.0
0.019017024,0.010228329,-0.017103976,0.13218917,0.010132289,0.0
0.022637954,0.006228329,-0.01862651,0.13602279,0.0062951543,0.0
0.018637953,0.01012266,-0.017038375,0.1320228,0.0102951545,0.0
0.022637954,0.0061226594,-0.01859823,0.13602279,0.006303688,0.0
0.018637953,0.01012266,-0.01706252,0.1320228,0.010303688,0.0
0.022637954,0.0061226594,-0.018575452,0.13584106,0.0065423152,0.0
0.018637953,0.01012266,-0.017037665,0.13184106,0.010542315,0.0
0.022534456,0.0061226594,-0.018576108,0.13581066,0.0065461337,0.0
0.018534455,0.01012266,-0.01702215,0.13181067,0.010546134,0.0
0.022463,0.0061226594,-0.018569108,0.13569103,0.006719106,0.0
0.018462999,0.01012266,-0.017022803,0.13169104,0.010719106,0.0
0.022287931,0.0061226594,-0.018570606,0.13564873,0.006744073,0.0
0.01828793,0.01012266,-0.017000027,0.13164873,0.0107440725,0.0
0.022287931,0.0061226594,-0.018580131,0.13558666,0.006857229,0.0
0.01828793,0.01012266,-0.017019548,0.13158667,0.010857229,0.0
0.022096654,0.0061226594,-0.018568734,0.1354634,0.00696069,0.0
0.018096654,0.01012266,-0.016975379,0.13146341,0.010960691,0.0
0.022096654,0.0061226594,-0.018581217,0.1354634,0.006998309,0.0
0.018096654,0.0101085855,-0.01700901,0.13146341,0.010998309,0.0
0.021913351,0.0061085853,-0.0185564,0.13528134,0.0071891733,0.0
0.01791335,0.010040871,-0.016967723,0.13128135,0.011189174,0.0
0.021913351,0.0060408707,-0.018534746,0.13528101,0.0072196806,0.0
0.01791335,0.010040871,-0.016980506,0.13128102,0.01121968,0.0
0.021663569,0.0060408707,-0.018526737,0.13503323,0.0074346135,0.0
0.017663568,0.010040871,-0.016916106,0.13103324,0.011434614,0.0
0.021663569,0.0060408707,-0.018548183,0.13503323,0.0074346135,0.0
0.017663568,0.010032636,-0.016955072,0.13103324,0.011434614,0.0
0.021657918,0.006032636,-0.018525893,0.13499354,0.007526133,0.0
0.017657917,0.010032636,-0.01696529,0.13099355,0.011526134,0.0
0.021321295,0.006032636,-0.01852653,0.13483463,0.0076647433,0.0
0.017321294,0.009889348,-0.016903697,0.13083464,0.011664744,0.0
0.021321295,0.005889348,-0.018466545,0.13483463,0.0077498257,0.0
0.017321294,0.009889348,-0.016921775,0.13083464,0.011749826,0.0
0.021321295,0.005889348,-0.01846168,0.13457565,0.007950834,0.0
0.017321294,0.009889348,-0.016877681,0.13057566,0.011950834,0.0
0.021068817,0.005889348,-0.018467424,0.13454412,0.00795585,0.0
0.017068816,0.009889348,-0.016847568,0.13054413,0.01195585,0.0
0.021068817,0.005889348,-0.01848629,0.13452372,0.008052761,0.0
0.017068816,0.009889348,-0.016887208,0.13052373,0.012052761,0.0
0.021068817,0.005889348,-0.01847568,0.13437904,0.00817112,0.0
0.017068816,0.009889348,-0.01687886,0.13037905,0.012171119,0.0
0.020788416,0.005889348,-0.018474555,0.13427423,0.008258485,0.0
0.016788416,0.009889348,-0.016825745,0.13027424,0.012258485,0.0
0.020788416,0.005889348,-0.01849754,0.13427423,0.008271436,0.0
0.016788416,0.009889348,-0.016872797,0.13027424,0.012271436,0.0
0.020788416,0.005889348,-0.01847944,0.13415162,0.008454328,0.0
0.016788416,0.009889348,-0.016876372,0.13015163,0.012454329,0.0
0.020566184,0.005889348,-0.018481089,0.13407801,0.008502952,0.0
0.016566183,0.009838703,-0.016842926,0.13007802,0.012502952,0.0
0.020566184,0.005838703,-0.018444125,0.13402909,0.008630482,0.0
0.016566183,0.009838703,-0.016861998,0.1300291,0.012630481,0.0
0.020462347,0.005838703,-0.018448953,0.1338617,0.008747756,0.0
0.016462347,0.009838703,-0.016821852,0.12986171,0.012747755,0.0
0.020355744,0.005838703,-0.01846473,0.13384041,0.008788144,0.0
0.016355744,0.009838703,-0.01682831,0.12984042,0.012788145,0.0
0.020352487,0.005838703,-0.018469503,0.1337359,0.008914925,0.0
0.016352486,0.009813474,-0.016838752,0.1297359,0.012914926,0.0
0.020004822,0.0058134734,-0.018453462,0.13360196,0.009025536,0.0
0.016004821,0.009717087,-0.016776634,0.12960197,0.013025535,0.0
0.020004822,0.005717087,-0.018430592,0.13360196,0.009090292,0.0
0.016004821,0.009717087,-0.016803266,0.12960197,0.013090292,0.0
0.020004822,0.005717087,-0.018420279,0.13337861,0.009284601,0.0
0.016004821,0.009717087,-0.016776223,0.12937862,0.013284601,0.0
0.019884441,0.005717087,-0.0184267,0.13333935,0.009301744,0.0
0.01588444,0.009717087,-0.01676533,0.12933935,0.013301745,0.0
0.019884441,0.005717087,-0.018435702,0.13323274,0.009440354,0.0
0.01588444,0.009717087,-0.01677916,0.12923275,0.013440354,0.0
0.019505708,0.005717087,-0.018422414,0.13313587,0.009526185,0.0
0.015505707,0.009703948,-0.01672451,0.12913588,0.0135261845,0.0
0.019505708,0.005703948,-0.018452378,0.13313587,0.009526184,0.0
0.015505707,0.009649523,-0.016770028,0.12913588,0.0135261845,0.0
0.019505708,0.0056495224,-0.01840439,0.13299647,0.00974939,0.0
0.015505707,0.009649523,-0.0167614,0.12899648,0.013749391,0.0
0.019505708,0.0056495224,-0.018412026,0.13290101,0.009795207,0.0
0.015505707,0.009649523,-0.016710287,0.12890102,0.013795206,0.0
0.019154634,0.0056495224,-0.018414104,0.13273244,0.009957361,0.0
0.015154634,0.009649523,-0.016666697,0.12873244,0.013957361,0.0
0.019154634,0.0056495224,-0.018437874,0.13273244,0.00995736,0.0
0.015154634,0.009616208,-0.016721815,0.12873244,0.013957361,0.0
0.019154634,0.005616208,-0.01839698,0.13269947,0.010075533,0.0
0.015154634,0.009616208,-0.016737912,0.12869948,0.014075533,0.0
0.019154634,0.005616208,-0.01840104,0.13252708,0.010212683,0.0
0.015154634,0.009616208,-0.016720356,0.12852709,0.014212683,0.0
0.018806107,0.005616208,-0.018408077,0.13243896,0.010281894,0.0
0.014806107,0.009605128,-0.0166696,0.12843896,0.014281895,0.0
0.018806107,0.005605128,-0.018432165,0.13243896,0.0102831675,0.0
0.014806107,0.009560061,-0.01671738,0.12843896,0.014283167,0.0
0.018806107,0.0055600605,-0.018390166,0.13228066,0.010522281,0.0
0.014806107,0.009560061,-0.016710885,0.12828067,0.014522281,0.0
0.018806107,0.0055600605,-0.018398326,0.13220929,0.010545826,0.0
0.014806107,0.009560061,-0.016705327,0.1282093,0.014545826,0.0
0.018447623,0.0055600605,-0.018402293,0.13202325,0.010722953,0.0
0.014447622,0.009534233,-0.016644089,0.12802325,0.014722953,0.0
0.018447623,0.005534233,-0.018412307,0.13202325,0.010722952,0.0
0.014447622,0.009534233,-0.016691627,0.12802325,0.014722953,0.0
0.018447623,0.005534233,-0.018401021,0.13199173,0.010828659,0.0
0.014447622,0.009534233,-0.016708883,0.12799174,0.01482866,0.0
0.018447623,0.005534233,-0.0184101,0.13183923,0.010954954,0.0
0.014447622,0.009534233,-0.01670033,0.12783924,0.014954954,0.0
0.018154422,0.005534233,-0.018418558,0.13173877,0.011031539,0.0
0.014154421,0.009508143,-0.01661914,0.12773877,0.015031539,0.0
0.018154422,0.005508143,-0.018429076,0.13173877,0.011061671,0.0
0.014154421,0.009500657,-0.016676523,0.12773877,0.015061671,0.0
0.018154422,0.005500657,-0.018406898,0.1315755,0.011249467,0.0
0.014154421,0.009500657,-0.016679855,0.1275755,0.0152494665,0.0
0.017958542,0.005500657,-0.01841257,0.13151024,0.011283267,0.0
0.013958542,0.009462851,-0.016655205,0.12751025,0.015283268,0.0
0.017958542,0.005462851,-0.01840905,0.13143612,0.01140537,0.0
0.013958542,0.009462851,-0.016678246,0.12743613,0.01540537,0.0
0.017869154,0.005462851,-0.018408544,0.13128921,0.011512799,0.0
0.013869153,0.009462851,-0.016658407,0.12728922,0.0155128,0.0
0.017751617,0.005462851,-0.018422002,0.13124594,0.011565577,0.0
0.013751617,0.009437734,-0.016661776,0.12724595,0.015565578,0.0
0.017751617,0.005437734,-0.01841663,0.1311338,0.011693707,0.0
0.013751617,0.009437734,-0.016674353,0.1271338,0.015693707,0.0
0.017432738,0.005437734,-0.018418727,0.13101012,0.011783954,0.0
0.013432737,0.009338727,-0.01662135,0.12701012,0.015783954,0.0
0.017432738,0.005338727,-0.018389305,0.13101012,0.011861737,0.0
0.013432737,0.009338727,-0.01665324,0.12701012,0.015861737,0.0
0.017432738,0.005338727,-0.01837422,0.13077594,0.012055446,0.0
0.013432737,0.009338727,-0.016632523,0.12677595,0.016055446,0.0
0.017258717,0.005338727,-0.018389491,0.13073148,0.012063419,0.0
0.013258716,0.009338727,-0.016611747,0.12673149,0.01606342,0.0
0.017258717,0.005338727,-0.018406505,0.13065998,0.012177548,0.0
0.013258716,0.009338727,-0.016641805,0.12665999,0.016177548,0.0
0.017142305,0.005338727,-0.018406319,0.13053642,0.012270379,0.0
0.0131423045,0.009338727,-0.016590413,0.12653643,0.016270379,0.0
0.017062312,0.005338727,-0.018418333,0.13049649,0.012323757,0.0
0.013062311,0.009338727,-0.016617438,0.1264965,0.016323756,0.0
0.016998978,0.005338727,-0.018415956,0.13039063,0.012438784,0.0
0.012998978,0.009338727,-0.01662835,0.12639064,0.016438784,0.0
0.016850486,0.005338727,-0.018421084,0.13032568,0.012499724,0.0
0.012850486,0.009338727,-0.01662249,0.12632568,0.016499724,0.0
0.016850486,0.005338727,-0.018433569,0.13027728,0.012575522,0.0
0.012850486,0.009327423,-0.01665414,0.12627728,0.016575523,0.0
0.016672013,0.0053274226,-0.018426307,0.13011333,0.012716191,0.0
0.012672013,0.00927719,-0.01662161,0.12611334,0.016716192,0.0
0.016672013,0.00527719,-0.018416218,0.13009547,0.012759836,0.0
0.012672013,0.00927719,-0.016645493,0.12609547,0.016759837,0.0
0.016498066,0.00527719,-0.018414402,0.12987493,0.012945423,0.0
0.012498066,0.00927719,-0.016604168,0.12587494,0.016945424,0.0
0.016498066,0.00527719,-0.018437237,0.12987493,0.012945423,0.0
0.012498066,0.00927719,-0.016641693,0.12587494,0.016945424,0.0
0.016331458,0.00527719,-0.018432071,0.12975413,0.01307752,0.0
0.012331458,0.009251287,-0.016623314,0.12575413,0.01707752,0.0
0.016331458,0.005251287,-0.018435702,0.12974246,0.013111732,0.0
0.012331458,0.009251287,-0.016642872,0.12574247,0.017111732,0.0
0.016144788,0.005251287,-0.018435983,0.12952928,0.013302296,0.0
0.012144787,0.009228191,-0.016606601,0.12552929,0.017302297,0.0
0.016144788,0.005228191,-0.018445078,0.12952928,0.013302296,0.0
0.012144787,0.009228191,-0.016642854,0.12552929,0.017302297,0.0
0.016017893,0.005228191,-0.018438715,0.12937376,0.013466622,0.0
0.012017893,0.009228191,-0.016624419,0.12537377,0.017466621,0.0
0.015977018,0.005228191,-0.018424809,0.12937376,0.013466621,0.0
0.011977017,0.009228191,-0.016643677,0.12537377,0.017466621,0.0
0.01580734,0.005228191,-0.018440137,0.12921864,0.013630911,0.0
0.011807339,0.009158905,-0.016613975,0.12521864,0.01763091,0.0
0.01580734,0.0051589045,-0.018421477,0.12919244,0.013673208,0.0
0.011807339,0.009158905,-0.016628928,0.12519245,0.017673207,0.0
0.015617037,0.0051589045,-0.018426718,0.12895451,0.013866506,0.0
0.011617037,0.009158905,-0.016574597,0.124954514,0.017866505,0.0
0.015617037,0.0051589045,-0.018454267,0.12895451,0.013866505,0.0
0.011617037,0.009158905,-0.016611785,0.124954514,0.017866505,0.0
0.0155049665,0.0051589045,-0.018450487,0.12885375,0.013976443,0.0
0.011504967,0.009158905,-0.016602315,0.12485375,0.017976442,0.0
0.015496208,0.0051589045,-0.018467743,0.12881385,0.014026077,0.0
0.011496209,0.009158905,-0.016622977,0.12481385,0.018026078,0.0
0.015223068,0.0051589045,-0.018472815,0.12864439,0.014172061,0.0
0.011223068,0.0090801865,-0.016571788,0.12464439,0.018172061,0.0
0.015223069,0.0050801863,-0.018451741,0.12864439,0.014190889,0.0
0.011223068,0.0090801865,-0.016597955,0.12464439,0.018190889,0.0
0.015223069,0.0050801863,-0.018447885,0.12842052,0.014405896,0.0
0.011223068,0.0090801865,-0.016582794,0.124420516,0.018405896,0.0
0.014934919,0.0050801863,-0.018453931,0.1283888,0.01440904,0.0
0.010934919,0.0090801865,-0.0165422,0.12438881,0.01840904,0.0
0.01493492,0.0050801863,-0.018480415,0.1283888,0.014476006,0.0
0.010934919,0.0090801865,-0.016589306,0.12438881,0.018476006,0.0
0.01493492,0.0050801863,-0.018477215,0.1282297,0.014610498,0.0
0.010934919,0.0090801865,-0.016587118,0.12422969,0.018610498,0.0
0.0149043,0.0050801863,-0.018486852,0.0,0.014673533,0.0
0.010904299,0.0010801861,-0.014486851,0.0,0.010673532,0.0
0.006904299,0.0050801863,-0.0104868505,0.0,0.006673532,0.0
0.0029042987,0.0090801865,-0.0064868503,0.0,0.0026735319,0.0
-0.0010957015,0.0050801863,-0.0024868501,0.0,-0.0013264683,0.0
-0.0050957017,0.0010801861,-0.0026464225,0.0,-0.0053264685,0.0
-0.0010957015,0.0050801863,-0.00056362804,0.0,-0.005480153,0.0
-0.005053301,0.0010801861,-0.004563628,0.0,-0.007320671,0.0
-0.0010533007,0.0050801863,-0.00056362804,0.0,-0.003334193,0.0
-0.0050224946,0.0010801861,-0.004563628,0.0,-0.007334193,0.0
-0.0010224944,0.0050801863,-0.0009276704,0.0,-0.003334193,0.0
-0.0047009373,0.0010801861,-0.0049276706,0.0,-0.007002614,0.0
-0.0007009371,0.0049890117,-0.0013675117,0.0,-0.0030026138,0.0
-0.0047009373,0.0009890115,-0.005367512,0.0,-0.006375707,0.0
-0.0007009371,0.0047229845,-0.0013675117,0.0,-0.002375707,0.0
-0.0047009373,0.0007229843,-0.005367512,0.0,-0.006009513,0.0
-0.0007009371,0.0047229845,-0.0013675117,0.0,-0.0020095129,0.0
