Der-mark/objtrans/data/sim/qtarget_trajectory.csv
q0,q1,q2,q3,q4,q5
0.0,0.0,0.0,0.0,0.0,0.0
-0.004,-0.004,0.004,-0.004,-0.004,-0.004
-0.008,0.0,0.0,0.0,0.0,0.0
-0.012,0.004,-0.004,0.004,0.004,0.004
-0.016,0.008,-0.008,0.008,0.008,0.008
-0.020000001,0.012,-0.012,0.012,0.012,0.012
-0.022699324,0.016,-0.016,0.016,0.016,0.016
-0.022457797,0.020000001,-0.020000001,0.020000001,0.020000001,0.020000001
-0.02276863,0.024000002,-0.024000002,0.024000002,0.024000002,0.024000002
-0.02676863,0.028000003,-0.028000003,0.028000003,0.028000003,0.028000003
-0.023669273,0.032,-0.032,0.032,0.032,0.032
-0.022511175,0.036000002,-0.036000002,0.036000002,0.036000002,0.036000002
-0.026511176,0.040000003,-0.040000003,0.040000003,0.040000003,0.040000003
-0.030511176,0.044000003,-0.044000003,0.044000003,0.044000003,0.044000003
-0.034511175,0.048000004,-0.048000004,0.048000004,0.048000004,0.048000004
-0.038511176,0.052000005,-0.052000005,0.052000005,0.052000005,0.052000005
-0.041663036,0.056000005,-0.056000005,0.056000005,0.056000005,0.056000005
-0.045663036,0.060000006,-0.060000006,0.060000006,0.060000006,0.060000006
-0.049663037,0.064,-0.064,0.061429303,0.064,0.064
-0.053663038,0.068,-0.068,0.059997767,0.068,0.068
-0.05766304,0.072000004,-0.072000004,0.057167064,0.072000004,0.072000004
-0.06166304,0.076000005,-0.076000005,0.053167064,0.076000005,0.076000005
-0.060264435,0.080000006,-0.080000006,0.052142687,0.080000006,0.080000006
-0.060248524,0.08400001,-0.08400001,0.05047353,0.08400001,0.08400001
-0.061749276,0.08800001,-0.08800001,0.04647353,0.08800001,0.08800001
-0.06223036,0.09200001,-0.09200001,0.04247353,0.09200001,0.09200001
-0.06277445,0.09600001,-0.09600001,0.038831104,0.09559747,0.09600001
-0.06355148,0.10000001,-0.10000001,0.034831103,0.099154525,0.10000001
-0.06360735,0.10400001,-0.10400001,0.030831102,0.101964526,0.10400001
-0.0635483,0.10800001,-0.10800001,0.029703116,0.10202553,0.10800001
-0.06368481,0.11200001,-0.11200001,0.027185423,0.10358367,0.11200001
-0.06364884,0.11600001,-0.11600001,0.024165094,0.10580202,0.11600001
-0.06374424,0.11795086,-0.12000001,0.022194164,0.10680059,0.12000001
-0.06383007,0.12195086,-0.12400001,0.018194163,0.10915325,0.12400001
-0.0632099,0.119985096,-0.128,0.020216273,0.10981792,0.128
-0.06344891,0.1239851,-0.132,0.016216272,0.11084614,0.132
-0.06341407,0.12744658,-0.13599999,0.012722142,0.11231635,0.13599999
-0.062976696,0.1268817,-0.13999999,0.01353093,0.11346187,0.13999999
-0.06281417,0.12908258,-0.14399998,0.0114680305,0.114571266,0.14399998
-0.062467437,0.12992145,-0.14799997,0.010632967,0.11637866,0.14799997
-0.062174458,0.1294894,-0.15199997,0.011136685,0.11734799,0.15199997
-0.061739035,0.12977682,-0.15599996,0.0111950785,0.11798582,0.15599996
-0.061603684,0.13117841,-0.15999995,0.009364368,0.1202262,0.15999995
-0.061093338,0.12983988,-0.16399994,0.011002043,0.12039067,0.16399994
-0.060715985,0.1297665,-0.16799994,0.011711449,0.12010323,0.16799994
-0.060194828,0.13022211,-0.17199993,0.010657895,0.12283001,0.17199993
-0.059393,0.12866749,-0.17599992,0.01315171,0.122189894,0.17599992
-0.059362024,0.13026021,-0.17999992,0.010684585,0.12498637,0.17999992
-0.058870137,0.12978521,-0.18322575,0.0110304905,0.12618442,0.18399991
-0.058591343,0.12975323,-0.1837342,0.011031277,0.12711363,0.1879999
-0.057277042,0.1283003,-0.18395403,0.012424374,0.12926003,0.1919999
-0.05735767,0.12877376,-0.18453425,0.011892431,0.1297432,0.19599989
-0.056695707,0.1277061,-0.18444863,0.012913044,0.13081424,0.19999988
-0.056110144,0.12673654,-0.18425299,0.013886568,0.13180225,0.20399988
-0.055673994,0.1256359,-0.18406104,0.014885472,0.13248418,0.20799987
-0.055168997,0.12448764,-0.18372646,0.015959276,0.13320145,0.21199986
-0.054688152,0.123383634,-0.18338121,0.0169879,0.13390782,0.21599986
-0.054195266,0.12225918,-0.18298934,0.018031271,0.13462448,0.21999985
-0.053680938,0.12109367,-0.18252933,0.01911417,0.13535452,0.22399984
-0.05317765,0.119938865,-0.1820409,0.020183295,0.13606265,0.22799984
-0.052633412,0.11869186,-0.18146493,0.021350041,0.13685478,0.23199983
-0.052505285,0.119020514,-0.18148752,0.02118448,0.13752967,0.23599982
-0.051773608,0.11646823,-0.18036397,0.023409499,0.13794218,0.23999982
-0.051094074,0.114474095,-0.17941478,0.025160179,0.1384615,0.24399981
-0.050862145,0.11431018,-0.17925242,0.025388137,0.13926844,0.2479998
-0.050162416,0.112019435,-0.17789274,0.02750277,0.13948016,0.2519998
-0.049939267,0.11176119,-0.17771196,0.027771303,0.14013919,0.2559998
-0.04948546,0.11036058,-0.17675939,0.029121315,0.140378,0.2599998
-0.049227893,0.10988418,-0.17645247,0.02958124,0.14095303,0.26399982
-0.048534658,0.108277045,-0.17534642,0.03107383,0.14170691,0.26799983
-0.047850538,0.10624949,-0.1735285,0.033189207,0.14205427,0.27199984
-0.0476214,0.10595273,-0.17344317,0.033410244,0.14269263,0.27599984
-0.047102164,0.104402445,-0.17209208,0.035017036,0.14299849,0.27999985
-0.04657333,0.10285457,-0.17076154,0.03659179,0.1434206,0.28399986
-0.04633186,0.10226854,-0.17027727,0.03713855,0.14383422,0.28799987
-0.04595947,0.10098808,-0.16920309,0.038312864,0.14418145,0.29199988
-0.045694675,0.09951567,-0.16782959,0.03971236,0.14402984,0.29599988
-0.0462085,0.10144359,-0.17013568,0.037378266,0.14494325,0.2999999
-0.045528837,0.09744359,-0.16613568,0.041378267,0.14349562,0.3039999
-0.045462526,0.09495712,-0.16346489,0.043499213,0.14271685,0.3079999
-0.04571326,0.095877714,-0.1647113,0.042270854,0.1435592,0.31199992
-0.045706637,0.09407022,-0.16283433,0.043872368,0.14256431,0.314
-0.045785975,0.0930712,-0.1619077,0.044568416,0.14211176,0.314
-0.045887936,0.09239271,-0.16138856,0.044845667,0.14193535,0.314
-0.046023946,0.09129001,-0.16034886,0.045633234,0.14125301,0.314
-0.0461071,0.09094867,-0.16026126,0.045568626,0.1412539,0.314
-0.046201613,0.09042358,-0.15985548,0.045830462,0.14097844,0.314
-0.046295475,0.08978327,-0.15939508,0.046079904,0.14065437,0.314
-0.046399426,0.08914514,-0.15897636,0.04627096,0.14037238,0.314
-0.046483662,0.08860769,-0.1586318,0.046410915,0.14010753,0.314
-0.046591446,0.08802854,-0.15828125,0.046545144,0.13978823,0.314
-0.04665508,0.0876756,-0.15806805,0.046630714,0.13958542,0.314
-0.04672895,0.087206095,-0.15786824,0.04670782,0.13941051,0.314
-0.046771962,0.086907394,-0.1577934,0.046748098,0.13933796,0.314
-0.04680419,0.0866496,-0.15780473,0.046717405,0.1393023,0.314
-0.046818826,0.08638511,-0.1578236,0.04671647,0.13930757,0.314
-0.046802673,0.08623272,-0.15797614,0.046582688,0.1394144,0.314
-0.04680891,0.08590441,-0.15800314,0.046585795,0.13937289,0.314
-0.04681624,0.08561345,-0.1580063,0.046589877,0.13927941,0.314
-0.046754275,0.0855058,-0.15820417,0.04645542,0.13947874,0.314
-0.046723712,0.08528226,-0.15825756,0.046476346,0.13954245,0.314
-0.046662457,0.085031465,-0.15842779,0.04629035,0.13954036,0.314
-0.04657187,0.08487807,-0.15863527,0.0461164,0.1396728,0.314
-0.04653386,0.08463514,-0.15867196,0.04611846,0.13966344,0.314
-0.04642149,0.08448025,-0.15889409,0.045954883,0.13982652,0.314
-0.046374306,0.08427726,-0.15894574,0.045917492,0.13981241,0.314
-0.046294987,0.0840518,-0.15905343,0.045875154,0.13987564,0.314
-0.04619834,0.08382033,-0.15918997,0.045796584,0.13993107,0.314
-0.04609641,0.08359034,-0.15932328,0.045730032,0.14001165,0.314
-0.0459817,0.08334442,-0.1594835,0.045641806,0.14005138,0.314
-0.045890428,0.083157524,-0.15960436,0.045598906,0.14012182,0.314
-0.04577291,0.08290654,-0.15978171,0.045541897,0.14015704,0.314
-0.045653578,0.08266241,-0.15996145,0.04553853,0.14027657,0.314
-0.045560654,0.0824361,-0.16012089,0.045518093,0.1402519,0.314
-0.04537162,0.0820473,-0.16052853,0.045616087,0.14042513,0.314
-0.045235466,0.08183479,-0.16080813,0.045707088,0.140693,0.314
-0.04508106,0.08154478,-0.16112246,0.045768734,0.14081214,0.314
-0.044967603,0.081346385,-0.16132599,0.045813803,0.140949,0.314
-0.04477223,0.08103698,-0.16171482,0.04591562,0.14123261,0.314
-0.044635754,0.08080445,-0.16196148,0.045966,0.14137892,0.314
-0.044474836,0.080547,-0.1622883,0.046065267,0.14163248,0.314
-0.044335905,0.0802962,-0.16252916,0.046112847,0.14174606,0.314
-0.044168923,0.08004878,-0.16287443,0.046203017,0.14201425,0.314
-0.043974165,0.079692125,-0.16323577,0.04629581,0.14220236,0.314
-0.043844428,0.07949408,-0.16349491,0.046356037,0.14240201,0.314
-0.04367767,0.079182275,-0.1638091,0.046432663,0.14254007,0.314
-0.043536123,0.07898422,-0.16410927,0.046495583,0.14278726,0.314
-0.043330323,0.0785776,-0.16449213,0.046584524,0.14290981,0.314
-0.04316783,0.078245915,-0.16475017,0.046611022,0.14287739,0.314
-0.043021847,0.07807695,-0.16508646,0.04667028,0.14321496,0.314
-0.042878088,0.07781254,-0.16530581,0.046669304,0.14319436,0.314
-0.042731937,0.07763668,-0.16561499,0.0466994,0.14345925,0.314
-0.04253995,0.0773428,-0.16595349,0.04669989,0.14355378,0.314
-0.04239286,0.07712603,-0.16622482,0.04670494,0.14366293,0.314
-0.0422413,0.07693922,-0.1665185,0.04670314,0.14384553,0.314
-0.042095747,0.07672446,-0.16678181,0.046699215,0.14393042,0.314
-0.04195087,0.0765299,-0.16705175,0.046690118,0.14404531,0.314
-0.04176313,0.07627656,-0.1674101,0.046681773,0.14420274,0.314
-0.041621283,0.07605294,-0.16767325,0.04668289,0.1442733,0.314
-0.041461766,0.07584744,-0.1679791,0.046664964,0.1443892,0.314
-0.041326117,0.075638615,-0.16824049,0.046666685,0.14447756,0.314
-0.041152976,0.07541215,-0.16856965,0.046639137,0.14455141,0.314
-0.041007124,0.07516652,-0.16887735,0.046665784,0.1447117,0.314
-0.040840942,0.07490671,-0.16918314,0.04664479,0.14467628,0.314
-0.040713,0.07472741,-0.16945949,0.046649616,0.14483963,0.314
-0.040532973,0.07444817,-0.16979985,0.04662712,0.14479914,0.314
-0.040428165,0.07429432,-0.17005603,0.046649355,0.14501594,0.314
-0.040184505,0.07393535,-0.17052536,0.046608668,0.14494236,0.314
-0.040021654,0.07371567,-0.1708631,0.04658692,0.14501064,0.314
-0.039895363,0.073488645,-0.17114095,0.046601664,0.14505099,0.314
-0.039722875,0.073265776,-0.17149734,0.046568613,0.14509808,0.314
-0.03952814,0.07291729,-0.1719406,0.046587776,0.14511041,0.314
-0.039366547,0.07272811,-0.1722627,0.046535037,0.14509761,0.314
-0.039268736,0.072533205,-0.17250793,0.046556484,0.14528377,0.314
-0.03917325,0.07226702,-0.17277561,0.04661836,0.14533839,0.314
-0.039003216,0.07203236,-0.17312819,0.04657277,0.14532475,0.314
-0.038864568,0.071716964,-0.17347814,0.046608403,0.14530125,0.314
-0.03874786,0.071527526,-0.17374453,0.046589762,0.14537762,0.314
-0.038594346,0.07117065,-0.17416665,0.046635654,0.14539745,0.314
-0.038431298,0.07085824,-0.17456281,0.046635244,0.14533217,0.314
-0.038328543,0.07069504,-0.17483163,0.046620008,0.14545794,0.314
-0.038177755,0.070401505,-0.17520292,0.046616938,0.14538614,0.314
-0.038070884,0.070193306,-0.1755219,0.046623863,0.14556196,0.314
-0.037934072,0.0700654,-0.17578922,0.046539754,0.14555283,0.314
-0.037708115,0.0697159,-0.17631519,0.04649016,0.14544626,0.314
-0.03758869,0.069447406,-0.17668128,0.04652261,0.1454862,0.314
-0.037423745,0.0692793,-0.17701183,0.046425324,0.14547,0.314
-0.03731306,0.06901316,-0.17731683,0.04644423,0.14544281,0.314
-0.037191313,0.06881103,-0.17753224,0.046373595,0.14539528,0.314
-0.037067994,0.06829159,-0.17763582,0.046340093,0.144958,0.314
-0.037064474,0.067812614,-0.17724095,0.046232667,0.14427713,0.314
-0.037077855,0.06727472,-0.17688176,0.046171013,0.1435154,0.314
-0.037125114,0.06685391,-0.17641895,0.04603757,0.14279234,0.314
-0.037192117,0.06637183,-0.17588283,0.04586048,0.14190361,0.314
-0.037303947,0.06596337,-0.1753736,0.04577757,0.14114502,0.314
-0.037348583,0.065557234,-0.1750564,0.04563428,0.14044107,0.314
-0.03748201,0.065148674,-0.17452045,0.045518693,0.13960421,0.314
-0.037616707,0.06469006,-0.1739791,0.04533535,0.13866217,0.314
-0.03772189,0.0643178,-0.17357765,0.04517945,0.1378877,0.314
-0.03780495,0.0640837,-0.17327191,0.045053493,0.13733129,0.314
-0.037943486,0.06366043,-0.1727838,0.044827927,0.1363404,0.314
-0.03805694,0.063312195,-0.17241527,0.04464466,0.1355339,0.314
-0.038149454,0.06295147,-0.17212574,0.044472735,0.13473158,0.314
-0.038561556,0.06293264,-0.17091012,0.04404583,0.13377737,0.314
-0.038373593,0.062156003,-0.17150046,0.044065516,0.1328969,0.314
-0.038588416,0.061972406,-0.17090826,0.043783993,0.13209032,0.314
-0.038717274,0.061548825,-0.17067249,0.04370097,0.13136247,0.314
-0.039147962,0.061717417,-0.16935097,0.042976703,0.130089,0.314
-0.03909496,0.060965188,-0.16972242,0.043071147,0.12929076,0.314
-0.039274372,0.06075115,-0.16936138,0.042954355,0.12880652,0.314
-0.039419062,0.060082324,-0.16910535,0.042739686,0.12720656,0.314
-0.03944848,0.05981907,-0.16924073,0.042737514,0.12710135,0.314
-0.03980661,0.05951441,-0.16837136,0.042317867,0.12560356,0.314
-0.040287048,0.05940137,-0.16739188,0.042155754,0.12536313,0.314
-0.040189203,0.058728345,-0.16776042,0.04197447,0.12378251,0.314
-0.040620398,0.058124196,-0.16703735,0.042065542,0.12305498,0.314
-0.04099668,0.057366956,-0.16647042,0.04224349,0.12215419,0.314
-0.040972214,0.05685549,-0.1667201,0.042131867,0.121176735,0.314
-0.041663732,0.056330204,-0.16533631,0.042264678,0.12047937,0.314
-0.041946243,0.055686083,-0.1649029,0.04214119,0.11914374,0.314
-0.04215302,0.05562039,-0.16436169,0.041661017,0.11797758,0.314
-0.042830963,0.05490638,-0.16304605,0.04167741,0.11669803,0.314
-0.043102775,0.05445791,-0.1625599,0.041442677,0.11546798,0.314
-0.0438361,0.053403568,-0.16136181,0.042151373,0.115106694,0.314
-0.04365053,0.053928066,-0.16141449,0.040583245,0.112857535,0.314
-0.044530775,0.052672714,-0.15996134,0.041233208,0.1120736,0.314
-0.04496285,0.052200925,-0.15914056,0.041024078,0.11090304,0.314
-0.0453979,0.05169126,-0.15837042,0.04076771,0.1096606,0.314
-0.04586995,0.051328845,-0.15740263,0.040439207,0.10844785,0.314
-0.046279456,0.050920315,-0.15663321,0.040193506,0.10739314,0.314
-0.046842393,0.050300892,-0.15562472,0.039773297,0.10576923,0.314
-0.047214534,0.04990644,-0.15492466,0.039490577,0.10470809,0.314
-0.047935188,0.049463023,-0.15354916,0.039001156,0.10330047,0.314
-0.04820558,0.0490524,-0.15305088,0.038673628,0.10219268,0.314
-0.048733216,0.04854613,-0.15206575,0.038132705,0.10065865,0.314
-0.0490646,0.048160434,-0.15146464,0.03801734,0.10002717,0.314
-0.049293905,0.047624078,-0.15114906,0.03757654,0.09871437,0.314
-0.049976677,0.04739095,-0.14972104,0.036619864,0.09690679,0.314
-0.05042805,0.04691377,-0.14884876,0.036219683,0.09578781,0.314
-0.050831378,0.04647283,-0.14808445,0.03548411,0.094242774,0.314
-0.0512394,0.04605591,-0.14725444,0.03498612,0.093130305,0.314
-0.05182708,0.045652475,-0.146058,0.03434098,0.09184756,0.314
-0.05193984,0.045379896,-0.14585583,0.03383195,0.09099,0.314
-0.0523494,0.044894744,-0.14511882,0.033114344,0.08971039,0.314
-0.05258238,0.044720948,-0.14452802,0.032541376,0.08885976,0.314
-0.05300354,0.04440854,-0.14359792,0.03154296,0.08750203,0.314
-0.053298593,0.044099767,-0.14302546,0.03077198,0.086501524,0.314
-0.053543042,0.043924738,-0.14213896,0.029913072,0.085535705,0.314
-0.053761303,0.043355063,-0.14263687,0.029151523,0.0847094,0.314
-0.054084957,0.043041985,-0.1412863,0.028492127,0.083911285,0.314
-0.05422012,0.04330644,-0.14026038,0.026949191,0.08269744,0.314
-0.054425757,0.0428762,-0.14006703,0.025784953,0.08185752,0.314
-0.054437023,0.042849176,-0.13906707,0.024991399,0.081317,0.314
-0.054406684,0.042480882,-0.13774815,0.024062343,0.08085648,0.314
-0.054333117,0.042830795,-0.13755183,0.022663858,0.08004492,0.314
-0.054251004,0.04268844,-0.13697614,0.02141959,0.07954581,0.314
-0.053972084,0.04240374,-0.13572171,0.020168323,0.079215966,0.314
-0.053593796,0.042577047,-0.13494866,0.019234328,0.07893085,0.314
-0.05310936,0.042448655,-0.13400765,0.017714374,0.078673914,0.314
-0.052624185,0.042492937,-0.13328584,0.016402954,0.07846265,0.314
-0.05175212,0.042336024,-0.1317844,0.0147743365,0.07840964,0.314
-0.051011067,0.042310085,-0.13084699,0.013515434,0.078426935,0.314
-0.050393533,0.0422381,-0.12974884,0.012352392,0.07836832,0.314
-0.049765825,0.042286612,-0.12894945,0.011029555,0.07828762,0.314
-0.048958927,0.042348973,-0.12793513,0.00945121,0.07822611,0.314
-0.048179712,0.042290952,-0.12685788,0.008194777,0.07827721,0.314
-0.047432877,0.042294923,-0.1259323,0.0069177933,0.07830439,0.314
-0.046673816,0.04223518,-0.12504272,0.00582198,0.07842428,0.314
-0.045982134,0.042267673,-0.124098256,0.004558547,0.07839718,0.314
-0.045057196,0.0422865,-0.122969426,0.0030921593,0.07845374,0.314
-0.04429546,0.042301584,-0.1220473,0.0019272094,0.07851135,0.314
-0.04352216,0.042311504,-0.12109172,0.0007796278,0.078573816,0.314
-0.042748034,0.042296644,-0.120124,-0.00029610365,0.07866186,0.314
-0.04202384,0.0422661,-0.119265854,-0.00120401,0.0787855,0.314
-0.041367084,0.04228302,-0.118322134,-0.0022080035,0.07879542,0.314
-0.04056889,0.042355713,-0.11733337,-0.0033698652,0.078830935,0.314
-0.03993182,0.042290952,-0.11641463,-0.004131264,0.0789222,0.314
-0.039162617,0.042145755,-0.11531031,-0.0047581517,0.0791043,0.314
-0.038494293,0.042308997,-0.11451429,-0.0057569984,0.07908446,0.314
-0.038120724,0.04240314,-0.11412483,-0.006268372,0.07909809,0.314
-0.037351858,0.04225105,-0.112911284,-0.006794905,0.079262935,0.314
-0.03680552,0.04231057,-0.11209607,-0.0074162344,0.079267696,0.314
-0.036265347,0.042319402,-0.11130869,-0.007868765,0.0793314,0.314
-0.0357338,0.042318393,-0.11051454,-0.008262565,0.079396345,0.314
-0.035208352,0.04234104,-0.10977612,-0.008603401,0.0794772,0.314
-0.03458753,0.04231671,-0.108788945,-0.00892784,0.07956344,0.314
-0.03411218,0.04224866,-0.10810393,-0.008938021,0.07972267,0.314
-0.03370047,0.042171996,-0.10726998,-0.008988554,0.079783164,0.314
-0.0332631,0.042096686,-0.10647422,-0.008950729,0.079887934,0.314
-0.03271165,0.0421486,-0.105604425,-0.009174776,0.079941355,0.314
-0.03237099,0.041756433,-0.104650155,-0.008581839,0.08014711,0.314
-0.03170476,0.04248051,-0.10436527,-0.009817984,0.0800249,0.314
-0.03149164,0.04191495,-0.10344356,-0.008919773,0.080262475,0.314
-0.031020079,0.041809358,-0.10252579,-0.008762915,0.080377206,0.314
-0.030780176,0.041427106,-0.10163851,-0.0081332205,0.08052629,0.314
-0.030290682,0.04179394,-0.10113575,-0.008817117,0.08044466,0.314
-0.030045131,0.04138039,-0.10037519,-0.008107486,0.08064829,0.314
-0.029848559,0.041171897,-0.099804156,-0.0077672126,0.08073666,0.314
-0.029326329,0.041554637,-0.09941131,-0.008474466,0.08069152,0.314
-0.02909734,0.041349996,-0.0986711,-0.00812055,0.080752276,0.314
-0.028666971,0.041571777,-0.098103106,-0.008528443,0.08070915,0.314
-0.028475001,0.041231003,-0.09743603,-0.00786811,0.08086603,0.314
-0.028082473,0.04158151,-0.09706297,-0.008506714,0.08077076,0.314
-0.027946725,0.041059826,-0.09624954,-0.0075161955,0.08096009,0.314
-0.02768491,0.04074626,-0.095315345,-0.0069570593,0.08103563,0.314
-0.02744389,0.040813264,-0.09500533,-0.0069406265,0.08108448,0.314
-0.027264664,0.04060836,-0.09423544,-0.006615495,0.08107276,0.314
-0.027009267,0.040785786,-0.093840495,-0.0068894387,0.08100273,0.314
-0.0269173,0.040444598,-0.093149975,-0.0061229495,0.08110293,0.314
-0.026666058,0.04058897,-0.09261163,-0.006284748,0.081015415,0.314
-0.026732368,0.040134475,-0.09211834,-0.005090433,0.08121594,0.314
-0.02645236,0.040299438,-0.09159317,-0.0054752873,0.08107523,0.314
-0.026495144,0.03983551,-0.09102305,-0.004300268,0.08125445,0.314
-0.02618884,0.04014088,-0.09039659,-0.0048240502,0.081025936,0.314
-0.026153803,0.039928414,-0.0898662,-0.004191342,0.08106546,0.314
-0.026088541,0.040190812,-0.08948483,-0.0043033003,0.08088583,0.314
-0.026015569,0.03871765,-0.08840236,-0.0021978035,0.08138973,0.314
-0.025943866,0.03957012,-0.08828941,-0.0029566006,0.081014745,0.314
-0.025997002,0.040145557,-0.08801251,-0.003395712,0.08065001,0.314
-0.02588862,0.03936353,-0.0871037,-0.0021289478,0.080873735,0.314
-0.025908887,0.039652992,-0.08672457,-0.0021375197,0.080654494,0.314
-0.02576573,0.038229987,-0.08566384,-1.1959346e-05,0.08119943,0.314
-0.025820175,0.038983937,-0.085482985,-0.0007736388,0.080740064,0.314
-0.025815964,0.038856484,-0.08501222,-0.00033164502,0.08070462,0.314
-0.025765449,0.038422387,-0.08428814,0.00043723988,0.08075848,0.314
-0.025770202,0.038569905,-0.08386212,0.0005204881,0.08057892,0.314
-0.025759948,0.038422164,-0.08335685,0.0009774545,0.08053883,0.314
-0.025752012,0.03824002,-0.082858704,0.0014704677,0.08051593,0.314
-0.025747372,0.038040023,-0.08224739,0.002019067,0.08046517,0.314
-0.025720587,0.03785799,-0.08188569,0.0024539486,0.08048751,0.314
-0.025729233,0.037664693,-0.08128829,0.002988511,0.08042594,0.314
-0.025750551,0.037488576,-0.08078641,0.003400971,0.0803644,0.314
-0.025770783,0.037402336,-0.08034651,0.0037174565,0.08027517,0.314
-0.025764963,0.03704625,-0.07966269,0.004459166,0.08027681,0.314
-0.02576721,0.03671022,-0.07913129,0.0050028986,0.08029441,0.314
-0.025790343,0.03659722,-0.07866641,0.005446802,0.080214754,0.314
-0.025822759,0.036194935,-0.07817532,0.006142021,0.080277786,0.314
-0.02587387,0.036028665,-0.07763141,0.0066056508,0.08017387,0.314
-0.025948977,0.036002874,-0.07724428,0.006766045,0.08001532,0.314
-0.025971962,0.034975898,-0.076451145,0.008277051,0.08035688,0.314
-0.026013022,0.035236236,-0.07617796,0.00812126,0.080078274,0.314
-0.026059886,0.034932252,-0.07564204,0.00870149,0.080053605,0.314
-0.026006622,0.034826245,-0.075293355,0.008987206,0.08002625,0.314
-0.026085565,0.0341542,-0.07453864,0.010085452,0.08014513,0.314
-0.026095618,0.03410097,-0.07414608,0.010212608,0.08003871,0.314
-0.026189288,0.033516098,-0.0735251,0.011143048,0.08014887,0.314
-0.026291592,0.032956008,-0.072863065,0.0120039405,0.080227815,0.314
-0.026305327,0.032895893,-0.072513156,0.012086627,0.0801452,0.314
-0.026388315,0.032514352,-0.072019786,0.012654542,0.08018458,0.314
-0.02642015,0.03240928,-0.07172833,0.012801199,0.080145314,0.314
-0.026533961,0.031777285,-0.07100797,0.01375189,0.08026873,0.314
-0.026647566,0.031736482,-0.070718214,0.013696265,0.080140896,0.314
-0.026697649,0.03149909,-0.070275396,0.01398726,0.08013805,0.314
-0.027062833,0.03135801,-0.07016762,0.014124746,0.07999072,0.314
-0.02672458,0.030847479,-0.06912587,0.014713697,0.08022969,0.314
-0.026981324,0.030792642,-0.06916854,0.014771529,0.08011937,0.314
-0.027259648,0.030631235,-0.06896161,0.014942256,0.08001127,0.314
-0.027076963,0.030058643,-0.067886315,0.015418911,0.08021643,0.314
-0.027371345,0.030010393,-0.06789415,0.015499914,0.08007719,0.314
-0.027529439,0.029792879,-0.067553066,0.015683254,0.08004702,0.314
-0.027595824,0.029542759,-0.06712838,0.015838671,0.08006473,0.314
-0.02780868,0.029264791,-0.066650115,0.016008124,0.0800237,0.314
-0.027866548,0.029087216,-0.06636204,0.016099868,0.080037884,0.314
-0.028052716,0.028801126,-0.06591041,0.016253902,0.08002168,0.314
-0.028221196,0.028531207,-0.06548114,0.016377013,0.0800234,0.314
-0.028301338,0.028296843,-0.06511045,0.016447535,0.0800438,0.314
-0.02841655,0.028064206,-0.06471873,0.01648141,0.08004863,0.314
-0.028497685,0.027833214,-0.064379245,0.016549423,0.08008673,0.314
-0.028735919,0.027511341,-0.063898735,0.016624661,0.08009475,0.314
-0.028900636,0.027254557,-0.06351824,0.016663065,0.08010527,0.314
-0.029150775,0.026974196,-0.06311793,0.016697241,0.08011339,0.314
-0.029198164,0.026732162,-0.06278065,0.016711803,0.0801753,0.314
-0.029416895,0.02641721,-0.06232456,0.016680209,0.080209136,0.314
-0.029541282,0.026177762,-0.061962593,0.016605759,0.08025061,0.314
-0.02973527,0.025932584,-0.061623354,0.01654946,0.0802843,0.314
-0.02986149,0.025699645,-0.06128834,0.016477592,0.08032529,0.314
-0.030013202,0.02535737,-0.060838576,0.016422717,0.08041434,0.314
-0.030213198,0.02509557,-0.06045964,0.016308887,0.08045117,0.314
-0.030318549,0.024882285,-0.060141917,0.016211303,0.08049122,0.314
-0.030513138,0.024590356,-0.059774935,0.016154518,0.08055852,0.314
-0.03061746,0.024367152,-0.059481453,0.016081415,0.080626614,0.314
-0.030788431,0.024006909,-0.059083533,0.01609691,0.0807388,0.314
-0.030864323,0.02381189,-0.05878045,0.015958602,0.08078779,0.314
-0.031058053,0.023497386,-0.058404185,0.015896166,0.08087018,0.314
-0.031094864,0.02338977,-0.05819837,0.015738016,0.08089926,0.314
-0.031225896,0.023060821,-0.057828862,0.015703917,0.08101617,0.314
-0.031285264,0.022948338,-0.05758911,0.015476144,0.08104132,0.314
-0.031332426,0.022680927,-0.057300776,0.015460722,0.08116196,0.314
-0.031448558,0.022517798,-0.057014268,0.015233736,0.08119179,0.314
-0.03143235,0.022386452,-0.056744147,0.015013151,0.08123873,0.314
-0.03156362,0.022173613,-0.056498386,0.014934582,0.081304915,0.314
-0.03152765,0.021984471,-0.05623002,0.014798817,0.08140897,0.314
-0.031661864,0.02182187,-0.056012373,0.014659758,0.08144869,0.314
-0.03165767,0.021497412,-0.055660218,0.014596874,0.08162304,0.314
-0.031735323,0.021420825,-0.055491325,0.014389052,0.08163341,0.314
-0.03172559,0.021124367,-0.05519498,0.014374829,0.081795305,0.314
-0.031710096,0.020969661,-0.054940104,0.014175616,0.081872456,0.314
-0.031638093,0.020855194,-0.054754555,0.014052691,0.08194825,0.314
-0.031702664,0.020579098,-0.054464873,0.01396409,0.082080014,0.314
-0.031792313,0.020465119,-0.054283407,0.013788198,0.0821058,0.314
-0.03170665,0.02028466,-0.054039836,0.013659957,0.08222667,0.314
-0.031815726,0.0201596,-0.053861957,0.013509444,0.08224898,0.314
-0.031742096,0.019992432,-0.053614385,0.013352344,0.08235203,0.314
-0.03177197,0.019978395,-0.05345871,0.013103946,0.082316466,0.314
-0.03166952,0.019847607,-0.053219408,0.012924986,0.08239814,0.314
-0.031733714,0.019517796,-0.052956022,0.0128950775,0.08258957,0.314
-0.031694915,0.019494815,-0.05282518,0.012736703,0.08258384,0.314
-0.031795025,0.019188922,-0.052556824,0.012651061,0.08273836,0.314
-0.031793416,0.01896695,-0.05231407,0.012560549,0.08285152,0.314
-0.031788178,0.018960064,-0.05212571,0.01228247,0.08280308,0.314
-0.031886697,0.018779531,-0.05196331,0.012148202,0.08289898,0.314
-0.031904906,0.018590052,-0.051733293,0.01204287,0.08297339,0.314
-0.031989332,0.01840016,-0.051573087,0.011936339,0.08307517,0.314
-0.03206412,0.018177142,-0.051303726,0.011766137,0.08315082,0.314
-0.03216674,0.01787301,-0.051061865,0.011673156,0.08330646,0.314
-0.03221677,0.017877912,-0.050912943,0.0114135295,0.083241254,0.314
-0.032294065,0.0175901,-0.050684977,0.011315983,0.08339791,0.314
-0.03230567,0.01758572,-0.05052745,0.011051977,0.08335677,0.314
-0.032382216,0.017298432,-0.05032468,0.010984862,0.08351937,0.314
-0.032417294,0.017254526,-0.050118264,0.0106916595,0.083482504,0.314
-0.03247793,0.017156268,-0.04992996,0.010458909,0.08349153,0.314
-0.032533552,0.01698569,-0.049722087,0.01028313,0.08355299,0.314
-0.03257967,0.016895704,-0.04954668,0.010066175,0.08356309,0.314
-0.03262627,0.016665762,-0.049338486,0.009934902,0.08368116,0.314
-0.03267602,0.016472204,-0.049103115,0.009750139,0.08374887,0.314
-0.032677498,0.01642953,-0.04894927,0.009555906,0.08373509,0.314
-0.032752905,0.016214747,-0.048738007,0.009388174,0.083825454,0.314
-0.032731622,0.016235335,-0.0485513,0.009099688,0.0837534,0.314
-0.03277003,0.016018493,-0.048294406,0.008858628,0.083849445,0.314
-0.032744687,0.015950516,-0.048097737,0.008623482,0.08385499,0.314
-0.032759663,0.015800191,-0.047917392,0.008455189,0.083924495,0.314
-0.032675963,0.015781289,-0.047722895,0.008214391,0.083907954,0.314
-0.03274418,0.015623699,-0.047544982,0.0080443015,0.083959125,0.314
-0.032629006,0.015659036,-0.047314983,0.007725645,0.08389294,0.314
-0.03245334,0.015757106,-0.04697952,0.007243037,0.0837513,0.314
-0.03248467,0.01557938,-0.046829365,0.0071118395,0.08385495,0.314
-0.032270353,0.015713012,-0.04653167,0.0066564824,0.083713755,0.314
-0.032289386,0.0155057525,-0.04640006,0.0065884315,0.083853185,0.314
-0.032313082,0.015336074,-0.046210133,0.0064177434,0.083930075,0.314
-0.032010447,0.015511329,-0.045843244,0.0058543584,0.08376395,0.314
-0.03183959,0.015571221,-0.045589622,0.0054850946,0.0836901,0.31350112
-0.031550333,0.015703505,-0.04533479,0.00507619,0.08360438,0.31256026
-0.03148414,0.015619134,-0.04513511,0.0048477068,0.08364181,0.3117801
-0.031230275,0.015729407,-0.044909716,0.004479379,0.08357245,0.31092837
-0.031305235,0.015486588,-0.044708032,0.004351362,0.08368707,0.31015843
-0.0314386,0.015224154,-0.04457569,0.0043161395,0.083819725,0.30962956
-0.031204728,0.015364224,-0.044338416,0.0039258013,0.08370387,0.3088194
-0.030721202,0.015510169,-0.04412612,0.00362223,0.08370455,0.30786893
-0.030768855,0.015298006,-0.04393735,0.003495636,0.08380767,0.30713496
-0.031119347,0.015524206,-0.04363026,0.0027310182,0.083336785,0.30660522
-0.030752832,0.01529445,-0.043535933,0.0028943704,0.08366846,0.30584654
-0.03062242,0.015556547,-0.04323588,0.002255261,0.08337496,0.30500427
-0.03034539,0.01533091,-0.043115687,0.0023521343,0.08365405,0.30423647
-0.030249078,0.015368267,-0.042863157,0.0019633311,0.083567664,0.30339083
-0.030254206,0.015373506,-0.042660203,0.0016507761,0.0834834,0.30276307
-0.030172998,0.015327016,-0.042413544,0.0013473922,0.08346509,0.30190036
-0.030158643,0.015269932,-0.04220741,0.0010910971,0.083443835,0.30120015
-0.03019976,0.015283184,-0.041989665,0.0007442174,0.08332802,0.30057442
-0.03031754,0.015238377,-0.04176373,0.00042271637,0.08322407,0.29995623
-0.03047728,0.015289809,-0.04145922,-0.00011564529,0.082983725,0.29920277
-0.030956537,0.015146258,-0.041261397,-0.00043636025,0.08282449,0.2988361
-0.03066193,0.015249944,-0.041027747,-0.00076334504,0.08276037,0.29802147
-0.030896664,0.015109986,-0.040838003,-0.001000999,0.08270826,0.29749334
-0.030363655,0.015333004,-0.040575158,-0.001409903,0.082629435,0.29650792
-0.032094724,0.014650888,-0.04061581,-0.0014172023,0.08251777,0.2971943
-0.030987231,0.015136003,-0.04013019,-0.002063648,0.082342595,0.29550678
-0.03074252,0.014870049,-0.03998172,-0.0019776113,0.082630776,0.2946423
-0.030083347,0.01548363,-0.03963435,-0.0028580239,0.082225166,0.29360577
-0.0312462,0.015011653,-0.039527185,-0.0028924986,0.0820766,0.2938464
-0.031227786,0.014959362,-0.039420146,-0.003001687,0.082088135,0.2934597
-0.03083404,0.015156402,-0.03907209,-0.0035482463,0.08193257,0.29233137
-0.0326468,0.014449018,-0.039546724,-0.0028907766,0.081960864,0.29443642
-0.03152844,0.014836137,-0.038892586,-0.0037153603,0.08182282,0.2921023
-0.031985328,0.014731253,-0.038816374,-0.0038734344,0.08167283,0.2921537
-0.030841976,0.015059267,-0.03831346,-0.0045438553,0.0816802,0.2900723
-0.031729877,0.014714259,-0.038418345,-0.0043138373,0.08161806,0.29084834
-0.032039158,0.014571532,-0.038411476,-0.004284341,0.08159482,0.290978
-0.03255811,0.014418735,-0.038459536,-0.0042359605,0.08150413,0.29143688
-0.032302488,0.014377859,-0.03819948,-0.004486753,0.08154324,0.29044625
-0.032175727,0.014308462,-0.038001485,-0.0046646288,0.081573896,0.28972083
-0.032219015,0.014160382,-0.037818745,-0.004820756,0.081604965,0.28908673
-0.03248766,0.014019489,-0.03781229,-0.004803238,0.081600286,0.2891621
-0.03282556,0.013886981,-0.03781807,-0.00481254,0.081563264,0.2893165
-0.03277325,0.01374096,-0.03772249,-0.0048052967,0.08166953,0.28889462
-0.033736404,0.013639219,-0.038073786,-0.0046090796,0.0814707,0.29052764
-0.03287774,0.013446408,-0.037351035,-0.005194213,0.081728525,0.2875343
-0.032955278,0.013318841,-0.037193894,-0.0053787506,0.08174219,0.28696525
-0.0324143,0.01317181,-0.036787424,-0.0056659644,0.08195054,0.28518862
-0.033529576,0.013048696,-0.037256222,-0.0053947903,0.08175709,0.28720096
-0.0333132,0.012882687,-0.03704722,-0.0055011525,0.081913404,0.2862557
-0.034998473,0.012776195,-0.037717547,-0.005425765,0.08157225,0.28894684
-0.03316963,0.012583345,-0.03653484,-0.006051474,0.0820382,0.28494683
-0.034638528,0.012518178,-0.037162807,-0.0059601963,0.08173688,0.2866767
-0.03170476,0.012254434,-0.035316676,-0.00697774,0.08247911,0.2826767
-0.033765845,0.012136037,-0.036456905,-0.006291224,0.082152404,0.28369176
-0.032724496,0.011912196,-0.03554439,-0.006973866,0.08243022,0.28004277
-0.033479754,0.011734095,-0.035755415,-0.007100217,0.082373515,0.28067192
-0.035176083,0.011774446,-0.036789745,-0.006741602,0.082062304,0.28448787
-0.03577922,0.01161102,-0.037134998,-0.006718039,0.08212744,0.285359
-0.036137275,0.011475068,-0.03728697,-0.0068323365,0.082189195,0.28557017
-0.034136754,0.011234981,-0.035731908,-0.007430926,0.08254544,0.28157017
-0.03394153,0.011054897,-0.035484616,-0.007648442,0.082697675,0.2789565
-0.03465608,0.010888512,-0.035629362,-0.0079345135,0.082613826,0.2793307
-0.03511814,0.010832103,-0.036101807,-0.0077733705,0.082719415,0.28051528
-0.035772707,0.01066381,-0.03615571,-0.008231497,0.08262992,0.28049305
-0.036786806,0.010573824,-0.036664423,-0.0085358545,0.082551986,0.28176978
-0.03538613,0.010407889,-0.035822622,-0.008512067,0.08291448,0.27876225
-0.034522414,0.010155862,-0.034999143,-0.008894264,0.08313356,0.27579257
-0.03485954,0.010083057,-0.035188925,-0.008996751,0.083166055,0.27614486
-0.03571237,0.0099730445,-0.035600018,-0.00927966,0.0831229,0.27710822
-0.038767338,0.009982029,-0.037600648,-0.0099291755,0.082855634,0.28110823
-0.036291305,0.009714279,-0.035724796,-0.009853619,0.08322239,0.27710822
-0.036010962,0.009566612,-0.035391785,-0.0100824395,0.083330005,0.27544194
-0.03201096,0.008604055,-0.031391785,-0.011517084,0.084275536,0.27144194
-0.035542767,0.009123458,-0.03464725,-0.0107632475,0.0836128,0.27231744
-0.03597136,0.00905653,-0.034884546,-0.010921396,0.083617106,0.27281982
-0.0369752,0.009260981,-0.035573103,-0.010752486,0.0832846,0.2755503
-0.034967814,0.008248267,-0.03360253,-0.011928814,0.084232934,0.2715503
-0.035678323,0.008618466,-0.034245025,-0.01143612,0.083828636,0.27034584
-0.035332847,0.008270576,-0.033785682,-0.011884683,0.08411094,0.26817316
-0.035415664,0.008318114,-0.03361271,-0.011713582,0.0838539,0.2685247
-0.03650057,0.008500743,-0.034344222,-0.01145987,0.08350044,0.27153426
-0.03597349,0.007993955,-0.033733353,-0.012108955,0.083966196,0.2683942
-0.037675623,0.008121486,-0.035300396,-0.011873117,0.08388965,0.2723942
-0.035134945,0.0073356437,-0.032683205,-0.012912333,0.084474556,0.2683942
-0.038420644,0.008635759,-0.03542205,-0.010698042,0.08282225,0.2723942
-0.034420643,0.007120037,-0.03142205,-0.013081263,0.08455066,0.2683942
-0.034767047,0.007018597,-0.03183341,-0.013079765,0.084402464,0.2643942
-0.034302577,0.006955375,-0.03175084,-0.012801479,0.08463099,0.2614728
-0.03491685,0.0072373855,-0.031923845,-0.012421042,0.084039524,0.26364514
-0.03582324,0.0074764616,-0.032279525,-0.012162651,0.08346435,0.2661614
-0.03711866,0.0062629255,-0.033380765,-0.013561961,0.08483244,0.26513803
-0.035499904,0.006760318,-0.031840038,-0.012823077,0.08412401,0.26316774
-0.034803674,0.0068643778,-0.031081876,-0.01265937,0.083873965,0.2618716
-0.034495614,0.0062549897,-0.030477991,-0.013417961,0.08433347,0.25874725
-0.034531306,0.005738694,-0.030258154,-0.013994877,0.08473336,0.2569401
-0.03585824,0.0062465677,-0.031676367,-0.012991651,0.08427258,0.2609401
-0.034361906,0.0057394803,-0.029144187,-0.014050351,0.08403279,0.2569401
-0.038361907,0.0068854527,-0.033144187,-0.01135276,0.083959945,0.2609401
-0.034605455,0.005742475,-0.029958963,-0.01346447,0.08435324,0.25771174
-0.035663854,0.0059176176,-0.031166136,-0.012881378,0.08429406,0.26162097
-0.03444379,0.0053748954,-0.029657787,-0.013506076,0.084574156,0.25762096
-0.03603507,0.0062197293,-0.030670727,-0.012681211,0.08338035,0.26162097
-0.03373264,0.005203795,-0.028682971,-0.013816215,0.08452501,0.25762096
-0.03386655,0.004864102,-0.028526396,-0.014039196,0.0846811,0.25362095
-0.033485256,0.005016075,-0.02839121,-0.013809833,0.08463488,0.25307044
-0.03526272,0.0051946617,-0.029046733,-0.013477814,0.08376088,0.25707045
-0.034527354,0.0049240678,-0.028611178,-0.013726287,0.0842037,0.25493592
-0.035436835,0.0050433627,-0.029036982,-0.013465874,0.08377881,0.2573474
-0.032968547,0.0043981145,-0.02702557,-0.014244865,0.08460575,0.2533474
-0.03541913,0.005017385,-0.02912199,-0.013421573,0.08386827,0.2573474
-0.03296679,0.004320107,-0.027003616,-0.014143556,0.08464045,0.2533474
-0.033849802,0.004509324,-0.027550438,-0.013774854,0.08423364,0.25235957
-0.032629564,0.0040726457,-0.026443824,-0.014354204,0.08471068,0.24835958
-0.034512978,0.0046634306,-0.027704805,-0.013395428,0.083702154,0.25235957
-0.032090176,0.0037030824,-0.025844881,-0.014701532,0.08502608,0.24835958
-0.03510848,0.0043309624,-0.027725656,-0.013437501,0.08365727,0.25235957
-0.031715672,0.0035376716,-0.025278239,-0.014749238,0.08500178,0.24835958
-0.033693675,0.0039454526,-0.026441822,-0.013986061,0.0840688,0.25011793
-0.030525118,0.0029116261,-0.02418235,-0.015397668,0.08566982,0.24611793
-0.033337604,0.0037530165,-0.025948172,-0.014057818,0.08411794,0.24878708
-0.03219491,0.0033301876,-0.025009105,-0.014578849,0.08464914,0.24478708
-0.033183668,0.0036788643,-0.025635151,-0.013831993,0.083996326,0.24859925
-0.030719817,0.0025789707,-0.023861691,-0.015360124,0.0856099,0.24459925
-0.03290207,0.0034152702,-0.025283853,-0.013844813,0.08416125,0.24748181
-0.032106515,0.003052781,-0.024491405,-0.014450702,0.08454478,0.24408333
-0.031967886,0.0029255133,-0.024311095,-0.014483492,0.08462462,0.24348925
-0.032400317,0.0031035386,-0.024770869,-0.013770512,0.084369294,0.24597947
-0.031924333,0.0032077113,-0.024260808,-0.013701843,0.08415863,0.24518454
-0.031724054,0.0030229108,-0.024154222,-0.013713315,0.084385954,0.2444798
-0.031211952,0.0029968957,-0.023483425,-0.013978707,0.08427321,0.24277185
-0.031375997,0.0030929453,-0.024065806,-0.013045609,0.0843099,0.2451464
-0.031060914,0.002568789,-0.023489658,-0.013947134,0.08478853,0.24188216
-0.030708795,0.0036402345,-0.023528904,-0.012416344,0.08358043,0.24588215
-0.029212538,0.0013350397,-0.022073315,-0.015685013,0.08648224,0.24188216
-0.030522386,0.0037016228,-0.023759989,-0.011685012,0.08357758,0.24588215
-0.029835103,0.0030991966,-0.022646135,-0.012897211,0.08408646,0.24230985
-0.029872289,0.0028173733,-0.022715645,-0.012775053,0.0843836,0.24208145
-0.028777374,0.004042663,-0.022697208,-0.011120552,0.08326169,0.2459517
-0.029283602,0.002470007,-0.0221275,-0.01313202,0.08472329,0.2419517
-0.028867586,0.0025286623,-0.021839367,-0.012995918,0.084651046,0.23920651
-0.028554225,0.0021870604,-0.021373136,-0.013607516,0.08498086,0.23678783
-0.028815722,0.0022562717,-0.02174255,-0.013116692,0.08491819,0.23836485
-0.02859963,0.0025084119,-0.021761341,-0.01246261,0.08462574,0.23970996
-0.028555572,0.002487637,-0.021861678,-0.012144497,0.084676765,0.24020575
-0.028091196,0.0024168913,-0.021585187,-0.012045957,0.08478546,0.23941974
-0.027688075,0.0022825112,-0.021141415,-0.01232299,0.084879905,0.23788328
-0.027677087,0.0022726294,-0.02129977,-0.011957637,0.084931895,0.23856373
-0.026963545,0.002263571,-0.020726992,-0.012109909,0.08493343,0.23701386
-0.026736146,0.002207835,-0.020317582,-0.012523343,0.084886454,0.23572572
-0.02781508,0.0022132627,-0.022295473,-0.010078042,0.085268036,0.23972571
-0.02639331,0.0022778322,-0.02062879,-0.011446957,0.084978536,0.23743534
-0.026316443,0.0022921688,-0.020677656,-0.011220233,0.08499157,0.23776653
-0.026032189,0.0017845946,-0.019860858,-0.012291884,0.08533751,0.23405695
-0.025821408,0.000969781,-0.018588873,-0.014228432,0.085833326,0.23005696
-0.02580599,0.0031337086,-0.021777624,-0.010228433,0.08465116,0.23405695
-0.02546349,0.0021540457,-0.020321999,-0.010752261,0.08521473,0.23699915
-0.025233079,0.0025776979,-0.020897174,-0.009560604,0.08501994,0.23995654
-0.025175918,0.0018436619,-0.01993226,-0.01088185,0.08545329,0.23595655
-0.023824392,0.0017326769,-0.0185089,-0.012699178,0.08559908,0.23195656
-0.02466754,0.0015263906,-0.019366685,-0.011217762,0.085735254,0.23329492
-0.024052069,0.0017722048,-0.01918091,-0.01116867,0.085595675,0.23316129
-0.024568945,0.0033080657,-0.0219036,-0.0071686697,0.084791265,0.23716128
-0.02363871,0.0016196704,-0.018841106,-0.01116867,0.08573825,0.23316129
-0.024254706,0.0033741698,-0.02191717,-0.0071686697,0.08481616,0.23716128
-0.02354676,0.0013799951,-0.018691435,-0.011117201,0.085926905,0.23316129
-0.023987163,-0.00094159483,-0.015395834,-0.015117202,0.087329395,0.22916129
-0.023569219,0.0010713707,-0.018471656,-0.011140765,0.08610972,0.23065403
-0.022805199,0.0017737395,-0.019037902,-0.009861125,0.085823596,0.23375428
-0.021820297,0.0019162046,-0.018818758,-0.009526579,0.08592709,0.23330708
-0.020629894,0.0043608327,-0.021476056,-0.0064915954,0.08493489,0.23730707
-0.023033552,0.0011140429,-0.018343713,-0.010491596,0.086120985,0.23330708
-0.021968039,0.0014579655,-0.018325653,-0.009963855,0.086112306,0.23143302
-0.021870716,0.0012320275,-0.017953264,-0.010486926,0.086248145,0.22979508
-0.021439655,0.0015719824,-0.01827918,-0.00973146,0.086126864,0.23153749
-0.021325804,0.0017445426,-0.018518258,-0.009205058,0.08604264,0.23278935
-0.021095393,0.0017102178,-0.018467387,-0.008905212,0.086101376,0.23286186
-0.021637985,0.0020206391,-0.018995754,-0.008540365,0.08576849,0.23514405
-0.020937357,0.002018992,-0.018985854,-0.007513856,0.08596194,0.23569727
-0.02084679,0.0012493584,-0.01715432,-0.011407391,0.08624272,0.23169728
-0.02024955,0.0011733721,-0.017337961,-0.009865186,0.086508594,0.22849953
-0.020192953,0.0011401328,-0.017187355,-0.010153297,0.086502455,0.2278984
-0.019937482,0.0017290835,-0.018033985,-0.008487231,0.086238936,0.2318984
-0.01959442,0.002221535,-0.018647434,-0.0071106604,0.08604414,0.23506725
-0.020092748,0.0023439743,-0.019048758,-0.006600036,0.08583082,0.23700023
-0.019591969,0.0016246863,-0.017811192,-0.008271156,0.08631204,0.23300023
-0.019509187,0.00058165146,-0.016045688,-0.0112377135,0.086865135,0.22900024
-0.019230714,0.0009831815,-0.01671111,-0.009713943,0.08670526,0.2268697
-0.019457532,0.0017177416,-0.01793202,-0.007662666,0.086221494,0.2308697
-0.019097008,0.0026441019,-0.019073932,-0.0055288705,0.08578639,0.23486969
-0.019088343,0.001905836,-0.018360108,-0.0057346704,0.08618518,0.23557281
-0.018090375,0.0024768943,-0.018306956,-0.006466479,0.08606788,0.2348156
-0.018581966,0.0012123759,-0.01671837,-0.009154694,0.086600415,0.2308156
-0.01877328,0.00046123366,-0.016134793,-0.009165025,0.087007485,0.22681561
-0.01811392,0.001506402,-0.016882248,-0.008595689,0.08650171,0.22872415
-0.018368943,0.0008251448,-0.016630651,-0.0075665037,0.08682927,0.22863995
-0.018156068,0.0011903286,-0.016788034,-0.0077145086,0.08662392,0.22920902
-0.017880702,0.0019672613,-0.017848829,-0.0053040744,0.08623313,0.23320901
-0.017928764,0.0025920717,-0.018582584,-0.004348087,0.085808925,0.237209
-0.017938046,0.0022526034,-0.018059868,-0.005346541,0.085951276,0.2357347
-0.017195757,-5.3902622e-06,-0.014873961,-0.009289804,0.08749952,0.23173471
-0.017370488,0.00080874976,-0.01593663,-0.008110593,0.08689093,0.22773471
-0.017567849,0.0014264105,-0.01662947,-0.0076623294,0.08639619,0.22942221
-0.01626788,0.002773054,-0.018240852,-0.0036623292,0.085997656,0.2334222
-0.016826324,0.0023150395,-0.01783992,-0.0037313437,0.0860483,0.23649351
-0.016307259,0.0020286122,-0.017333431,-0.003754476,0.08631448,0.2347194
-0.01821916,0.00030952285,-0.015689356,-0.0077544763,0.086849,0.2307194
-0.015568413,0.0016205314,-0.016339207,-0.005299433,0.08664773,0.23028727
-0.016740214,0.0014742109,-0.016659005,-0.0056316024,0.08643957,0.23132269
-0.015356344,0.0027057144,-0.01767698,-0.0024456575,0.08593922,0.23532268
-0.01618336,0.0020511833,-0.017232496,-0.0033977143,0.08614307,0.23526113
-0.016094143,0.0017960487,-0.01686952,-0.003626834,0.08625182,0.23401809
-0.016620133,0.0007149832,-0.015435082,-0.0076268343,0.08683373,0.2300181
-0.015760494,0.001764868,-0.016628124,-0.0036268341,0.08623239,0.23361762
-0.01630943,0.0014393618,-0.016374225,-0.005256723,0.0863914,0.23115103
-0.015477679,0.0021866113,-0.01696428,-0.002716345,0.085967034,0.23515102
-0.015804514,0.0020335903,-0.01692797,-0.002893977,0.08594143,0.23555969
-0.015992515,0.0020987967,-0.017107662,-0.0024517963,0.085843354,0.23660457
-0.015262559,0.0014629439,-0.015859818,-0.0044340114,0.086349994,0.23260458
-0.01517349,0.0007282341,-0.01480475,-0.006393544,0.0867826,0.22860458
-0.015883008,0.0023428514,-0.0172928,-0.0023935437,0.08555487,0.23260458
-0.01539808,0.0021347308,-0.016710922,-0.002703225,0.085761234,0.23565714
-0.015780127,0.004303712,-0.019657811,0.0012967752,0.08440254,0.23965713
-0.015463923,0.0019049002,-0.016444765,-0.0026685449,0.08576542,0.23565714
-0.015061681,0.0005910469,-0.014501253,-0.0063476707,0.08668804,0.23165715
-0.016184745,0.0008667689,-0.015753888,-0.0023476705,0.08610823,0.23343237
-0.015148411,0.0015773353,-0.015770676,-0.003830781,0.08591998,0.23225434
-0.0148979,0.0031426921,-0.017546175,-0.0023010774,0.08506777,0.23625433
-0.01564629,0.0021690184,-0.016702278,-0.0022292086,0.08530419,0.23726335
-0.015199748,0.0021887075,-0.016579706,-0.0020047869,0.08539875,0.2369488
-0.014735632,7.6847384e-05,-0.013595519,-0.006004787,0.08680842,0.23294881
-0.014943808,0.0014556821,-0.01543278,-0.003933475,0.08579773,0.2317748
-0.014864996,0.0011505013,-0.014994155,-0.0045513227,0.08597385,0.22986029
-0.01497542,0.0024980432,-0.016735421,-0.0022153403,0.085087575,0.23386028
-0.015309629,0.0027047785,-0.01718597,-0.00096555124,0.08483427,0.23786028
-0.015370998,0.0029455393,-0.017524445,-0.0003587082,0.0846357,0.24186027
-0.015144892,0.0018438491,-0.016009154,-0.00244912,0.085308604,0.23786028
-0.014842537,0.0014196727,-0.015257356,-0.0039015082,0.08558898,0.23386028
-0.014848863,0.0015206261,-0.015394581,-0.0036089045,0.08549555,0.23277347
-0.014506924,0.0012578181,-0.014785416,-0.0051400303,0.08569311,0.22958247
-0.014970385,0.0022381924,-0.01632474,-0.00225513,0.08492022,0.23358247
-0.015023351,0.0024937012,-0.016644893,-0.0020139762,0.084713,0.23758246
-0.015085638,0.0028831407,-0.017173504,-0.0014295735,0.08442496,0.24116467
-0.014755621,0.0016292529,-0.015381368,-0.003957843,0.085227944,0.23716468
-0.014838009,0.0018628644,-0.015633676,-0.0038301446,0.08498022,0.2342956
-0.013504672,0.00035260676,-0.013183302,-0.0077780113,0.08646297,0.23029561
-0.014534849,0.0020438468,-0.01578868,-0.003778011,0.08493886,0.2342956
-0.014736812,0.0023876945,-0.016358053,-0.002580056,0.084637344,0.23777138
-0.014970704,0.0037066757,-0.01834186,0.00031060842,0.08388403,0.24177137
-0.015117118,0.00528884,-0.02069903,0.0030796572,0.083144836,0.24577136
-0.014482014,0.0019132476,-0.01669903,-0.000920343,0.08488372,0.24177137
-0.013946048,0.00013714982,-0.012821262,-0.004920343,0.08615794,0.23777138
-0.014119244,0.0020618888,-0.015633076,-0.0042891135,0.08487811,0.23386927
-0.014241983,0.0012525028,-0.0143675655,-0.0068233158,0.08520507,0.22986928
-0.014427438,0.0025328172,-0.016382327,-0.0037069754,0.08442316,0.23386927
-0.014729756,0.0033688173,-0.017907185,-6.1612576e-05,0.08388834,0.23786926
-0.01473625,0.0030213387,-0.017299032,-0.0015367031,0.0839687,0.24186926
-0.014447259,0.0028592593,-0.017043805,-0.0017633335,0.08417649,0.24071646
-0.014304101,0.0019848167,-0.015635809,-0.004122149,0.08460744,0.23671646
-0.01387124,0.0018426887,-0.0152273355,-0.0055981195,0.08479422,0.23271647
-0.01402735,0.0018084387,-0.015204783,-0.0056045763,0.08470304,0.2316402
-0.0144803105,0.0022158455,-0.016002452,-0.003742161,0.08427493,0.2356402
-0.01437466,0.0027458412,-0.01683456,-0.0025031713,0.08401025,0.23952901
-0.0144365905,0.0032038183,-0.017612185,-0.0011989005,0.08372191,0.24299006
-0.014276738,0.0024780545,-0.016398257,-0.0034010457,0.08408291,0.23899007
-0.01414629,0.0019526631,-0.0154998,-0.0051253377,0.084360234,0.23499008
-0.014142901,0.0021089406,-0.015775224,-0.004723396,0.08424012,0.23424445
-0.013946198,0.0022822495,-0.015989875,-0.0046604737,0.08417892,0.23469691
-0.012988957,0.0013066664,-0.013982375,-0.008660474,0.08506508,0.23069692
-0.014948226,0.00382803,-0.017982375,-0.0046604737,0.083012514,0.23469691
-0.014043464,0.0027065377,-0.016761662,-0.0033630528,0.08381097,0.2381142
-0.01352423,0.0020011372,-0.01537811,-0.006476155,0.08434081,0.2341142
-0.013906519,0.002807304,-0.016942514,-0.0030432548,0.083729215,0.2381142
-0.013050868,0.001618585,-0.014300733,-0.007043255,0.084689416,0.2341142
-0.013950221,0.0030616526,-0.017348405,-0.0030432548,0.083505414,0.2381142
-0.013641578,0.0026713521,-0.016560784,-0.0047358987,0.08377593,0.23570918
-0.0138507085,0.0031891074,-0.017545126,-0.0028110847,0.08339832,0.23970917
-0.013466622,0.0027198636,-0.016586706,-0.0050489213,0.08372846,0.23570918
-0.013314368,0.0025687143,-0.016243981,-0.005869256,0.08384027,0.23336783
-0.013465668,0.0029666133,-0.017017078,-0.0042455057,0.08354598,0.23713577
-0.013406338,0.0031174633,-0.01726233,-0.0042165522,0.08344002,0.23765953
-0.013517566,0.0032720563,-0.017553812,-0.003406511,0.083286926,0.23938325
-0.012611869,0.0026976666,-0.016240386,-0.0074065113,0.08384413,0.23538326
-0.013069677,0.0031175006,-0.017121417,-0.00532236,0.08342924,0.23570089
-0.012869398,0.0028986374,-0.016657695,-0.006423826,0.083585404,0.2331628
-0.013180233,0.0035916858,-0.017993202,-0.0037624866,0.083063684,0.2371628
-0.013051261,0.003463632,-0.017707955,-0.004631202,0.083135925,0.23777428
-0.013733211,0.0043976284,-0.019557735,-0.000631202,0.08240821,0.24177428
-0.012563564,0.0030840742,-0.01686664,-0.004631202,0.08342901,0.23777428
-0.012695978,0.003397228,-0.017483402,-0.0058952337,0.08317021,0.23533157
-0.0121293925,0.002646909,-0.01592916,-0.009745891,0.08377551,0.23133157
-0.01261945,0.003579408,-0.017782742,-0.0058723255,0.08303111,0.23533157
-0.012616529,0.0036600735,-0.017948959,-0.005189777,0.08293364,0.23699458
-0.012930863,0.0042866054,-0.019155327,-0.0030960897,0.082456045,0.24099457
-0.012656599,0.0039697085,-0.01849024,-0.0047901557,0.082679704,0.23866574
-0.012434237,0.0038083033,-0.018164285,-0.00580609,0.082788594,0.23642193
-0.011878282,0.003228673,-0.016966525,-0.008823461,0.08325574,0.23242193
-0.012169014,0.0036931632,-0.017892474,-0.0068440153,0.08285159,0.23420584
-0.012415802,0.004063812,-0.018594487,-0.0052195913,0.08255207,0.23797266
-0.012778777,0.004717145,-0.019852042,-0.002633546,0.08204419,0.24197266
-0.012386586,0.004219565,-0.018870978,-0.005049464,0.0823819,0.23864341
-0.011463932,0.0031811723,-0.016837105,-0.009049464,0.08317938,0.23464341
-0.0117537845,0.0035614034,-0.017565133,-0.008738752,0.08283325,0.23064342
-0.011974182,0.0039696335,-0.018377177,-0.007065424,0.08247181,0.23441742
-0.012242736,0.0044997046,-0.019365113,-0.005028521,0.082063206,0.23841742
-0.012693452,0.0049457783,-0.020257091,-0.0024347275,0.08164918,0.24241741
-0.012117266,0.004379998,-0.019133784,-0.0056265863,0.08205953,0.23841742
-0.0118574705,0.004150616,-0.018661192,-0.0071196253,0.082221836,0.2346348
-0.01211719,0.004703932,-0.019671679,-0.004592329,0.0817764,0.2386348
-0.011794436,0.004180524,-0.018708823,-0.0071471,0.08212983,0.2346348
-0.012009068,0.004608032,-0.019490527,-0.0050826473,0.08176813,0.2386348
-0.01168738,0.004230495,-0.018769966,-0.007154081,0.08204475,0.2346348
-0.011757246,0.0043411436,-0.018963115,-0.0066614607,0.0819177,0.23547815
-0.011644895,0.0043635652,-0.01898636,-0.006621521,0.081859946,0.23533216
-0.011870141,0.0047609406,-0.019706097,-0.0045808754,0.08151625,0.23933215
-0.011790842,0.0047114184,-0.019615417,-0.004794142,0.0815027,0.23895967
-0.011692003,0.0045759524,-0.019213177,-0.0063984096,0.08169825,0.23633762
-0.011522699,0.0044362205,-0.019046944,-0.006554369,0.08165269,0.23521276
-0.011587606,0.0045339544,-0.019186638,-0.0061483094,0.08151887,0.23608582
-0.01163563,0.0047118673,-0.019516768,-0.005240946,0.08136802,0.2378943
-0.011745699,0.0048681074,-0.019750603,-0.0044680745,0.08114003,0.23943774
-0.011673269,0.004817874,-0.019639693,-0.0048134946,0.08114093,0.23864321
-0.011501139,0.0046751094,-0.01940174,-0.0054471386,0.08121627,0.23700717
-0.01148641,0.0046291808,-0.019270316,-0.005840396,0.081191495,0.2362374
-0.011230039,0.0045162863,-0.019167678,-0.0060062935,0.08128036,0.2351955
-0.011253191,0.0044106916,-0.018905208,-0.0067966827,0.08127725,0.23376422
-0.011652887,0.005132937,-0.020160874,-0.0032122775,0.08068433,0.23776421
-0.011321729,0.0049212603,-0.019835629,-0.0041729254,0.080854796,0.23882976
-0.012925266,0.006432903,-0.022264574,-0.00017292518,0.07950613,0.24282975
-0.011320943,0.004844413,-0.019646544,-0.0041729254,0.080796026,0.23882976
-0.012182396,0.0056975945,-0.020726036,-0.001701328,0.079939924,0.24282975
-0.0117793875,0.004948174,-0.019311154,-0.005701328,0.08039476,0.23882976
-0.011057704,0.004559258,-0.019192645,-0.0059358845,0.08088725,0.23482977
-0.010444423,0.004514789,-0.019686969,-0.00457614,0.081120975,0.23542558
-0.011357589,0.0049016085,-0.019612836,-0.004532644,0.080414936,0.2377126
-0.011356653,0.0051928647,-0.020254884,-0.0028338805,0.08022156,0.24087314
-0.011465804,0.00525444,-0.020161958,-0.0032083474,0.080067456,0.24059252
-0.011367097,0.0051626205,-0.020072067,-0.0033425775,0.08009044,0.23989789
-0.011201685,0.0049151964,-0.019617833,-0.004616323,0.080213554,0.23707402
-0.011213008,0.004976098,-0.019733666,-0.0042341077,0.08011548,0.23770557
-0.011252761,0.005067581,-0.019877402,-0.0038132814,0.079975,0.2385047
-0.011444393,0.0053795367,-0.020421436,-0.0022157144,0.079694524,0.24183238
-0.011405932,0.0053429287,-0.020353759,-0.0023877132,0.07966869,0.2413473
-0.011357289,0.005284161,-0.020247621,-0.002670304,0.07964482,0.24061194
-0.011086415,0.0049385536,-0.019660786,-0.004329615,0.07985043,0.23679999
-0.01108619,0.0050131925,-0.019797,-0.0039478485,0.07973615,0.23743904
-0.011151602,0.005121221,-0.019985618,-0.00337198,0.079579234,0.23853663
-0.011436045,0.005563701,-0.020745575,-0.0012072665,0.079202,0.24253662
-0.011577069,0.005567332,-0.02069467,-0.00126974,0.079155356,0.24331601
-0.011794585,0.006095568,-0.02166166,0.0013942192,0.07870861,0.247316
-0.011193338,0.0050294003,-0.019794904,-0.002605781,0.07940091,0.24331601
-0.010838541,0.0046586394,-0.01922669,-0.0053448,0.07959574,0.23931602
-0.0108167,0.0045229495,-0.018944716,-0.006164405,0.07967274,0.23531602
-0.011050162,0.005000166,-0.01981974,-0.0035911803,0.07918366,0.236993
-0.011896717,0.0065450855,-0.022532528,0.00040881988,0.078026496,0.240993
-0.011211193,0.0050177965,-0.019847944,-0.0035911803,0.079068065,0.23721825
-0.011972011,0.006683059,-0.022819405,0.00040881988,0.07776324,0.24121824
-0.011490939,0.005590053,-0.020885756,-0.00061633205,0.07848495,0.24316423
-0.011451991,0.0055534444,-0.020871907,-0.000418262,0.07839976,0.24306619
-0.011157553,0.0051131356,-0.020150391,-0.0024720093,0.07869615,0.2390662
-0.010888345,0.0046455385,-0.019299457,-0.0048618936,0.07890374,0.2350662
-0.010950125,0.0048706154,-0.019779481,-0.00349485,0.078788154,0.23584497
-0.0113888625,0.0053736228,-0.020571686,-0.0012228943,0.07818408,0.23984496
-0.011889624,0.0061450154,-0.021890536,0.0024632316,0.07754037,0.24384496
-0.011704337,0.0058360915,-0.021390038,0.001081028,0.077699415,0.24565397
-0.011411471,0.005383318,-0.02067116,-0.0009092351,0.07802178,0.24165398
-0.011078066,0.004876305,-0.019854328,-0.0031903242,0.07836723,0.23765399
-0.010955571,0.0044405623,-0.019045746,-0.005304393,0.07831382,0.23365399
-0.011721631,0.0057773986,-0.021418523,-0.0013043927,0.07751443,0.23765399
-0.011686463,0.00567244,-0.021213453,0.0007402124,0.07738776,0.24165398
-0.012095816,0.0062749037,-0.022276701,0.00377308,0.07684766,0.24565397
-0.011811729,0.0058223167,-0.02157875,0.0018104974,0.077177845,0.24603891
-0.011953202,0.005991059,-0.02184968,0.002617937,0.07690044,0.24763477
-0.01000284,0.0032893498,-0.01784968,-0.0013820631,0.07969078,0.24363478
-0.011195003,0.0046517146,-0.019688578,-0.004324468,0.07782717,0.23963478
-0.011101013,0.004399013,-0.019336684,-0.0058086542,0.078000404,0.23563479
-0.011942122,0.005339747,-0.020693865,-0.001808654,0.07674719,0.23952834
-0.011574954,0.005172315,-0.020754708,-0.0008199044,0.07717305,0.23958583
-0.012509979,0.0063334466,-0.022475127,0.003180096,0.07590273,0.24358582
-0.011928534,0.005248451,-0.020897212,-0.00081990426,0.07684466,0.23985496
-0.011797748,0.0049787555,-0.020569459,-0.0024910062,0.07704743,0.23703396
-0.011049488,0.0039274856,-0.018803056,-0.0064910064,0.078339905,0.23303397
-0.012041372,0.005075404,-0.020760624,-0.0025932135,0.07670714,0.23703396
-0.012214775,0.0052158106,-0.021016113,-0.0023848123,0.0765385,0.23834729
-0.0131179085,0.0065822178,-0.023475695,0.0016151879,0.07507103,0.24234729
-0.012400024,0.005349554,-0.02137585,-0.001355103,0.076204054,0.24014466
-0.012266954,0.0050682547,-0.02106135,-0.0020939305,0.076271355,0.23787656
-0.011801902,0.0047245943,-0.020480053,-0.0060939305,0.07718413,0.23387657
-0.012257315,0.0048398464,-0.020778796,-0.0037909162,0.07632541,0.2348701
-0.012512544,0.005071586,-0.02118757,-0.0032083474,0.07609307,0.23681866
-0.012750441,0.0054743513,-0.021968206,-0.00077809324,0.07562203,0.24081865
-0.012809003,0.0052603544,-0.02171444,-0.0016213736,0.0755706,0.23952523
-0.012560737,0.0048167887,-0.021002507,-0.004631389,0.07605148,0.23552524
-0.0113819195,0.0037314557,-0.019195247,-0.00863139,0.07764364,0.23152524
-0.012386062,0.004558285,-0.020680407,-0.0067113573,0.076273195,0.23031437
-0.012851638,0.0048290286,-0.021276338,-0.004519356,0.07565856,0.23431437
-0.013470702,0.005610715,-0.022737542,-0.00051935576,0.07459506,0.23831436
-0.013304881,0.005201137,-0.022325663,-0.0014841676,0.075267516,0.24033944
-0.013114484,0.0050557153,-0.02190738,-0.0035547782,0.07517274,0.23646303
-0.012673631,0.004585273,-0.021147966,-0.0068806424,0.07592444,0.23246303
-0.01233667,0.004198791,-0.02048636,-0.009522143,0.0762084,0.22846304
-0.01289811,0.0047043436,-0.021538997,-0.0061480287,0.07544303,0.23168425
-0.013206378,0.0049692853,-0.02217468,-0.004116366,0.07502443,0.2354878
-0.011775607,0.0035554518,-0.019539228,-0.008116366,0.07730159,0.23148781
-0.013337108,0.0049973964,-0.02238894,-0.004116366,0.07477944,0.2354878
-0.012914729,0.0045192065,-0.021543283,-0.0075763674,0.07535649,0.23148781
-0.01367244,0.0051461877,-0.022789627,-0.0035763672,0.07421141,0.2354878
-0.012911434,0.004389655,-0.021489793,-0.0075763674,0.07536173,0.23148781
-0.013325206,0.004728786,-0.022325289,-0.0056676674,0.07474979,0.23246554
-0.012867341,0.0042507458,-0.021414144,-0.009608461,0.075427495,0.22846554
-0.013551761,0.004779993,-0.022547951,-0.0058144187,0.07438536,0.23246093
-0.013158298,0.0044175046,-0.021970829,-0.008238085,0.07485157,0.22846094
-0.014065904,0.005174411,-0.02350027,-0.0042380844,0.07354667,0.23246093
-0.013239168,0.004306819,-0.021839874,-0.008238085,0.074827276,0.22846094
-0.013723067,0.004746716,-0.0229492,-0.00593012,0.07417447,0.23234253
-0.01509915,0.0061277966,-0.02583949,-0.0019301199,0.07225022,0.23634252
-0.013812492,0.0047341767,-0.023086462,-0.00593012,0.07398379,0.23234253
-0.01164774,0.002862254,-0.019086462,-0.009930121,0.07722373,0.22834253
-0.01312122,0.0041183876,-0.022058344,-0.010993022,0.07501421,0.22434254
-0.013935791,0.0044734273,-0.022682855,-0.009043204,0.07375284,0.22698227
-0.0141766835,0.0048340443,-0.023577865,-0.006321188,0.07333735,0.23098226
-0.014261521,0.004747502,-0.023429861,-0.0073374966,0.07323239,0.2303385
-0.014133095,0.004668596,-0.023638617,-0.0063719824,0.073457986,0.23139338
-0.01400023,0.0044718552,-0.02313166,-0.009106538,0.07352728,0.22739339
-0.013818686,0.004282338,-0.023005197,-0.009677746,0.07393431,0.22548746
-0.012642619,0.0033386096,-0.020752594,-0.013677746,0.0758005,0.22148746
-0.014480965,0.0047706724,-0.02425727,-0.009677745,0.07294555,0.22548746
-0.014157836,0.0044305306,-0.02361629,-0.00874929,0.07339566,0.22731124
-0.0147308605,0.004879075,-0.024765274,-0.00474929,0.072493635,0.23131123
-0.013199958,0.0036298286,-0.021858213,-0.00874929,0.07494923,0.22731124
-0.014511435,0.0045920108,-0.024366438,-0.0066903397,0.072669715,0.23038454
-0.014212692,0.004191342,-0.023334036,-0.01069034,0.07344376,0.22638455
-0.012878887,0.0033206425,-0.021241734,-0.01469034,0.07540504,0.22238456
-0.013858308,0.0039139353,-0.022956742,-0.0143514145,0.07378817,0.21838456
-0.01356664,0.0036724259,-0.02252261,-0.01646436,0.07418799,0.21438457
-0.014557588,0.004404291,-0.02450067,-0.012464359,0.07255181,0.21838456
-0.015359077,0.0051562567,-0.026282102,-0.008464359,0.071248844,0.22238456
-0.015232856,0.0049458905,-0.02594911,-0.0044643586,0.07151255,0.22638455
-0.014400563,0.004099335,-0.024031164,-0.008464359,0.07316943,0.22238456
-0.014433279,0.004235586,-0.024540404,-0.010513559,0.07246946,0.22342086
-0.014214451,0.0038538948,-0.023555724,-0.01451356,0.073369876,0.21942087
-0.010584435,0.0030415892,-0.019725075,-0.01851356,0.07724518,0.21542087
-0.014120256,0.0036939492,-0.023502627,-0.016218096,0.07337204,0.21411553
-0.014903158,0.004282338,-0.02514167,-0.012218095,0.07194586,0.21811552
-0.015417807,0.0054258774,-0.027526218,-0.008218095,0.07039169,0.22211552
-0.015328832,0.0045294254,-0.026066363,-0.0068317563,0.0712725,0.22611551
-0.015138191,0.004042027,-0.02514414,-0.010696207,0.071938895,0.2231617
-0.014500524,0.0038736963,-0.024460936,-0.014696207,0.072607204,0.2191617
-0.014095232,0.0033075416,-0.02286408,-0.018696208,0.07340753,0.21516171
-0.015042067,0.0047797686,-0.02686408,-0.014696207,0.07095017,0.2191617
-0.015005908,0.0039759595,-0.025264595,-0.012499331,0.07173613,0.21981071
-0.015673634,0.004408745,-0.026644273,-0.00849933,0.07063257,0.2238107
-0.014829829,0.0038921125,-0.025316661,-0.012499331,0.07189117,0.21981071
-0.01491231,0.0035785472,-0.02410103,-0.016499331,0.0722647,0.21581072
-0.014580703,0.0035608045,-0.024233313,-0.018807886,0.072476715,0.21181072
-0.014859532,0.0035285011,-0.024103725,-0.01988122,0.07219808,0.20808151
-0.015353012,0.004874059,-0.028103726,-0.01588122,0.06992788,0.2120815
-0.015460572,0.004510073,-0.027611358,-0.011881219,0.07034936,0.2160815
-0.01556656,0.004801703,-0.028571276,-0.007881219,0.06988386,0.2200815
-0.014998721,0.004028963,-0.026537945,-0.011867408,0.07119704,0.22002292
-0.015193703,0.0039611366,-0.026377982,-0.01310754,0.07115946,0.21842015
-0.014493937,0.0036596244,-0.025231859,-0.01710754,0.07207032,0.21442015
-0.014871284,0.0037469899,-0.025830938,-0.016378174,0.07150851,0.21274307
-0.0147847235,0.0035727825,-0.025442807,-0.018021595,0.07174459,0.20980354
-0.01521429,0.005921885,-0.029442808,-0.014021594,0.06872655,0.21380353
-0.015153408,0.00368519,-0.026269654,-0.015610935,0.07122039,0.21364224
-0.015294676,0.0045380346,-0.028738221,-0.0116109345,0.06988094,0.21764223
-0.014680608,0.0038073675,-0.026593197,-0.015610935,0.07140512,0.21364224
-0.015155223,0.0040154504,-0.027530244,-0.012484919,0.070543185,0.21764223
-0.014147917,0.0036911045,-0.026063984,-0.01648492,0.07195544,0.21364224
-0.0151092205,0.0039930283,-0.02763307,-0.013618745,0.070418574,0.21636367
-0.013060788,0.0033782502,-0.024164831,-0.017618746,0.072882555,0.21236368
-0.015020226,0.003993141,-0.027830688,-0.013862463,0.07039278,0.21575403
-0.015199,0.0053208815,-0.031628847,-0.009862462,0.06837753,0.21975403
-0.014866474,0.0038532962,-0.027628846,-0.013862463,0.070645034,0.21575403
-0.0151576,0.004535863,-0.029794414,-0.009862462,0.06930464,0.21975403
-0.013664767,0.0034997908,-0.025794413,-0.013862463,0.07195417,0.21575403
-0.014860186,0.0037758872,-0.027580945,-0.017296186,0.07050859,0.21175404
-0.0138353435,0.0035936323,-0.026136005,-0.021296186,0.071546726,0.20775405
-0.014520382,0.003916331,-0.0278011,-0.018542625,0.07046686,0.20769198
-0.01535217,0.0041067465,-0.030041669,-0.014542624,0.069381826,0.21169198
-0.0150632905,0.00432647,-0.030249545,-0.010542624,0.06924037,0.21569197
-0.014961346,0.004365175,-0.030235339,-0.011538496,0.06925463,0.218536
-0.014602937,0.003962447,-0.028963167,-0.015538497,0.06998283,0.21453601
-0.013937532,0.0036235028,-0.026980763,-0.019538498,0.07107388,0.21053602
-0.01346329,0.0038689051,-0.027735276,-0.022866944,0.07069523,0.20653602
-0.014175559,0.0038202812,-0.028233623,-0.020319864,0.07037972,0.20343475
-0.014575106,0.0039127376,-0.029077595,-0.01769605,0.06994906,0.20743474
-0.014828594,0.0043500527,-0.031215826,-0.01369605,0.06894036,0.21143474
-0.015250768,0.0042756754,-0.031099994,-0.011948504,0.068881586,0.21543473
-0.013968937,0.003980601,-0.029398048,-0.015948504,0.06995187,0.21143474
-0.014479955,0.0040649725,-0.029891849,-0.017670242,0.06959702,0.20760345
-0.013592842,0.003872536,-0.0284791,-0.021670243,0.070333265,0.20360346
-0.014127535,0.004132237,-0.03009817,-0.018839477,0.06952186,0.2052186
-0.014724028,0.004241725,-0.031268474,-0.014839476,0.06892718,0.20921859
-0.01489453,0.004480165,-0.032634374,-0.010839475,0.06825277,0.21321858
-0.014280014,0.004420686,-0.031684864,-0.014839476,0.068775356,0.20986989
-0.013983386,0.004157092,-0.03040803,-0.018839477,0.06940776,0.2058699
-0.013467709,0.004036936,-0.029460391,-0.022839477,0.0699101,0.2018699
-0.013917412,0.004182171,-0.030667959,-0.01985659,0.06931003,0.20285185
-0.014313665,0.004322727,-0.031845804,-0.01656275,0.06871348,0.20685184
-0.013989188,0.0042330036,-0.031309366,-0.018895214,0.06900433,0.20397225
-0.014667227,0.0045364997,-0.033472884,-0.014895214,0.06793071,0.20797224
-0.013579965,0.0042121164,-0.030870011,-0.018895214,0.06920406,0.20397225
-0.014284955,0.0043992377,-0.032603458,-0.016339956,0.06833014,0.2078784
-0.01373003,0.0043507637,-0.03175578,-0.019896138,0.068847,0.2038784
-0.014154412,0.0044928542,-0.032937612,-0.016791083,0.06820216,0.20708013
-0.012068098,0.0040674056,-0.029192904,-0.020791084,0.07014888,0.20308013
-0.013482924,0.004354806,-0.031778615,-0.021316784,0.06881915,0.19917728
-0.014623038,0.0047358237,-0.03500126,-0.017316783,0.06719435,0.20317727
-0.014063378,0.004603278,-0.033665545,-0.016805943,0.06781811,0.20651367
-0.013794243,0.0046116626,-0.03334844,-0.018650783,0.06793513,0.20343165
-0.014006612,0.0045510232,-0.033583175,-0.01745209,0.06794145,0.20523933
-0.013343528,0.0045193187,-0.032675926,-0.021430856,0.06831922,0.20123933
-0.0144556435,0.0046842056,-0.03498374,-0.017430855,0.06730107,0.20523933
-0.013324382,0.004544473,-0.032899,-0.021430856,0.068192996,0.20123933
-0.014142583,0.0046501425,-0.034614738,-0.017430855,0.06744616,0.20523933
-0.013108045,0.0045293877,-0.032761138,-0.021430856,0.068272986,0.20123933
-0.0130275665,0.004548665,-0.032928254,-0.022606961,0.06817948,0.19723934
-0.0138048,0.00473354,-0.03454495,-0.01860696,0.06730388,0.20123933
-0.012226379,0.004443332,-0.031590257,-0.022606961,0.068872795,0.19723934
-0.014039421,0.004744395,-0.035182502,-0.01860696,0.06701707,0.20123933
-0.013995065,0.0047856453,-0.03519517,-0.016092645,0.06695442,0.20523933
-0.014185704,0.004847258,-0.035861947,-0.013938449,0.06662865,0.20923932
-0.013405328,0.0047384067,-0.034494113,-0.01793845,0.06733285,0.20523933
-0.012967003,0.0047308076,-0.033963747,-0.021600235,0.06756624,0.20123933
-0.0120543605,0.004649581,-0.032580327,-0.025600236,0.068196215,0.19723934
-0.012587539,0.004725942,-0.033568557,-0.023480767,0.067723714,0.19323935
-0.012210845,0.0047075627,-0.033144534,-0.025202964,0.06791855,0.18948872
-0.013559303,0.0048249112,-0.03555448,-0.021202963,0.066837855,0.19348872
-0.012803313,0.0047938055,-0.034411803,-0.021191014,0.06735351,0.19595693
-0.015192843,0.005189384,-0.038411804,-0.017191013,0.06458132,0.19995692
-0.013221556,0.0048458353,-0.03519173,-0.018649792,0.066956244,0.20017496
-0.013127454,0.004884315,-0.035291787,-0.018587843,0.066894636,0.20013444
-0.012026512,0.004638838,-0.03263022,-0.022587843,0.06820898,0.19613445
-0.012707469,0.0048888447,-0.034854583,-0.020606985,0.06708913,0.19637069
-0.01255209,0.0049445806,-0.035030004,-0.020309627,0.06702572,0.19665086
-0.013222081,0.0049530026,-0.035966903,-0.01668139,0.066507705,0.20065086
-0.012381458,0.0049701086,-0.035099927,-0.020379474,0.06714808,0.19665086
-0.012736946,0.004975424,-0.0355003,-0.01885971,0.0667318,0.19858013
-0.010804815,0.0047632987,-0.032301497,-0.022859711,0.068272464,0.19458014
-0.012787442,0.0050244597,-0.035911914,-0.01885971,0.06655,0.19858013
-0.013327171,0.005097414,-0.03721976,-0.01485971,0.065994136,0.20258012
-0.013174954,0.005082741,-0.036836237,-0.014127517,0.0660254,0.20577422
-0.012723771,0.005108606,-0.036518667,-0.015694803,0.06635835,0.20289138
-0.013099044,0.0051534115,-0.03744001,-0.012036731,0.06589098,0.20689137
-0.011025887,0.004951056,-0.03351945,-0.01603673,0.06757215,0.20289138
-0.010463139,0.0048703905,-0.032521855,-0.02003673,0.06798502,0.19889139
-0.012376068,0.00520649,-0.036521856,-0.01603673,0.066403456,0.20289138
-0.011080126,0.005030374,-0.034056745,-0.02003673,0.06717197,0.19889139
-0.011805029,0.0051702936,-0.035699323,-0.019195696,0.06658691,0.19588962
-0.0093432,0.004916544,-0.03178831,-0.023195697,0.06858816,0.19188963
-0.010971349,0.005140947,-0.03455466,-0.023576293,0.06720611,0.18813968
-0.011938698,0.005270985,-0.036536243,-0.019576292,0.06625927,0.19213967
-0.011535913,0.0052590817,-0.035913657,-0.018567087,0.06651107,0.19610421
-0.013662971,0.005315678,-0.039913658,-0.0145670865,0.06481819,0.2001042
-0.011888876,0.0053505274,-0.037002694,-0.014631741,0.06616416,0.2025023
-0.010940281,0.0053316243,-0.03572281,-0.018631741,0.0667561,0.1985023
-0.010132148,0.005263124,-0.03439891,-0.022631742,0.0673744,0.19450231
-0.009975891,0.0051950733,-0.033678103,-0.026631743,0.067537114,0.19050232
-0.011746785,0.0055494397,-0.037678104,-0.022631742,0.065688886,0.19450231
-0.01097352,0.0055144783,-0.03700122,-0.018631741,0.06638163,0.1985023
-0.011309039,0.00559039,-0.038088646,-0.014631741,0.06601574,0.2025023
-0.009930279,0.0055326326,-0.03596013,-0.018631741,0.06701026,0.1985023
-0.009531538,0.0055425894,-0.03564705,-0.02016967,0.06720191,0.19450231
-0.009032293,0.005467052,-0.03475915,-0.023208264,0.0674688,0.19050232
-0.009527009,0.005611988,-0.036128253,-0.019208264,0.06697107,0.19376308
-0.010018974,0.0057233474,-0.037423894,-0.015208263,0.06649861,0.19776307
-0.010460593,0.0057726447,-0.03830206,-0.011208262,0.06610827,0.20176306
-0.010301172,0.005786008,-0.03824393,-0.010132092,0.06616378,0.20576306
-0.008972551,0.0056942627,-0.03626057,-0.014132092,0.066996075,0.20176306
-0.008308663,0.005608282,-0.035175543,-0.018132092,0.067426056,0.19776307
-0.007584808,0.005550375,-0.034289062,-0.022132093,0.0678831,0.19376308
-0.007885946,0.005639875,-0.035051923,-0.021705419,0.06754947,0.18976308
-0.008597261,0.0058387495,-0.036871593,-0.017705418,0.066877045,0.19376308
-0.0069555244,0.0054603894,-0.033368822,-0.021705419,0.06815665,0.18976308
-0.009318178,0.0060261325,-0.037368823,-0.017705418,0.06614678,0.19376308
-0.009576194,0.0060502756,-0.039457336,-0.0137054175,0.065884165,0.19776307
-0.010141188,0.005959953,-0.039028257,-0.009705417,0.06549799,0.20176306
-0.0081735905,0.006044474,-0.03804878,-0.010157939,0.06662348,0.20390259
