Der-mark/objtrans/data/sim/qtarget_trajectory.csv
q0,q1,q2,q3,q4,q5
0.0,0.0,0.0,0.0,0.0,0.0
-0.004,-0.004,0.004,0.004,-0.004,0.004
0.0,0.0,0.0,0.0,-0.008,0.008
0.004,0.004,-0.004,-0.004,-0.012,0.012
0.008,0.008,-0.008,-0.008,-0.016,0.016
0.011325341,0.012,-0.012,-0.012,-0.01574423,0.020000001
0.0127703175,0.016,-0.016,-0.016,-0.014527175,0.024000002
0.013969816,0.020000001,-0.020000001,-0.020000001,-0.013590614,0.028000003
0.0150679145,0.024000002,-0.024000002,-0.024000002,-0.012680239,0.032
0.016156878,0.028000003,-0.028000003,-0.028000003,-0.011998681,0.036000002
0.01733755,0.032,-0.032,-0.032,-0.011690899,0.040000003
0.018725779,0.032965142,-0.036000002,-0.036000002,-0.012328193,0.044000003
0.019856554,0.032199513,-0.040000003,-0.040000003,-0.013778055,0.048000004
0.02074552,0.031673934,-0.044000003,-0.044000003,-0.015444795,0.052000005
0.021717882,0.03114914,-0.048000004,-0.048000004,-0.017143784,0.056000005
0.022764774,0.030516658,-0.052000005,-0.052000005,-0.018967364,0.060000006
0.023858003,0.029724715,-0.056000005,-0.056000005,-0.02099038,0.06346967
0.025192782,0.028685723,-0.060000006,-0.060000006,-0.023297353,0.062187787
0.027586991,0.026720107,-0.064,-0.064,-0.02633108,0.060347345
0.02976937,0.024356296,-0.068,-0.068,-0.029818762,0.058306903
0.031703506,0.021951009,-0.072000004,-0.072000004,-0.033276442,0.05606553
0.03354114,0.019508252,-0.076000005,-0.076000005,-0.03672662,0.053564377
0.035265584,0.017160684,-0.080000006,-0.080000006,-0.040132865,0.05105821
0.036830828,0.015079481,-0.08400001,-0.08400001,-0.043361988,0.048936732
0.03816729,0.01319543,-0.08800001,-0.08800001,-0.046548307,0.047369163
0.039270476,0.011507895,-0.09200001,-0.09200001,-0.049672246,0.046223007
0.040231574,0.009989253,-0.09600001,-0.09600001,-0.052829124,0.045322586
0.04109071,0.008611991,-0.10000001,-0.10000001,-0.055992424,0.04460491
0.041874114,0.007357392,-0.10400001,-0.10400001,-0.05910427,0.044036206
0.04260935,0.0061788163,-0.10800001,-0.10800001,-0.062216192,0.043571606
0.043289185,0.00503393,-0.11200001,-0.11200001,-0.0653654,0.04321814
0.04389846,0.0038892303,-0.11600001,-0.11600001,-0.06857038,0.043002833
0.044470903,0.0028005664,-0.12000001,-0.12000001,-0.071688555,0.04280066
0.045045104,0.0017487726,-0.12400001,-0.12400001,-0.0746265,0.04260602
0.045553952,0.000719812,-0.128,-0.128,-0.077363126,0.042456817
0.046004217,-0.00026123598,-0.132,-0.132,-0.079926156,0.042299826
0.04642458,-0.0011995368,-0.13472617,-0.13599999,-0.08235697,0.042116072
0.046646547,-0.0020071636,-0.13430636,-0.13999999,-0.08457102,0.041852817
0.046411328,-0.0024229926,-0.13386594,-0.14399998,-0.08660262,0.041113015
0.04616506,-0.0028054886,-0.1334593,-0.14799997,-0.088425584,0.04040226
0.045895107,-0.0032064759,-0.1330574,-0.15199997,-0.08999008,0.03986141
0.04561145,-0.0036033269,-0.1326734,-0.15599996,-0.091355436,0.0394071
0.045322288,-0.003995817,-0.13230936,-0.15999995,-0.09256879,0.03900475
0.045028564,-0.0043790806,-0.13196146,-0.16399994,-0.09365102,0.038623244
0.044729892,-0.004748457,-0.13161719,-0.16799994,-0.09460287,0.038240995
0.044417378,-0.005095917,-0.13124157,-0.17199993,-0.095393576,0.03785234
0.044075437,-0.0054106615,-0.13075076,-0.17599992,-0.09594307,0.03746552
0.04366904,-0.005669895,-0.1299485,-0.17999992,-0.09605376,0.037109282
0.04312984,-0.0058259848,-0.12845449,-0.18399991,-0.0953153,0.036856055
0.042515583,-0.005908185,-0.12672603,-0.1879999,-0.09420789,0.03659396
0.041891295,-0.0059535895,-0.12508139,-0.1919999,-0.093073465,0.036267743
0.04126308,-0.0059612817,-0.123448424,-0.19599989,-0.09182762,0.03591154
0.040633556,-0.005931299,-0.12181193,-0.19999988,-0.09045066,0.035534266
0.040026825,-0.0058752266,-0.120178305,-0.20399988,-0.08891697,0.035166763
0.039443262,-0.005805566,-0.11856256,-0.20799987,-0.08725201,0.03481277
0.03886872,-0.005740285,-0.11701788,-0.21199986,-0.08555581,0.03444478
0.038297217,-0.0056722155,-0.11553395,-0.21599986,-0.08382459,0.03405639
0.037725296,-0.005600197,-0.11410741,-0.21999985,-0.08206223,0.033645313
0.03714851,-0.0055228258,-0.11273628,-0.22399984,-0.08027479,0.033208113
0.03656626,-0.0054423846,-0.11141314,-0.22799984,-0.07846057,0.03275272
0.035976335,-0.0053602783,-0.110131264,-0.23199983,-0.07661887,0.03228497
0.035374474,-0.005274597,-0.108889356,-0.23599982,-0.074754566,0.031798843
0.034757636,-0.0051830765,-0.107690476,-0.23999982,-0.07287452,0.031281613
0.034120847,-0.005085305,-0.106528655,-0.24399981,-0.07097608,0.030734062
0.033456024,-0.00498044,-0.10539694,-0.2479998,-0.06905531,0.030156864
0.032752153,-0.0048677893,-0.10428565,-0.2519998,-0.06710448,0.02955234
0.031993862,-0.004747802,-0.103180304,-0.2559998,-0.0651093,0.02892727
0.031165836,-0.0046200096,-0.102068804,-0.2599998,-0.063056126,0.028285578
0.03030397,-0.004464556,-0.101005636,-0.26399982,-0.061005242,0.027575163
0.029421145,-0.0042875414,-0.099991895,-0.26799983,-0.05896175,0.02680665
0.028513798,-0.004087712,-0.09902252,-0.27199984,-0.05692174,0.025984127
0.02759328,-0.0038774207,-0.09808948,-0.27599984,-0.054873463,0.025131432
0.026657036,-0.0036865005,-0.09717813,-0.27999985,-0.052782316,0.024303928
0.025679842,-0.003530298,-0.096277,-0.28399986,-0.050592728,0.02358842
0.024586538,-0.003462565,-0.09539791,-0.28799987,-0.048207264,0.023166602
0.023271,-0.003595691,-0.09449533,-0.29199988,-0.04536784,0.023363456
0.021849792,-0.0036039632,-0.093672834,-0.29599988,-0.042480063,0.023401788
0.020380972,-0.003570724,-0.09290562,-0.2999999,-0.03957667,0.02338704
0.018837662,-0.0034842005,-0.09218049,-0.3039999,-0.03664253,0.023288667
0.01719628,-0.0033385349,-0.09149304,-0.3079999,-0.03365471,0.02309103
0.015434894,-0.0031300776,-0.090842664,-0.31199992,-0.030591875,0.02279603
0.013569971,-0.002856639,-0.09022373,-0.314,-0.027469566,0.022484485
0.011926532,-0.0025431297,-0.08958767,-0.314,-0.02443595,0.02229905
0.010523104,-0.0022535392,-0.08889591,-0.314,-0.021487003,0.022263376
0.009039124,-0.0020025221,-0.088159375,-0.314,-0.018532274,0.022308407
0.0075113103,-0.0017889179,-0.08738354,-0.314,-0.01564513,0.02246502
0.0059968983,-0.0015845782,-0.086596124,-0.314,-0.012842804,0.022660714
0.004657741,-0.0013820727,-0.08585391,-0.314,-0.0101953335,0.022892453
0.0035144642,-0.0012190201,-0.08514883,-0.314,-0.0076753176,0.023178881
0.0025435975,-0.0010931185,-0.084471375,-0.314,-0.005249256,0.023505734
0.0017231692,-0.0010006808,-0.083818,-0.314,-0.0028986374,0.023861147
0.0010331154,-0.00093869393,-0.08318537,-0.314,-0.00060776016,0.024234531
0.0004555066,-0.00089690136,-0.08256857,-0.314,0.0016332208,0.024615286
-2.4386769e-05,-0.00085924513,-0.08196373,-0.314,0.0038314357,0.024981106
-0.0004151739,-0.00095022295,-0.0813536,-0.314,0.0060165874,0.02552398
-0.00074803544,-0.0010207443,-0.080755115,-0.314,0.0081799915,0.026033873
-0.0010256665,-0.0010824879,-0.08017848,-0.314,0.01029245,0.026549308
-0.0012495831,-0.0011655863,-0.07961066,-0.314,0.012378558,0.027081886
-0.0014279452,-0.0012652482,-0.07904458,-0.314,0.01445729,0.027625281
-0.0015668918,-0.0013818106,-0.07847891,-0.314,0.016532054,0.028180992
-0.0016717755,-0.0015132895,-0.07791272,-0.314,0.018605812,0.028746698
-0.0017468447,-0.001658955,-0.077344894,-0.314,0.020681174,0.02932225
-0.0017958804,-0.0018174596,-0.07677474,-0.314,0.022758672,0.029906144
-0.0018219888,-0.0019854533,-0.07620293,-0.314,0.024830107,0.030493675
-0.0018276973,-0.0021611953,-0.07562858,-0.314,0.02689409,0.031083373
-0.0018064174,-0.0023116146,-0.075053446,-0.314,0.028864607,0.03165795
-0.0017560903,-0.0024243402,-0.07447942,-0.314,0.030705312,0.032197416
-0.0016792804,-0.0025065963,-0.073905185,-0.314,0.032430615,0.032702785
-0.0015797121,-0.0025622386,-0.073329434,-0.314,0.034056764,0.033179738
-0.0014627379,-0.0025922775,-0.0727539,-0.314,0.03559719,0.03363861
-0.0013313526,-0.002598566,-0.072178446,-0.314,0.037063804,0.034082703
-0.0011874278,-0.0025834437,-0.071601845,-0.314,0.038467754,0.034515865
-0.0010334898,-0.0025514583,-0.071025334,-0.314,0.039814886,0.03493712
-0.0008723088,-0.002509516,-0.070452824,-0.314,0.041106578,0.035341945
-0.0007049515,-0.0024588897,-0.06988324,-0.314,0.042351108,0.03573449
-0.0005326721,-0.002400515,-0.069316655,-0.314,0.043554164,0.036115658
-0.00035634995,-0.0023355708,-0.06875275,-0.314,0.044721097,0.036486417
-0.00017690231,-0.002265686,-0.06819193,-0.314,0.045854565,0.036848083
3.8928993e-06,-0.0021928248,-0.067637414,-0.314,0.04695083,0.03720159
0.0001776135,-0.002097056,-0.06710208,-0.314,0.048010822,0.037522454
0.00035234477,-0.0020041317,-0.066573374,-0.314,0.049037647,0.03784609
0.00053280307,-0.0019318884,-0.066037,-0.314,0.05003273,0.038193453
0.00068919285,-0.001845234,-0.06551741,-0.314,0.050947636,0.03853367
0.00081956753,-0.0017449356,-0.065019235,-0.314,0.05177458,0.038869172
0.00092609815,-0.0016318545,-0.064541474,-0.314,0.052521754,0.03919932
0.0010112553,-0.0015082175,-0.0640819,-0.314,0.053197097,0.0395258
0.00107721,-0.0013756156,-0.063638546,-0.314,0.053807795,0.039849024
0.0011259087,-0.001235621,-0.06320959,-0.314,0.05435999,0.0401691
0.0011590732,-0.0010895251,-0.06279336,-0.314,0.05485918,0.040486146
0.0011785002,-0.0009385816,-0.0623881,-0.314,0.05531053,0.0408002
0.0011857245,-0.00078387634,-0.061992127,-0.314,0.05571839,0.041111257
0.0011822435,-0.00062632625,-0.061603885,-0.314,0.056087013,0.041419208
0.0011694792,-0.0004669607,-0.06122169,-0.314,0.056419935,0.04172424
0.001148742,-0.00030656578,-0.0608441,-0.314,0.056720585,0.042025864
0.0011213794,-0.00014605856,-0.060469348,-0.314,0.056992035,0.042324383
0.0010885518,1.3849742e-05,-0.060095966,-0.314,0.057237145,0.042619307
0.0010515319,0.00017237307,-0.059722155,-0.314,0.05745851,0.042910863
0.0009974056,0.00036611964,-0.05934565,-0.314,0.057667345,0.043202493
0.00095192605,0.0005283113,-0.05896551,-0.314,0.057849415,0.043497305
0.0009085427,0.0006800595,-0.058580752,-0.314,0.058013696,0.04377703
0.000865571,0.00082667946,-0.058187943,-0.314,0.058162905,0.044052828
0.0008239844,0.0009685831,-0.057785477,-0.314,0.05829964,0.044323158
0.0007849432,0.0011048346,-0.057371277,-0.314,0.0584256,0.044588476
0.0007449286,0.0012410487,-0.05694873,-0.314,0.058541376,0.044846084
0.000701695,0.0013808187,-0.05652053,-0.314,0.058647078,0.045095637
0.0006561032,0.001523471,-0.056085255,-0.314,0.05874407,0.04533786
0.0006081531,0.0016676579,-0.0556459,-0.314,0.058832105,0.045569297
0.00055705884,0.0018088128,-0.055212326,-0.314,0.058908578,0.045784906
0.0005028577,0.0019471232,-0.054783303,-0.314,0.058974084,0.045990743
0.00044584923,0.00208315,-0.054358453,-0.314,0.059029896,0.046184976
0.00038663222,0.002216669,-0.053937383,-0.314,0.059076607,0.04636723
0.00032730293,0.0023494018,-0.053521987,-0.314,0.059114188,0.046534438
0.00026887204,0.0024804503,-0.0531114,-0.314,0.059142828,0.046687797
0.00021178868,0.002609627,-0.052704908,-0.314,0.05916345,0.046825882
0.00015609027,0.002736895,-0.052302577,-0.314,0.059176475,0.04694836
9.9381214e-05,0.0028649115,-0.051909782,-0.314,0.05918112,0.04705691
4.2410138e-05,0.0029912435,-0.051525343,-0.314,0.059176963,0.04715805
-1.4411213e-05,0.0031134207,-0.05114683,-0.314,0.059163224,0.04725676
-7.2243216e-05,0.003238106,-0.05077845,-0.314,0.059143312,0.047336902
-0.0001273427,0.0033575129,-0.050415136,-0.314,0.059117187,0.047409367
-0.00017693973,0.003470594,-0.050056256,-0.314,0.05908851,0.047463268
-0.00022198881,0.003579146,-0.04970206,-0.314,0.059057593,0.04749703
-0.0002612547,0.0036780406,-0.04934852,-0.314,0.059022482,0.0475211
-0.000295224,0.0037702725,-0.04899625,-0.314,0.05898468,0.04752664
-0.00032075238,0.0038491038,-0.048636623,-0.314,0.05894313,0.047530647
-0.00033699776,0.0039151707,-0.048271514,-0.314,0.05889963,0.04752327
-0.00034203232,0.003964768,-0.047897853,-0.314,0.05885393,0.047510058
-0.00033447111,0.003997146,-0.04751384,-0.314,0.058806803,0.04748528
-0.00031195596,0.0040090866,-0.04711553,-0.314,0.058758326,0.047448482
-0.00028032615,0.004009349,-0.04671194,-0.314,0.058707606,0.047397804
-0.00024772313,0.004008563,-0.046315107,-0.314,0.058653295,0.047341917
-0.0002131362,0.0040051937,-0.04592393,-0.314,0.058596473,0.04728562
-0.00017708946,0.004000178,-0.04553857,-0.314,0.05853752,0.0472279
-0.00013956416,0.003993291,-0.045158803,-0.314,0.05847658,0.047169503
-0.0001007849,0.0039850934,-0.044784956,-0.314,0.058414258,0.04710883
-6.082654e-05,0.0039744624,-0.044416048,-0.314,0.05834976,0.047050584
-2.073717e-05,0.003966527,-0.044055317,-0.314,0.0582865,0.046979167
2.0812036e-05,0.0039549605,-0.043698333,-0.314,0.058221556,0.04691456
6.2773e-05,0.003942945,-0.04334741,-0.314,0.058156163,0.046845984
0.00010540772,0.003928758,-0.043001037,-0.314,0.0580898,0.046780366
0.00014830448,0.003912925,-0.04265962,-0.314,0.058022644,0.046715982
0.00019221187,0.0038915512,-0.04232047,-0.314,0.057952274,0.046664964
0.00023563267,0.0038707766,-0.041987758,-0.314,0.05788235,0.046608143
0.0002790909,0.0038474568,-0.041658845,-0.314,0.057811905,0.046557423
0.0003221748,0.0038233509,-0.041335303,-0.314,0.057742096,0.04650588
0.00036480953,0.0037973728,-0.041016012,-0.314,0.057672586,0.046458527
0.0004068079,0.0037700478,-0.040701564,-0.314,0.05760401,0.046412863
0.0004491806,0.0037416746,-0.040389873,-0.314,0.057539552,0.046369325
0.00049368694,0.0037128148,-0.040078647,-0.314,0.05748419,0.046325646
0.0005399151,0.0036824201,-0.03976783,-0.314,0.057436984,0.04628402
0.00058726623,0.003650678,-0.03945801,-0.314,0.057397682,0.04624356
0.00063521625,0.0036173637,-0.03914931,-0.314,0.057365865,0.046205863
0.00068346574,0.0035830014,-0.038842708,-0.314,0.05734094,0.046167534
0.0007328756,0.0035494254,-0.03853966,-0.314,0.057320762,0.046118796
0.00078359566,0.0035155122,-0.038239345,-0.314,0.05730463,0.04606351
0.0008352139,0.0034821604,-0.037942998,-0.314,0.05729205,0.045998003
0.0008877306,0.0034490332,-0.03765047,-0.314,0.05728258,0.04592344
0.000940734,0.0034168046,-0.03736262,-0.314,0.05727573,0.045837607
0.0009941116,0.003385512,-0.037079617,-0.314,0.05727113,0.0457404
0.0010477138,0.0033556037,-0.036802154,-0.314,0.057268243,0.045629974
0.0011013536,0.0033274551,-0.03653055,-0.314,0.057266634,0.045505367
0.0011547685,0.0033017022,-0.03626542,-0.314,0.057265814,0.045364697
0.0012079215,0.0032787938,-0.036007218,-0.314,0.05726529,0.045206588
0.0012605506,0.0032594416,-0.03575654,-0.314,0.057264544,0.045028824
0.0013124683,0.0032444317,-0.035513923,-0.314,0.057263084,0.044829424
0.0013635252,0.0032345497,-0.03527994,-0.314,0.057260383,0.044606183
0.0014137211,0.0032300577,-0.03505477,-0.314,0.05725608,0.044358198
0.0014652646,0.0032230583,-0.034834933,-0.314,0.05725204,0.044102203
0.0015177814,0.0032145984,-0.03462389,-0.314,0.057248145,0.043828614
0.001571758,0.00320423,-0.0344194,-0.314,0.05724403,0.043542895
0.0016272691,0.0031918027,-0.03422019,-0.314,0.057239648,0.043247335
0.0016848017,0.0031749208,-0.034020305,-0.314,0.05723579,0.04295821
0.0017418476,0.0031553067,-0.03382781,-0.314,0.05723351,0.042665496
0.0017964231,0.003131163,-0.033641648,-0.314,0.057234522,0.042386107
0.0018481162,0.0031048863,-0.033464257,-0.314,0.057238,0.042109374
0.001897863,0.0030752027,-0.033291865,-0.314,0.057243615,0.04184256
0.0019460376,0.0030430865,-0.033126306,-0.314,0.057250805,0.041576684
0.0019920787,0.0030097722,-0.03296488,-0.314,0.057259377,0.041316945
0.0020356118,0.002976982,-0.032808807,-0.314,0.05726896,0.041057166
0.002077161,0.0029438925,-0.03265618,-0.314,0.057279553,0.040801022
0.0021170257,0.0029110273,-0.03250799,-0.314,0.057290968,0.040543642
0.0021555056,0.002877975,-0.032362886,-0.314,0.057303168,0.040287647
0.0021927876,0.0028450352,-0.032221638,-0.314,0.057315934,0.04002952
0.0022291336,0.002812058,-0.03208351,-0.314,0.057329368,0.03977045
0.0022646938,0.0027792302,-0.031948775,-0.314,0.057343334,0.039508693
0.0022996177,0.0027464775,-0.03181728,-0.314,0.057357896,0.0392442
0.0023340923,0.0027139492,-0.031689,-0.314,0.057372984,0.03897619
0.0023682674,0.0026815336,-0.031564016,-0.314,0.05738863,0.03870395
0.0024023678,0.002649417,-0.03144242,-0.314,0.057404984,0.038426954
0.0024363932,0.002617413,-0.031323276,-0.314,0.057422053,0.038146626
0.0024699694,0.0025852965,-0.031203736,-0.314,0.05743995,0.037868395
0.002503134,0.0025535545,-0.031085357,-0.314,0.05745855,0.03758695
0.0025359613,0.0025216253,-0.0309667,-0.314,0.05747794,0.037305947
0.002568415,0.002490033,-0.030848939,-0.314,0.057498116,0.03702162
0.0026005686,0.002458403,-0.030730993,-0.314,0.05751908,0.036736798
0.002632423,0.002427185,-0.030613814,-0.314,0.057540823,0.03644831
0.0026640154,0.0023960792,-0.03049652,-0.314,0.057563543,0.03615844
0.0026952708,0.0023654602,-0.030379845,-0.314,0.057587054,0.03586464
0.0027263018,0.0023350655,-0.03026315,-0.314,0.057611566,0.035568368
0.0027571456,0.002305195,-0.030146945,-0.314,0.057637095,0.035267826
0.0027877646,0.002275811,-0.030030662,-0.314,0.05766364,0.034963846
0.0028186457,0.002247026,-0.029913334,-0.314,0.05769111,0.034656234
0.0028502382,0.0022170807,-0.029793963,-0.314,0.057719182,0.034350675
0.0028820927,0.002187697,-0.029676447,-0.314,0.05774786,0.034038685
0.0029152946,0.0021573396,-0.029561251,-0.314,0.05777769,0.033721972
0.0029499563,0.0021261217,-0.02944832,-0.314,0.057808984,0.033400472
0.0029860407,0.0020941177,-0.02933724,-0.314,0.057841927,0.03307519
0.0030235471,0.002061365,-0.029228015,-0.314,0.057876773,0.03274568
0.0030626634,0.0020255425,-0.029118491,-0.314,0.057913005,0.03243687
0.0031038756,0.001980662,-0.02900756,-0.314,0.057948977,0.032222085
0.0031458363,0.001936193,-0.028907562,-0.314,0.057988655,0.032050498
0.0031901181,0.0018815802,-0.028809005,-0.314,0.058041096,0.031942658
0.003237544,0.001820866,-0.028719842,-0.314,0.058110345,0.03186431
0.0032885638,0.0017536011,-0.028629744,-0.314,0.058196366,0.0318228
0.0033439253,0.0016839033,-0.028541312,-0.314,0.0583017,0.031795066
0.0034045645,0.001611997,-0.028447995,-0.314,0.05842799,0.03178155
0.0034707063,0.001539342,-0.028351272,-0.314,0.058574688,0.031771705
0.0035395434,0.0014631309,-0.028254772,-0.314,0.05872786,0.031770244
0.0036100273,0.0013857597,-0.028161341,-0.314,0.05888638,0.03176875
0.0036819335,0.001306891,-0.028068772,-0.314,0.05904902,0.03177047
0.0037541394,0.0012286961,-0.027977234,-0.314,0.059215147,0.031772867
0.00382642,0.0011511002,-0.0278856,-0.314,0.059384186,0.03177721
0.0038988877,0.0010744774,-0.02779427,-0.314,0.059556108,0.03178155
0.00397158,0.0009986408,-0.027702635,-0.314,0.059730656,0.031786643
0.004044572,0.00092381483,-0.027610684,-0.314,0.059907854,0.03179177
0.004117976,0.0008500369,-0.027517928,-0.314,0.060087867,0.031797197
0.0041919784,0.00077738194,-0.027423993,-0.314,0.06027109,0.031802848
0.004266729,0.00070611195,-0.027328355,-0.314,0.060458064,0.031808913
0.004342641,0.00063615205,-0.027230227,-0.314,0.060649753,0.03181565
0.0044201994,0.00056776433,-0.027128711,-0.314,0.06084743,0.031823475
0.0044998913,0.00050117326,-0.027022464,-0.314,0.06105278,0.03183287
0.004582578,0.00043675327,-0.026909849,-0.314,0.061268385,0.031844586
0.004669195,0.0003749161,-0.026788402,-0.314,0.061497547,0.031859897
0.004759256,0.00031199338,-0.026660442,-0.314,0.06173711,0.031881306
0.0048509636,0.00024341846,-0.026531285,-0.314,0.06198135,0.03190964
0.0049441312,0.00016874219,-0.026400818,-0.314,0.062231917,0.0319461
0.0050393576,8.5494044e-05,-0.02626784,-0.314,0.06249079,0.031994686
0.005137541,-9.414078e-06,-0.02613168,-0.314,0.062760904,0.03205858
0.0052487883,-0.00014858521,-0.025965674,-0.314,0.06304523,0.03220221
0.005358912,-0.00027750005,-0.025834456,-0.314,0.06335584,0.03227842
0.0054750624,-0.0004450257,-0.025668858,-0.314,0.06368333,0.032451354
0.0055912132,-0.00060371746,-0.025527814,-0.314,0.064025044,0.032572333
0.0057060914,-0.00076721923,-0.025373448,-0.314,0.06435987,0.032725915
0.0058208196,-0.0009248629,-0.025231019,-0.314,0.06469744,0.032853108
0.00593551,-0.001085314,-0.025083352,-0.314,0.06503132,0.03299385
0.0060504256,-0.001242808,-0.024942664,-0.314,0.06536559,0.033119548
0.0061657154,-0.0014013125,-0.02480061,-0.314,0.065697156,0.0332491
0.006281604,-0.0015581514,-0.024663161,-0.314,0.06602783,0.033368394
0.0063982415,-0.0017151401,-0.024526441,-0.314,0.066355996,0.033486042
0.006517686,-0.0018656718,-0.024391556,-0.314,0.066681944,0.033585124
0.0066413223,-0.0020099897,-0.024253601,-0.314,0.067003824,0.033669982
0.0067696385,-0.0021489735,-0.024115104,-0.314,0.06732203,0.033737097
0.0069025583,-0.00228399,-0.023975633,-0.314,0.067635894,0.033789538
0.00704012,-0.002415001,-0.023836706,-0.314,0.06794561,0.033825096
0.007181313,-0.002542718,-0.023697404,-0.314,0.06825131,0.033848565
0.0073229545,-0.0026662801,-0.023557035,-0.314,0.06855537,0.033867583
0.00746482,-0.002785687,-0.023416666,-0.314,0.068858944,0.03388121
0.0076066493,-0.0029015008,-0.023275848,-0.314,0.06916221,0.033891577
0.007748291,-0.0030136465,-0.023135198,-0.314,0.06946548,0.03389805
0.00788952,-0.003122217,-0.022994567,-0.314,0.069768906,0.033901833
0.008030302,-0.0032271945,-0.022854311,-0.314,0.07007274,0.033902768
0.008170371,-0.0033284284,-0.022714427,-0.314,0.07037717,0.033901535
0.008309654,-0.0034256198,-0.022575013,-0.314,0.0706825,0.033898164
0.008447965,-0.0035185255,-0.022436235,-0.314,0.07098895,0.033893112
0.008585152,-0.0036065087,-0.022298245,-0.314,0.071296714,0.03388649
0.008721142,-0.0036891017,-0.0221613,-0.314,0.07160587,0.033878587
0.008855633,-0.0037652005,-0.022025835,-0.314,0.071916364,0.03386968
0.008988179,-0.0038333074,-0.021891754,-0.314,0.07222828,0.033860885
0.009116794,-0.003887097,-0.021750076,-0.314,0.072542824,0.033862676
0.009242977,-0.003930087,-0.021605495,-0.314,0.072854444,0.033875704
0.009366539,-0.0039612865,-0.021463199,-0.314,0.07315925,0.0338985
0.009486882,-0.00397931,-0.021326778,-0.314,0.07345335,0.033934172
0.009603332,-0.0039815935,-0.02120187,-0.314,0.073731616,0.033983584
0.009714991,-0.0039648428,-0.02109414,-0.314,0.07398739,0.0340507
0.009820773,-0.0039242855,-0.021011567,-0.314,0.0742122,0.03413848
0.009919106,-0.0038540072,-0.020962773,-0.314,0.07439524,0.03425354
0.010006659,-0.0037445945,-0.020957308,-0.314,0.07452262,0.034406036
0.010079426,-0.0035841432,-0.021007542,-0.314,0.07457682,0.034608733
0.010143472,-0.0033977707,-0.021088975,-0.314,0.074582696,0.034861356
0.010208715,-0.0032194273,-0.021164455,-0.314,0.074591085,0.035128508
0.010272461,-0.0030358809,-0.021243734,-0.314,0.074596584,0.03539214
0.010335646,-0.0028534199,-0.021319535,-0.314,0.07460018,0.03566554
0.010398082,-0.002668058,-0.021398216,-0.314,0.07460089,0.03593857
0.010459957,-0.002483033,-0.021475175,-0.314,0.07459924,0.036219716
0.010521083,-0.0022956312,-0.021554476,-0.314,0.07459453,0.03650304
0.01058146,-0.0021077802,-0.021633437,-0.314,0.074587114,0.03679396
0.010641127,-0.0019178328,-0.02171429,-0.314,0.07457682,0.03708918
0.01070068,-0.001727586,-0.021793608,-0.314,0.07456612,0.037392415
0.0107601965,-0.0015355801,-0.021873318,-0.314,0.074555,0.037701003
0.010819564,-0.0013425447,-0.021952113,-0.314,0.07454385,0.038018275
0.010878705,-0.0011473008,-0.022031486,-0.314,0.0745328,0.038342733
0.0109374365,-0.0009500919,-0.022110803,-0.314,0.07452221,0.03867692
0.010996877,-0.0007527144,-0.022189485,-0.314,0.07451116,0.03901961
0.011058265,-0.0005575829,-0.02226622,-0.314,0.07449803,0.039368924
0.011121563,-0.00036364916,-0.022342002,-0.314,0.07448231,0.039723437
0.011186956,-0.00017162443,-0.022415986,-0.314,0.07446396,0.040084954
0.011254595,1.8790728e-05,-0.02248879,-0.314,0.074442856,0.040452946
0.011319427,0.00022904469,-0.022575893,-0.314,0.0744134,0.04080125
0.0113852685,0.0004332347,-0.022649672,-0.314,0.07438229,0.04117624
0.011460545,0.0006142545,-0.02271149,-0.314,0.07435403,0.041578706
0.011538964,0.00079942925,-0.02278143,-0.314,0.07432046,0.041974396
0.011621126,0.0009767433,-0.022842089,-0.314,0.074285045,0.042392097
0.011706882,0.0011551054,-0.02290591,-0.314,0.0742454,0.042812716
0.011796756,0.0013275908,-0.022963274,-0.314,0.074203216,0.04325235
0.011889699,0.001501798,-0.02302455,-0.314,0.07415598,0.043692734
0.011985299,0.0016737968,-0.023083748,-0.314,0.07410455,0.044142514
0.01208352,0.0018466564,-0.023145154,-0.314,0.07404799,0.044595253
0.012184585,0.002018206,-0.023205794,-0.314,0.073986754,0.045055848
0.012288721,0.0021900923,-0.023268493,-0.314,0.07392005,0.04552045
0.012396262,0.0023614548,-0.02333295,-0.314,0.07384765,0.045989845
0.012507247,0.0025330419,-0.023399953,-0.314,0.073769234,0.04646257
0.012621752,0.0027046662,-0.023468828,-0.314,0.073684715,0.046939787
0.012740036,0.002876478,-0.023540003,-0.314,0.073593825,0.047421083
0.012862026,0.003048589,-0.023613146,-0.314,0.07349654,0.047906987
0.012987907,0.0032211118,-0.023688456,-0.314,0.073392674,0.048397303
0.013117797,0.003394046,-0.023765659,-0.314,0.0732821,0.048892673
0.013251689,0.0035677296,-0.02384494,-0.314,0.073164634,0.049392764
0.013389662,0.003742161,-0.023925943,-0.314,0.07304033,0.04989809
0.013531642,0.0039176415,-0.024008704,-0.314,0.072908975,0.05040851
0.013677475,0.004094431,-0.024092982,-0.314,0.07277071,0.05092424
0.013826939,0.0042727934,-0.02417857,-0.314,0.07262547,0.051445104
0.013976854,0.0044504814,-0.024266608,-0.314,0.07247373,0.051966157
0.014122088,0.004626935,-0.02435886,-0.314,0.07231561,0.05247721
0.014260999,0.0048059705,-0.024454067,-0.314,0.0721514,0.052973628
0.014392421,0.0049877013,-0.024549555,-0.314,0.071982585,0.053458072
0.014514561,0.00517385,-0.024644837,-0.314,0.07181043,0.053929187
0.014624909,0.0053657624,-0.024737349,-0.314,0.071636714,0.054388326
0.014719799,0.005566134,-0.024825165,-0.314,0.07146333,0.05483451
0.0147940265,0.0057782596,-0.024904782,-0.314,0.07129275,0.055268157
0.014840066,0.0060072294,-0.024972273,-0.314,0.07112812,0.05568851
0.014846842,0.0062596686,-0.025021607,-0.314,0.07097324,0.056094874
0.014797394,0.0065450855,-0.025045281,-0.314,0.07083287,0.05648454
0.014669341,0.006876881,-0.025033265,-0.314,0.070712894,0.05685541
0.01450831,0.007221926,-0.025011612,-0.314,0.07060363,0.057210565
0.014343386,0.007560197,-0.024992803,-0.314,0.07049298,0.057557143
0.014175243,0.007894162,-0.02497854,-0.314,0.07037672,0.05789212
0.014003955,0.008224572,-0.024968304,-0.314,0.07025376,0.058217067
0.013830234,0.008551575,-0.024962746,-0.314,0.0701239,0.058531713
0.013654754,0.008874799,-0.024961771,-0.314,0.069986984,0.058836825
0.013478376,0.009194091,-0.024965871,-0.314,0.06984295,0.05913216
0.013301848,0.009509116,-0.024975117,-0.314,0.06969168,0.059418213
0.013126105,0.009819875,-0.02499009,-0.314,0.06953316,0.059694685
0.012951936,0.010125991,-0.025010828,-0.314,0.069367304,0.059962243
0.012780087,0.010427653,-0.02503787,-0.314,0.06919407,0.060220297
0.012611458,0.010724674,-0.02507141,-0.314,0.06901357,0.06046937
0.012446795,0.011017165,-0.025111986,-0.314,0.068825774,0.060709156
0.012287224,0.0113050155,-0.025159955,-0.314,0.068630904,0.060939737
0.012132668,0.011588673,-0.025215352,-0.314,0.06842851,0.061163574
0.011983241,0.011868737,-0.025278894,-0.314,0.068218224,0.061382253
0.011840101,0.012145283,-0.025351455,-0.314,0.06800033,0.06159554
0.01170445,0.012418235,-0.025433823,-0.314,0.06777511,0.0618034
0.011577706,0.012687705,-0.025526747,-0.314,0.06754299,0.062006094
0.011457737,0.012955193,-0.025627214,-0.314,0.06730193,0.06220324
0.0113404635,0.013223578,-0.025731612,-0.314,0.06704878,0.062390476
0.011226109,0.0134937605,-0.025841042,-0.314,0.06678358,0.062563896
0.011115162,0.013765851,-0.025954518,-0.314,0.06650613,0.06272332
0.011007882,0.014040488,-0.026072389,-0.314,0.06621652,0.06286507
0.0109038595,0.014315312,-0.026190897,-0.314,0.06591886,0.062989235
0.010797704,0.014582723,-0.02630443,-0.314,0.06562334,0.06310131
0.010682825,0.014843735,-0.026416013,-0.314,0.06532853,0.06320402
0.0105579905,0.015098833,-0.026525913,-0.314,0.06503499,0.06329536
0.010424696,0.015345208,-0.026631657,-0.314,0.06474628,0.06337332
0.010283354,0.015582151,-0.026732761,-0.314,0.06446386,0.06343561
0.010133065,0.015809998,-0.026828736,-0.314,0.06418705,0.063483484
0.009973344,0.016028823,-0.026920069,-0.314,0.063915744,0.06351635
0.009803442,0.016238553,-0.0270062,-0.314,0.063649826,0.063535064
0.009622572,0.016439112,-0.027087277,-0.314,0.063389115,0.06353914
0.009429911,0.016630275,-0.027162964,-0.314,0.06313365,0.06352881
0.00922441,0.016811896,-0.027232999,-0.314,0.06288346,0.06350396
0.009006109,0.016984792,-0.027299402,-0.314,0.06263738,0.06346091
0.008775792,0.017149342,-0.027363075,-0.314,0.062394034,0.06339825
0.008534956,0.017306818,-0.027423937,-0.314,0.062153425,0.06331935
0.008286634,0.017459203,-0.027482798,-0.314,0.061915655,0.06322831
0.008031874,0.017605523,-0.027539095,-0.314,0.06168096,0.063126795
0.007770713,0.017745817,-0.027593542,-0.314,0.06144907,0.06301398
0.0075027766,0.017879935,-0.027645737,-0.314,0.0612198,0.062890045
0.0072278404,0.018007725,-0.027696086,-0.314,0.060992848,0.06275442
0.0069465786,0.018127732,-0.027744502,-0.314,0.060765382,0.06260811
0.0066591026,0.018239802,-0.027792303,-0.314,0.060536034,0.062448986
0.006365114,0.018343564,-0.027838869,-0.314,0.060304444,0.062278148
0.0060642003,0.018439015,-0.027884945,-0.314,0.060070157,0.062093865
0.0057561,0.018525707,-0.027930314,-0.314,0.059832282,0.061897874
0.00544085,0.018603602,-0.027976578,-0.314,0.05958834,0.061692413
0.0051186006,0.018672176,-0.02802436,-0.314,0.059337884,0.061476767
0.0047887894,0.018731168,-0.02807349,-0.314,0.05908028,0.06125117
0.0044509307,0.018780129,-0.028124658,-0.314,0.0588153,0.061014265
0.0041044257,0.018818684,-0.028177831,-0.314,0.058542233,0.060766127
0.0037456423,0.018845974,-0.028230721,-0.314,0.058266588,0.060494937
0.0033709507,0.018861469,-0.028280525,-0.314,0.057990003,0.0601978
0.0029791156,0.018864876,-0.028329054,-0.314,0.057710655,0.059874278
0.0025707355,0.018857313,-0.028377658,-0.314,0.057428416,0.059526127
0.002151201,0.01884803,-0.02842838,-0.314,0.057151236,0.059157986
0.0017245541,0.018835004,-0.028476818,-0.314,0.05688206,0.058785316
0.0012916563,0.018818684,-0.028527891,-0.314,0.05662034,0.058403738
0.0008547159,0.01879847,-0.028578518,-0.314,0.056365956,0.058016766
0.0004175134,0.018775001,-0.02862832,-0.314,0.056118157,0.057615764
-1.9034022e-05,0.01874805,-0.028675655,-0.314,0.055876013,0.05720678
-0.00045241843,0.018716684,-0.02871492,-0.314,0.055639554,0.056807574
-0.000877231,0.018682582,-0.028750366,-0.314,0.055405494,0.05642285
-0.0013175964,0.01865073,-0.028801052,-0.314,0.055176187,0.055980034
-0.0017662343,0.018612735,-0.028832082,-0.314,0.054950513,0.05556349
-0.0022189522,0.018576575,-0.028877353,-0.314,0.054725397,0.055112142
-0.0026749829,0.018534914,-0.028909171,-0.314,0.054501295,0.054683845
-0.0031333906,0.018494263,-0.028953135,-0.314,0.05427442,0.054231893
-0.003594568,0.018449757,-0.028989255,-0.314,0.054041035,0.05380435
-0.0040574484,0.018406672,-0.029038778,-0.314,0.05379507,0.05336689
-0.0045213774,0.01836112,-0.029087646,-0.314,0.053532638,0.05295521
-0.004985044,0.018317288,-0.029153002,-0.314,0.053245645,0.052545637
-0.0054473258,0.018272743,-0.029226629,-0.314,0.052925527,0.052168287
-0.005906407,0.018230632,-0.029321445,-0.314,0.052567642,0.051802576
-0.006362587,0.018185714,-0.02941508,-0.314,0.05220879,0.051441025
-0.006820695,0.01813945,-0.029506639,-0.314,0.05184982,0.05108067
-0.007281087,0.018091684,-0.029596454,-0.314,0.051490545,0.050719865
-0.0077343853,0.018036662,-0.029686986,-0.314,0.05113832,0.050362844
-0.008175125,0.017971829,-0.0297783,-0.314,0.05079664,0.050015666
-0.008604373,0.0178988,-0.029869968,-0.314,0.05046327,0.049677618
-0.009023233,0.01781821,-0.029961357,-0.314,0.05013668,0.049347993
-0.009433917,0.017730132,-0.030051608,-0.314,0.04981574,0.049028553
-0.009844523,0.017630715,-0.03013858,-0.314,0.049501054,0.048739016
-0.01025646,0.0175222,-0.030229388,-0.314,0.049190816,0.048461948
-0.010669705,0.017404553,-0.030317111,-0.314,0.048883278,0.04820539
-0.0110831205,0.017279716,-0.030406028,-0.314,0.048576526,0.047956396
-0.011495843,0.01714747,-0.030490888,-0.314,0.04826895,0.047720537
-0.011906524,0.017009122,-0.03057449,-0.314,0.04795864,0.047488123
-0.012314156,0.01686456,-0.030652722,-0.314,0.047643766,0.047262486
-0.012717277,0.016714647,-0.030727062,-0.314,0.04732219,0.047036212
-0.013114502,0.016559232,-0.030794252,-0.314,0.046991702,0.04681061
-0.013504073,0.016398836,-0.030854702,-0.314,0.046649728,0.046579804
-0.013884154,0.0162335,-0.030905684,-0.314,0.046293717,0.0463435
-0.014219823,0.016072543,-0.030934004,-0.314,0.04592962,0.046120446
-0.014398298,0.015943518,-0.03089732,-0.314,0.04558697,0.04598816
-0.014427419,0.015830697,-0.030804379,-0.314,0.04526846,0.045939837
-0.014341982,0.015726937,-0.030670092,-0.314,0.04496197,0.04594429
-0.014169814,0.015628641,-0.030500842,-0.314,0.0446566,0.045980524
-0.013929391,0.015534388,-0.030301763,-0.314,0.04434356,0.046030086
-0.013633176,0.015442868,-0.030074513,-0.314,0.044015806,0.046082076
-0.01328929,0.015353518,-0.029821044,-0.314,0.043667767,0.04612587
-0.012903406,0.015265852,-0.029541506,-0.314,0.043294385,0.04615518
-0.012479211,0.015179497,-0.029236287,-0.314,0.04289151,0.046163265
-0.012019325,0.015094976,-0.028905353,-0.314,0.04245438,0.046146344
-0.011525245,0.01501476,-0.028550912,-0.314,0.04197563,0.04610199
-0.01100777,0.014938998,-0.028184006,-0.314,0.041470226,0.04603817
-0.010493234,0.014866494,-0.027827844,-0.314,0.04098167,0.045981873
-0.009983844,0.0147941755,-0.027470708,-0.314,0.04050954,0.045945115
-0.009478497,0.01472328,-0.027118495,-0.314,0.040052015,0.045914084
-0.008978653,0.014652197,-0.02676617,-0.314,0.039609272,0.045896903
-0.008482963,0.014580666,-0.026416201,-0.314,0.039180603,0.045886796
-0.007990754,0.0145065505,-0.026066175,-0.314,0.038766533,0.045889754
-0.0075018406,0.0144306,-0.025720045,-0.314,0.038366314,0.045900047
-0.007020712,0.014356262,-0.025379846,-0.314,0.037978783,0.045914344
-0.0065471823,0.014282447,-0.025042698,-0.314,0.037603866,0.045935083
-0.00608024,0.014208594,-0.024708921,-0.314,0.03724134,0.045959603
-0.005619343,0.01413403,-0.024376845,-0.314,0.036890905,0.045989394
-0.005163818,0.01405838,-0.02404666,-0.314,0.036552187,0.04602305
-0.004717033,0.013985912,-0.02372658,-0.314,0.036223795,0.046055052
-0.004279812,0.013915728,-0.023416292,-0.314,0.035905965,0.046089
-0.0038515367,0.013847827,-0.023116145,-0.314,0.03559794,0.04612284
-0.0034322639,0.013782096,-0.022825224,-0.314,0.035299383,0.04615739
-0.0030216568,0.01371895,-0.022543477,-0.314,0.03500895,0.046192724
-0.0026195466,0.013658722,-0.022270676,-0.314,0.034725558,0.046228956
-0.002225634,0.013601151,-0.0220065,-0.314,0.034449082,0.04626598
-0.0018395445,0.013546201,-0.021750597,-0.314,0.03417913,0.04630367
-0.001461091,0.013493649,-0.02150265,-0.314,0.03391553,0.046341967
-0.0010899368,0.013443527,-0.021262413,-0.314,0.033657853,0.046380594
-0.0007259133,0.013395727,-0.02102957,-0.314,0.033405863,0.046419635
-0.00036868372,0.013350098,-0.0208038,-0.314,0.033159338,0.046459053
-1.8079532e-05,0.013306602,-0.020584881,-0.314,0.032918017,0.04649862
0.00032827616,0.013266513,-0.020373804,-0.314,0.03267875,0.046532754
0.00067234854,0.0132306535,-0.020168398,-0.314,0.0324384,0.046558585
0.0010039562,0.013191986,-0.019965593,-0.314,0.032212127,0.04660612
0.0013317831,0.013159382,-0.0197763,-0.314,0.03198477,0.04664078
0.0016540329,0.013136737,-0.019597601,-0.314,0.031748835,0.04666781
0.001971753,0.013123597,-0.019430805,-0.314,0.031505045,0.04668409
0.0022848696,0.013119332,-0.019274266,-0.314,0.03125384,0.0466924
0.0025937937,0.01312386,-0.019128226,-0.314,0.03099511,0.046691913
0.002898675,0.013136812,-0.01899188,-0.314,0.030728895,0.046683867
0.0031998882,0.01315811,-0.0188651,-0.314,0.030455008,0.046668444
0.003497994,0.013187008,-0.018747695,-0.314,0.030173747,0.046645686
0.0037931432,0.01322339,-0.018639162,-0.314,0.02988481,0.046616342
0.0040858965,0.013267149,-0.018539218,-0.314,0.029587751,0.046580892
0.004376666,0.013318205,-0.018447248,-0.314,0.029282048,0.04654073
0.004666126,0.013376637,-0.01836299,-0.314,0.028966649,0.046497006
0.0049549113,0.013442479,-0.018285938,-0.314,0.028640768,0.046450894
0.0052439594,0.013516108,-0.018215602,-0.314,0.02830257,0.046404514
0.0055346168,0.0135975955,-0.018151501,-0.314,0.027950078,0.04635986
0.005828755,0.013687207,-0.01809307,-0.314,0.027580215,0.046320107
0.0061280592,0.013785802,-0.018040292,-0.314,0.02718984,0.046287578
0.00643455,0.013894505,-0.017992416,-0.314,0.026774308,0.046266615
0.006750998,0.014014885,-0.017949276,-0.314,0.026327899,0.046261225
0.007080659,0.0141491145,-0.017910441,-0.314,0.02584297,0.04627702
0.0074281,0.014300189,-0.017875798,-0.314,0.025309194,0.046320893
0.0077987486,0.014472151,-0.01784548,-0.314,0.024713619,0.046400584
0.008180628,0.014657325,-0.017832508,-0.314,0.024087798,0.04647447
0.008558762,0.0148486765,-0.01783453,-0.314,0.023458047,0.046525568
0.008933005,0.015048075,-0.017847482,-0.314,0.02281935,0.046558883
0.009303279,0.015254586,-0.017871981,-0.314,0.02217788,0.04657097
0.009666255,0.015464614,-0.017904414,-0.314,0.021561231,0.04655686
0.010021556,0.015678126,-0.017941153,-0.314,0.020969847,0.046521336
0.01037012,0.015895156,-0.017983003,-0.314,0.020402083,0.04646403
0.01071191,0.01611488,-0.018029211,-0.314,0.01985764,0.046386324
0.011046998,0.016337035,-0.018079596,-0.314,0.019336028,0.04628874
0.011374788,0.016560728,-0.018133273,-0.314,0.018837588,0.046172176
0.011695878,0.01678603,-0.01819028,-0.314,0.01836097,0.04603712
0.012010154,0.017012455,-0.018250171,-0.314,0.0179058,0.045884363
0.0123181045,0.01723989,-0.018312758,-0.314,0.017470993,0.045714535
0.012619729,0.017468147,-0.018377963,-0.314,0.017056061,0.0455279
0.012915215,0.017697042,-0.018445509,-0.314,0.016660372,0.045325056
0.013204937,0.017926274,-0.018514702,-0.314,0.016282273,0.045108814
0.013489606,0.018155694,-0.018585373,-0.314,0.015919635,0.044882163
0.013769408,0.018385,-0.018657634,-0.314,0.015571857,0.04464556
0.0140443435,0.018613484,-0.018731019,-0.314,0.015237629,0.044400048
0.014313328,0.018838672,-0.018805247,-0.314,0.014914145,0.044145435
0.014576623,0.01906083,-0.018880766,-0.314,0.014599942,0.043881465
0.014834377,0.019279992,-0.018957164,-0.314,0.014294724,0.04360915
0.015086779,0.01949631,-0.019034328,-0.314,0.013998078,0.043329198
0.015334017,0.01970971,-0.019112093,-0.314,0.013709703,0.043042395
0.015576199,0.019920338,-0.019190306,-0.314,0.013429153,0.042749383
0.015813554,0.020128196,-0.01926882,-0.314,0.013156051,0.042450864
0.016047653,0.020333396,-0.019347858,-0.314,0.012889089,0.04214677
0.016279092,0.020535715,-0.019427175,-0.314,0.012627889,0.041837543
0.016508361,0.020735001,-0.019506773,-0.314,0.012372157,0.041523527
0.016735835,0.020931257,-0.019586634,-0.314,0.012121438,0.04120506
0.016961584,0.021124553,-0.019666607,-0.314,0.0118754,0.040882476
0.017185763,0.02131497,-0.019746654,-0.314,0.0116337035,0.04055607
0.017408669,0.021502538,-0.0198267,-0.314,0.011395788,0.04022641
0.017630527,0.021687414,-0.019906862,-0.314,0.011161128,0.039893605
0.017851448,0.021869631,-0.019986965,-0.314,0.010929388,0.03955814
0.018071696,0.022049267,-0.020067107,-0.314,0.0106999315,0.039220244
0.018291345,0.02222628,-0.020147247,-0.314,0.0104725715,0.038879912
0.018510435,0.022399627,-0.020227315,-0.314,0.0102485055,0.038535353
0.018729223,0.02256908,-0.020307383,-0.314,0.010027209,0.038187165
0.018947823,0.022734791,-0.02038741,-0.314,0.009808308,0.037835196
0.019166313,0.022896795,-0.020467402,-0.314,0.0095914295,0.037479334
0.019384764,0.023054456,-0.020547599,-0.314,0.009376645,0.037119914
0.019602766,0.02320456,-0.020629873,-0.314,0.009165718,0.036757797
0.019820394,0.023347659,-0.020714302,-0.314,0.008957672,0.03639254
0.02003765,0.023484437,-0.02080045,-0.314,0.0087517975,0.0360241
0.020254789,0.023615073,-0.020888004,-0.314,0.008547458,0.035652738
0.020471705,0.023738148,-0.020976266,-0.314,0.008345888,0.03527947
0.020688698,0.02385441,-0.021065392,-0.314,0.008145778,0.034903917
0.020905914,0.023964424,-0.021155247,-0.314,0.0079463795,0.034525596
0.021123318,0.024068596,-0.021245832,-0.314,0.0077470182,0.034144167
0.021340983,0.024167228,-0.021337146,-0.314,0.007547208,0.033758547
0.021558948,0.02426062,-0.021428986,-0.314,0.007346424,0.03336866
0.021777436,0.024349146,-0.021521328,-0.314,0.0071439184,0.03297405
0.021996452,0.02443303,-0.02161416,-0.314,0.006939204,0.032574352
0.0222161,0.024512423,-0.021707384,-0.314,0.006731683,0.032169156
0.022436572,0.024587585,-0.021800963,-0.314,0.00652083,0.031758044
0.022657832,0.024658594,-0.021894898,-0.314,0.006306159,0.03134064
0.022880362,0.024724923,-0.02198786,-0.314,0.0060889428,0.030913582
0.023104316,0.024786087,-0.022078145,-0.314,0.0058707907,0.030472977
0.02332988,0.024842197,-0.022165848,-0.314,0.005650767,0.030018667
0.023557166,0.02489329,-0.022251304,-0.314,0.005427861,0.029550394
0.023785835,0.024938807,-0.022333972,-0.314,0.005199977,0.029072842
0.024015667,0.024978561,-0.022414356,-0.314,0.004964906,0.028587613
0.024244674,0.025011724,-0.022491409,-0.314,0.0047232467,0.028109124
0.024470275,0.025038263,-0.022565825,-0.314,0.0044763847,0.027647141
0.024689587,0.0250599,-0.022640726,-0.314,0.004227089,0.027185796
0.024902387,0.025076557,-0.022714166,-0.314,0.0039775693,0.026726097
0.025109235,0.025088722,-0.022786297,-0.314,0.0037274507,0.026267707
0.025310654,0.025096545,-0.02285723,-0.314,0.0034765457,0.025810594
0.025507135,0.025100175,-0.022926928,-0.314,0.00322478,0.025354749
0.025699047,0.025099838,-0.022995539,-0.314,0.0029719288,0.024900103
0.025886653,0.025095647,-0.023063067,-0.314,0.002717917,0.02444628
0.02607037,0.025087673,-0.023129603,-0.314,0.002462483,0.02399302
0.02625049,0.02507618,-0.023195239,-0.314,0.0022054396,0.023540022
0.026427243,0.02506106,-0.023260014,-0.314,0.0019465616,0.023087023
0.02660085,0.025042607,-0.023324078,-0.314,0.0016856252,0.0226335
0.02677154,0.025020784,-0.02338745,-0.314,0.0014224427,0.022179266
0.02693957,0.024995668,-0.023450242,-0.314,0.001156715,0.021723686
0.027105058,0.024967331,-0.02351251,-0.314,0.00088825467,0.021266382
0.027268145,0.024935776,-0.023574328,-0.314,0.00061676244,0.020806981
0.027429178,0.02490014,-0.023632852,-0.314,0.0003441098,0.020347359
0.027588412,0.0248614,-0.023691284,-0.314,6.718995e-05,0.019884028
0.027745737,0.024819626,-0.023749603,-0.314,-0.00021409072,0.01941662
0.02790138,0.02477482,-0.023807883,-0.314,-0.0005001626,0.01894438
0.028055409,0.02472687,-0.023866257,-0.314,-0.000791475,0.018466678
0.028208205,0.024675775,-0.023924932,-0.314,-0.0010887951,0.017982984
0.02835958,0.02462236,-0.023987219,-0.314,-0.0013944999,0.017490495
0.028509794,0.02456539,-0.024049824,-0.314,-0.0017066057,0.016991192
0.028659148,0.024504935,-0.024113176,-0.314,-0.0020264036,0.01648388
0.028807824,0.024440741,-0.02417754,-0.314,-0.0023545863,0.01596781
0.028955905,0.024372729,-0.024243176,-0.314,-0.0026919395,0.015442081
0.029102897,0.02430101,-0.024310404,-0.314,-0.0030384825,0.014905797
0.029246861,0.024226895,-0.02437793,-0.314,-0.003390191,0.014356973
0.02938723,0.024150645,-0.02444499,-0.314,-0.0037454553,0.013794712
0.029523969,0.024072189,-0.024511412,-0.314,-0.004104238,0.013218862
0.029656738,0.023991449,-0.024576992,-0.314,-0.004466166,0.0126285255
0.02978674,0.023907976,-0.024638979,-0.314,-0.0048320233,0.012018951
0.029913893,0.023821583,-0.024696961,-0.314,-0.0052022603,0.011388114
0.030037344,0.023732608,-0.024751462,-0.314,-0.005576053,0.010737102
0.030152896,0.023643333,-0.024803547,-0.314,-0.005944924,0.0100801
0.030259615,0.023553984,-0.02485365,-0.314,-0.0063062157,0.009420516
0.030357122,0.023464298,-0.0249019,-0.314,-0.0066592894,0.008758648
0.030448308,0.02337334,-0.024949774,-0.314,-0.007006563,0.008101721
0.030534739,0.02328107,-0.02499868,-0.314,-0.0073504294,0.0074530295
0.030616302,0.023187602,-0.02504897,-0.314,-0.007690852,0.0068124607
0.030692587,0.02309305,-0.025100773,-0.314,-0.008027718,0.0061797523
0.030763594,0.022997525,-0.025154153,-0.314,-0.008361067,0.0055545676
0.0308291,0.022901176,-0.025209308,-0.314,-0.008691027,0.004936682
0.030889068,0.022804001,-0.025266299,-0.314,-0.009017638,0.004325834
0.030943343,0.022706157,-0.025325289,-0.314,-0.009340935,0.0037218358
0.030991817,0.022607673,-0.025386378,-0.314,-0.009661033,0.003124201
0.031034527,0.022508629,-0.025449619,-0.314,-0.009978062,0.0025328172
0.031071246,0.022409022,-0.025515089,-0.314,-0.010292038,0.0019474974
0.03110194,0.022309005,-0.025582913,-0.314,-0.0106030395,0.0013677924
0.031126458,0.022208538,-0.025653098,-0.314,-0.010911102,0.00079370214
0.031144798,0.022107659,-0.025725773,-0.314,-0.011216434,0.00022488978
0.031156888,0.022006406,-0.025800973,-0.314,-0.011519013,-0.0003390003
0.031162655,0.021904817,-0.025878793,-0.314,-0.011819046,-0.0008981367
0.031161904,0.021802928,-0.025959289,-0.314,-0.012116479,-0.0014527999
0.031154795,0.0217007,-0.02604254,-0.314,-0.012411684,-0.0020032334
0.031141093,0.02159814,-0.026128633,-0.314,-0.01270455,-0.002549699
0.031120095,0.021495463,-0.026217287,-0.314,-0.012994609,-0.0030949481
0.031090636,0.021392902,-0.026307985,-0.314,-0.013280998,-0.0036436783
0.031052569,0.0212906,-0.026400665,-0.314,-0.013563908,-0.004195254
0.031006265,0.021188412,-0.02649548,-0.314,-0.013843915,-0.0047494676
0.03095184,0.021086335,-0.026592616,-0.314,-0.014121452,-0.0053059272
0.03088948,0.020984372,-0.026692221,-0.314,-0.014396912,-0.0058645024
0.030821053,0.020885551,-0.02679385,-0.314,-0.014673608,-0.0064264084
0.030754834,0.020804549,-0.026894728,-0.314,-0.014965032,-0.006998047
0.030691614,0.020740055,-0.026994744,-0.314,-0.015270009,-0.007574701
0.030631686,0.02069012,-0.027093977,-0.314,-0.015587916,-0.0081564095
0.030574901,0.0206534,-0.027192572,-0.314,-0.015918138,-0.008743788
0.030521223,0.02062862,-0.027290454,-0.314,-0.016260115,-0.00933766
0.030470429,0.020614697,-0.027387777,-0.314,-0.016613582,-0.009938814
0.030422365,0.020610502,-0.027484614,-0.314,-0.01697809,-0.010547715
0.030377036,0.020614995,-0.027581168,-0.314,-0.017353663,-0.011165152
0.030334253,0.020627199,-0.02767765,-0.314,-0.01774024,-0.011791665
0.030294051,0.020646213,-0.027774334,-0.314,-0.018138006,-0.012428136
0.030256433,0.020671142,-0.027871547,-0.314,-0.018547399,-0.013075423
0.030221546,0.020701163,-0.027969634,-0.314,-0.018969236,-0.013734633
0.030189468,0.020735824,-0.028069073,-0.314,-0.01940477,-0.014407468
0.030160531,0.020774305,-0.028170401,-0.314,-0.019855468,-0.015095501
0.030134892,0.020816041,-0.028274179,-0.314,-0.02032314,-0.01580064
0.030112509,0.02086051,-0.028380934,-0.314,-0.020810276,-0.016523521
0.030096188,0.02090584,-0.028491883,-0.314,-0.021322697,-0.01727154
0.030088777,0.02094971,-0.028608222,-0.314,-0.02186673,-0.018053224
0.030090684,0.020991746,-0.028731465,-0.314,-0.02244741,-0.018873727
0.030102814,0.021031087,-0.028863167,-0.314,-0.023071133,-0.01974046
0.030127704,0.021066234,-0.02900595,-0.314,-0.023748366,-0.020663882
0.030166483,0.021094944,-0.029162321,-0.314,-0.024480756,-0.021640737
0.030212412,0.021116992,-0.02933071,-0.314,-0.025246067,-0.022642577
0.030264929,0.021131178,-0.029511878,-0.314,-0.026044017,-0.023670884
0.030323884,0.021136532,-0.029707665,-0.314,-0.026877193,-0.024727637
0.030389315,0.021131815,-0.029920295,-0.314,-0.027748993,-0.025815291
0.030461485,0.021115756,-0.03015256,-0.314,-0.02866373,-0.026936743
0.030540839,0.021086484,-0.030407919,-0.314,-0.029626792,-0.028095743
0.030615738,0.02104415,-0.030678568,-0.314,-0.03061806,-0.02929951
0.030671963,0.02099137,-0.03095371,-0.314,-0.0316126,-0.030554334
0.030706663,0.020929122,-0.03123194,-0.314,-0.03260722,-0.031861525
0.030719427,0.020857852,-0.03151006,-0.314,-0.033596616,-0.03322314
0.030710516,0.020779058,-0.031782728,-0.314,-0.034573153,-0.03464077
0.030690452,0.020703634,-0.03205119,-0.314,-0.03554235,-0.03608648
0.030668033,0.020636668,-0.032317873,-0.314,-0.03650884,-0.03754003
0.030643662,0.020577151,-0.032584384,-0.314,-0.03747267,-0.03900048
0.030617049,0.020525908,-0.032851215,-0.314,-0.03843395,-0.040467378
0.030588154,0.020483235,-0.033118594,-0.314,-0.039392635,-0.041940987
0.030556936,0.020449696,-0.033386923,-0.314,-0.040349092,-0.04342139
0.030523509,0.02042574,-0.033656597,-0.314,-0.04130369,-0.04490878
0.03048787,0.020411966,-0.03392815,-0.314,-0.042256743,-0.046403315
0.030428693,0.020401597,-0.034178004,-0.314,-0.043143984,-0.04789937
0.030306254,0.020385912,-0.034360673,-0.314,-0.04384931,-0.04938189
0.030126918,0.02037416,-0.034480866,-0.314,-0.044396207,-0.050843414
0.029903153,0.02036596,-0.03454985,-0.314,-0.044812225,-0.05228088
0.029644048,0.02036147,-0.03457686,-0.314,-0.045119163,-0.053693105
0.029356873,0.020361658,-0.034570478,-0.314,-0.045333218,-0.055075105
0.029047502,0.02036731,-0.034536712,-0.314,-0.045467485,-0.05642547
0.028720647,0.0203794,-0.034480225,-0.314,-0.045532636,-0.057743143
0.028376425,0.020400736,-0.034402817,-0.314,-0.04554179,-0.059043765
0.028016968,0.020432552,-0.034306396,-0.314,-0.045504898,-0.06033091
0.027647516,0.020471258,-0.034192096,-0.314,-0.04542644,-0.06159346
0.027271478,0.020515876,-0.034063015,-0.314,-0.045312446,-0.06282886
0.0268884,0.020564575,-0.03392126,-0.314,-0.04516962,-0.064040825
0.02650016,0.020616716,-0.033768613,-0.314,-0.04500236,-0.06522896
0.026108885,0.020672042,-0.033606645,-0.314,-0.044813704,-0.06639219
0.025716264,0.020730136,-0.0334368,-0.314,-0.04460601,-0.06752949
0.02532368,0.0207907,-0.033260103,-0.314,-0.044381272,-0.068640456
0.024932219,0.02085351,-0.03307755,-0.314,-0.04414113,-0.0697247
0.024542855,0.020918304,-0.03288987,-0.314,-0.043887045,-0.07078209
0.024156336,0.02098497,-0.032697804,-0.314,-0.043620173,-0.071812645
0.02377337,0.021053283,-0.03250187,-0.314,-0.04334155,-0.07281636
0.023394411,0.021123132,-0.032302506,-0.314,-0.043052055,-0.07379366
0.023019983,0.021194326,-0.032100152,-0.314,-0.04275247,-0.074744724
0.022649746,0.021266906,-0.031894743,-0.314,-0.04244306,-0.075671345
0.022283478,0.021340983,-0.03168638,-0.314,-0.042124234,-0.076574765
0.021921363,0.021416409,-0.03147545,-0.314,-0.041796442,-0.07745463
0.021569429,0.021487866,-0.031261098,-0.314,-0.04145932,-0.07831096
0.021232206,0.021551799,-0.031042367,-0.314,-0.041112717,-0.0791451
0.020907562,0.021609781,-0.030820286,-0.314,-0.040757563,-0.07995761
0.020594109,0.021662747,-0.03059547,-0.314,-0.040394254,-0.08074834
0.020291623,0.02171163,-0.03036858,-0.314,-0.040024053,-0.08151657
0.020005306,0.021760292,-0.03014161,-0.314,-0.039655425,-0.08225518
0.019740514,0.021812735,-0.02991747,-0.314,-0.03929679,-0.08295446
0.019496722,0.02186836,-0.029697165,-0.314,-0.03894673,-0.0836143
0.01927258,0.021927426,-0.029480716,-0.314,-0.03860498,-0.08423591
0.019066969,0.021990087,-0.029268254,-0.314,-0.0382712,-0.08482018
0.01887895,0.02205649,-0.029059852,-0.314,-0.037945207,-0.08536807
0.018707512,0.022126637,-0.028855532,-0.314,-0.037626572,-0.08588081
0.018551834,0.022200678,-0.028655326,-0.314,-0.037315007,-0.086359315
0.018411128,0.022278573,-0.028459204,-0.314,-0.037010238,-0.08680479
0.018284684,0.022360286,-0.028267235,-0.314,-0.036711868,-0.08721825
0.018171864,0.022445707,-0.02807931,-0.314,-0.036419507,-0.08760059
0.018072033,0.022534905,-0.027895464,-0.314,-0.036132913,-0.08795296
0.017984593,0.022627698,-0.027715642,-0.314,-0.03585163,-0.088276416
0.017909018,0.022724047,-0.027539788,-0.314,-0.035575405,-0.08857183
0.017844824,0.022823878,-0.027367864,-0.314,-0.03530384,-0.08884035
0.01779152,0.022927077,-0.027199853,-0.314,-0.035036635,-0.08908274
0.017748736,0.023033533,-0.027035657,-0.314,-0.034773506,-0.089300044
0.017715983,0.023143133,-0.026875282,-0.314,-0.034514084,-0.089493155
0.017692963,0.023255728,-0.02671863,-0.314,-0.034258015,-0.089662895
0.017679414,0.02337128,-0.026565779,-0.314,-0.034005087,-0.089809924
0.017674996,0.023489637,-0.026416613,-0.314,-0.033754896,-0.089935
0.0176793,0.023610655,-0.026271095,-0.314,-0.033507116,-0.09003902
0.017692251,0.023734292,-0.02612921,-0.314,-0.033261545,-0.09012266
0.017713401,0.023860326,-0.025990902,-0.314,-0.033017788,-0.09018669
0.01774256,0.023988754,-0.02585609,-0.314,-0.032775626,-0.09023181
0.01777943,0.02411939,-0.025724817,-0.314,-0.032534733,-0.09025877
0.0178239,0.024252122,-0.02559695,-0.314,-0.032294776,-0.09026801
0.017875668,0.024386877,-0.02547251,-0.314,-0.03205561,-0.09026045
0.01793466,0.024523428,-0.025351435,-0.314,-0.03181681,-0.09023639
0.018000577,0.024661738,-0.025233677,-0.314,-0.031578258,-0.09019674
0.018073345,0.024801621,-0.025119266,-0.314,-0.031339537,-0.090141825
0.018152773,0.024943037,-0.025008187,-0.314,-0.031100387,-0.09007221
0.018238792,0.02508584,-0.024900422,-0.314,-0.030860526,-0.089988306
0.018331287,0.025229877,-0.024796007,-0.314,-0.030619612,-0.08989062
0.018430142,0.025375074,-0.02469494,-0.314,-0.030377338,-0.089779586
0.01853529,0.025521282,-0.024597242,-0.314,-0.030133395,-0.08965557
0.01864676,0.025668353,-0.024502972,-0.314,-0.029887412,-0.0895189
0.018764371,0.025816131,-0.02441216,-0.314,-0.029639015,-0.08936999
0.018888084,0.025964623,-0.024325283,-0.314,-0.029387474,-0.089209035
0.01901771,0.026113603,-0.024242615,-0.314,-0.029132152,-0.08903632
0.0191534,0.02626288,-0.024164101,-0.314,-0.028872693,-0.08885206
0.019295115,0.026412383,-0.024089988,-0.314,-0.028608575,-0.088656574
0.019443084,0.02656181,-0.024020271,-0.314,-0.028339311,-0.08844988
0.019597527,0.026710937,-0.02395512,-0.314,-0.028064374,-0.088232026
0.019758595,0.02685954,-0.023894668,-0.314,-0.02778315,-0.088003166
0.019925203,0.027008707,-0.023839008,-0.314,-0.027496237,-0.087764956
0.020095667,0.027160082,-0.023788119,-0.314,-0.027204698,-0.08751985
0.020270174,0.027313625,-0.023742003,-0.314,-0.026907846,-0.0872676
0.020448798,0.027469417,-0.02370081,-0.314,-0.026605267,-0.08700846
0.02063154,0.027627528,-0.02366467,-0.314,-0.026296511,-0.08674284
0.020818325,0.027788147,-0.023633657,-0.314,-0.025981188,-0.08647114
0.021009339,0.027951274,-0.023608109,-0.314,-0.02565877,-0.08619357
0.021207353,0.028116498,-0.023589581,-0.314,-0.025328998,-0.0859083
0.02141304,0.028283855,-0.023578895,-0.314,-0.024991306,-0.08561548
0.021625988,0.028453646,-0.023576237,-0.314,-0.02464495,-0.085315794
0.021846086,0.028626243,-0.023581777,-0.314,-0.024289368,-0.08500994
0.022073446,0.02880221,-0.023595346,-0.314,-0.023924557,-0.08469873
0.022308743,0.02898308,-0.02361539,-0.314,-0.023553854,-0.08438432
0.02255044,0.029167956,-0.023641068,-0.314,-0.023176972,-0.0840661
0.022797564,0.029356424,-0.023671782,-0.314,-0.022793746,-0.08374424
0.023049703,0.029548524,-0.023707697,-0.314,-0.022403445,-0.083419286
0.023306485,0.029744178,-0.02374891,-0.314,-0.02200521,-0.08309145
0.023567459,0.029943502,-0.023795381,-0.314,-0.021598307,-0.08276134
0.02383229,0.030146569,-0.023847206,-0.314,-0.021181935,-0.082429305
0.024100749,0.03035368,-0.02390412,-0.314,-0.020755159,-0.082095414
0.02437254,0.030564943,-0.02396622,-0.314,-0.02031715,-0.08176008
0.024647364,0.030780515,-0.024033522,-0.314,-0.01986696,-0.0814236
0.024924658,0.031000838,-0.024105614,-0.314,-0.019403424,-0.08108611
0.025203785,0.031226514,-0.024182087,-0.314,-0.018925047,-0.08074744
0.025484001,0.031456944,-0.024262717,-0.314,-0.01843093,-0.08040887
0.025764063,0.031691488,-0.024346976,-0.314,-0.017920434,-0.08007219
0.026043717,0.03193038,-0.02443466,-0.314,-0.01739306,-0.079738155
0.02632277,0.032173872,-0.024525618,-0.314,-0.01684781,-0.07940726
0.026601002,0.03242227,-0.024619779,-0.314,-0.016283678,-0.079079896
0.026880017,0.03267422,-0.02471826,-0.314,-0.015701054,-0.07875436
0.02716042,0.03292891,-0.024821984,-0.314,-0.015100049,-0.07843036
0.027441755,0.033185538,-0.0249293,-0.314,-0.014483886,-0.07810671
0.02772223,0.033440076,-0.025034333,-0.314,-0.013867497,-0.07777793
0.02800237,0.03369203,-0.025138,-0.314,-0.013253542,-0.077444375
0.028279176,0.033942785,-0.025236988,-0.314,-0.012643704,-0.077108346
0.028510356,0.03421506,-0.025278239,-0.314,-0.012060818,-0.07679868
0.02869815,0.03450875,-0.025257707,-0.314,-0.01150739,-0.07651024
0.028855775,0.034818012,-0.025189806,-0.314,-0.010975279,-0.07623252
0.028991504,0.035138726,-0.025085036,-0.314,-0.010458123,-0.07596003
0.029111285,0.035467528,-0.024951385,-0.314,-0.009952083,-0.07568959
0.029219536,0.035801902,-0.024795089,-0.314,-0.009454186,-0.07541919
0.029319853,0.0361398,-0.024621068,-0.314,-0.008962445,-0.07514685
0.029414931,0.03647953,-0.024433179,-0.314,-0.008475515,-0.074871376
0.029506937,0.036819786,-0.0242344,-0.314,-0.007992121,-0.07459163
0.029597297,0.037159815,-0.024026897,-0.314,-0.0075112917,-0.074306846
0.029687284,0.037498724,-0.023812395,-0.314,-0.0070322785,-0.07401623
0.029777644,0.037836205,-0.023592183,-0.314,-0.0065543503,-0.07371945
0.029869089,0.03817182,-0.023367219,-0.314,-0.0060769273,-0.07341597
0.029962033,0.038505334,-0.023138173,-0.314,-0.005599673,-0.07310565
0.030058606,0.0388353,-0.022905292,-0.314,-0.0051261615,-0.072795205
0.030160496,0.039160915,-0.022668593,-0.314,-0.004659669,-0.07249086
0.03026785,0.03948234,-0.02242858,-0.314,-0.0041995584,-0.07219231
0.03038067,0.039799538,-0.02218548,-0.314,-0.0037455861,-0.071899466
0.030498916,0.04011258,-0.021939328,-0.314,-0.003297566,-0.07161216
0.03062259,0.04042135,-0.021690447,-0.314,-0.002855198,-0.07133022
0.03075158,0.040725935,-0.021438887,-0.314,-0.002418295,-0.071053654
0.030885885,0.041026775,-0.021186335,-0.31330797,-0.0019851911,-0.070782274
0.031079708,0.041279625,-0.020914955,-0.31238472,-0.0015664799,-0.07041786
0.031287678,0.04152177,-0.020644473,-0.3114712,-0.0011595223,-0.0700453
0.031497296,0.041763205,-0.02037854,-0.31055713,-0.00075342564,-0.06968392
0.03171159,0.042001233,-0.020115657,-0.3096449,-0.00034689845,-0.06932736
0.031929966,0.042236567,-0.019857114,-0.3087344,5.925441e-05,-0.0689776
0.032152236,0.042468455,-0.019601738,-0.30782652,0.0004660623,-0.06863308
0.032377876,0.042697053,-0.019349767,-0.30692163,0.00087350653,-0.06829443
0.032606807,0.042922355,-0.019101331,-0.30601978,0.0012817369,-0.06796161
0.03283855,0.043143574,-0.018854918,-0.30512205,0.0016916891,-0.067633085
0.033073094,0.043361466,-0.0186121,-0.30422792,0.0021028016,-0.067310184
0.033310223,0.043575425,-0.018372966,-0.30333823,0.0025152245,-0.066992335
0.033549752,0.043785717,-0.018137353,-0.30245253,0.0029286202,-0.06667971
0.033791635,0.04399215,-0.01790535,-0.30157116,0.0033431393,-0.06637213
0.034035765,0.044194993,-0.017676868,-0.3006938,0.0037587807,-0.066069625
0.03428199,0.044394206,-0.017451921,-0.29982057,0.0041756956,-0.06577206
0.03453046,0.044589784,-0.017230382,-0.29895133,0.0045938822,-0.06547915
0.034780953,0.044781774,-0.017012361,-0.29808614,0.0050133797,-0.06519099
0.035033543,0.04497024,-0.01679769,-0.29722497,0.0054342244,-0.06490725
0.035288077,0.045155194,-0.016586538,-0.29636797,0.0058565666,-0.06462796
0.0355446,0.045336623,-0.01637883,-0.2955151,0.006280443,-0.064352915
0.035802916,0.045514725,-0.016174376,-0.2946658,0.0067057805,-0.06408217
0.036063626,0.04568919,-0.015973313,-0.2938207,0.0071331,-0.06381451
0.036328457,0.04585951,-0.015776122,-0.2929804,0.007563827,-0.063547194
0.03659699,0.046025928,-0.015582881,-0.29214463,0.007997923,-0.063280754
0.03686912,0.04618842,-0.015393588,-0.29131353,0.008435387,-0.06301519
0.037144616,0.046347056,-0.015208152,-0.29048684,0.0088762585,-0.062750645
0.037423372,0.046501912,-0.015026326,-0.28966433,0.009320236,-0.06248731
0.037705194,0.04665306,-0.01484804,-0.28884563,0.00976732,-0.062225252
0.0379899,0.046800505,-0.014673364,-0.28803098,0.010217549,-0.06196451
0.038277376,0.04694439,-0.014502189,-0.28722018,0.01067081,-0.06170525
0.038567435,0.04708465,-0.014334514,-0.2864132,0.011127177,-0.06144748
0.038859926,0.047221348,-0.014170189,-0.28561002,0.011586202,-0.06119137
0.039154552,0.04735453,-0.014009214,-0.28481054,0.0120478105,-0.060937114
0.039451238,0.047484156,-0.013851607,-0.28401494,0.012511964,-0.06068471
0.039749864,0.04761034,-0.013697164,-0.28322288,0.012978512,-0.060434073
0.04005048,0.04773293,-0.013544817,-0.28243327,0.013446446,-0.06018513
0.040352892,0.047851812,-0.013394117,-0.28164563,0.013914867,-0.059938025
0.040656876,0.047967102,-0.013244951,-0.2808598,0.01438355,-0.059692945
0.040962465,0.048078798,-0.013097021,-0.28007534,0.014852307,-0.05944977
0.041269556,0.04818694,-0.012950514,-0.27929252,0.015321401,-0.05920844
0.041578032,0.048291635,-0.012805241,-0.27851102,0.015790721,-0.05896894
0.041884523,0.048393935,-0.012662365,-0.27773297,0.016259065,-0.05873332
0.042186856,0.048494365,-0.012522276,-0.27695957,0.016725503,-0.058502704
0.04248515,0.048592772,-0.01238479,-0.2761911,0.01719003,-0.05827675
0.042779326,0.04868923,-0.012249867,-0.27542734,0.017652724,-0.058055457
0.043069385,0.048783746,-0.012117396,-0.2746681,0.018113432,-0.057838667
0.04335544,0.048876356,-0.011987339,-0.2739134,0.018572496,-0.057626225
0.04363745,0.048966978,-0.0118598845,-0.27316344,0.019030062,-0.05741799
0.043915417,0.04905569,-0.011734582,-0.2724176,0.019485867,-0.05721397
0.044189494,0.049142458,-0.011611731,-0.27167624,0.0199404,-0.05701382
0.044459637,0.04922728,-0.011491182,-0.27093926,0.020393549,-0.05681749
0.044725887,0.04931019,-0.011372785,-0.27020606,0.020845387,-0.05662498
0.04498836,0.049391117,-0.011256691,-0.26947734,0.021296179,-0.056435894
0.04524705,0.049470134,-0.0111426925,-0.26875237,0.021745844,-0.05625031
0.045502033,0.04954717,-0.011030829,-0.26803133,0.02219454,-0.056068014
0.045753352,0.049622256,-0.010921097,-0.26731417,0.022642484,-0.055888887
0.046001036,0.049695436,-0.0108133685,-0.2666006,0.023089532,-0.055712886
0.046245467,0.049766406,-0.0107071,-0.26589033,0.023536129,-0.05553909
0.046488583,0.049833894,-0.010597855,-0.26517862,0.023983177,-0.055363532
0.04673058,0.04989783,-0.010485391,-0.26446518,0.024430597,-0.055185754
0.04697093,0.049958542,-0.01037012,-0.2637501,0.024878018,-0.05500653
0.047209557,0.05001604,-0.0102526415,-0.26303428,0.02532574,-0.05482594
0.047446053,0.050070535,-0.010133291,-0.2623178,0.0257735,-0.054644622
0.047680374,0.050121892,-0.010012611,-0.26160142,0.026221368,-0.05446265
0.04791234,0.050170105,-0.009890995,-0.26088566,0.026669202,-0.054280426
0.04814176,0.050215364,-0.009768686,-0.26017043,0.02711696,-0.054098338
0.04836848,0.050257582,-0.009645892,-0.25945622,0.027564531,-0.053916402
0.048592433,0.050297,-0.009522892,-0.258743,0.028012065,-0.05373497
0.04881358,0.050333496,-0.009399965,-0.25803125,0.028459597,-0.05355401
0.04903181,0.050367184,-0.009277077,-0.2573206,0.028907055,-0.053373702
0.049247116,0.05039814,-0.009154526,-0.2566116,0.029354552,-0.053194102
0.049459502,0.050426364,-0.009032386,-0.25590393,0.029802162,-0.05301529
0.04966886,0.050451856,-0.008910733,-0.2551978,0.030249882,-0.052837323
0.049875297,0.05047465,-0.008789792,-0.2544933,0.030697826,-0.052660156
0.050078776,0.05049479,-0.008669374,-0.25379005,0.031146035,-0.052483913
0.05027933,0.050512273,-0.008549648,-0.2530883,0.03159454,-0.05230841
0.05047701,0.050527092,-0.008430558,-0.25238773,0.03204335,-0.05213387
0.050671842,0.050539255,-0.008312256,-0.25168857,0.03249264,-0.051960092
0.05086387,0.050548803,-0.00819457,-0.25099027,0.032942347,-0.051787157
0.051053118,0.050555732,-0.008077578,-0.2502931,0.033392463,-0.05161497
0.05123912,0.05056209,-0.007961465,-0.24959643,0.033840742,-0.051445704
0.05142205,0.0505701,-0.007845164,-0.24889258,0.034287155,-0.051282465
0.05160236,0.050579574,-0.007728677,-0.24818115,0.03473218,-0.051124502
0.05178016,0.050590206,-0.0076120207,-0.24746299,0.035175823,-0.05097131
0.05195545,0.05060203,-0.0074953088,-0.24673827,0.035618115,-0.05082286
0.052128196,0.050614793,-0.00737869,-0.24600779,0.036059063,-0.050678898
0.052298397,0.050628494,-0.007262165,-0.24527195,0.036498547,-0.050539315
0.05246613,0.050642867,-0.007146033,-0.24453166,0.036936797,-0.050403643
0.052631583,0.05065739,-0.0070310617,-0.24378943,0.0373743,-0.050270725
0.052794594,0.05067199,-0.006917531,-0.24304596,0.0378112,-0.05014042
0.05295525,0.050686516,-0.006805498,-0.24230185,0.03824747,-0.050012518
0.05311355,0.050700884,-0.006695187,-0.2415577,0.038683135,-0.04988688
0.053269383,0.050715115,-0.0065864855,-0.24081361,0.03911813,-0.049763355
0.053422924,0.050729003,-0.0064795986,-0.24007013,0.039552525,-0.049641665
0.053574074,0.050742548,-0.006374584,-0.23932771,0.039986324,-0.049521733
0.053722866,0.050755728,-0.0062714415,-0.2385865,0.04041952,-0.049403373
0.053869333,0.050768454,-0.0061702444,-0.23784676,0.04085208,-0.04928638
0.05401352,0.050780654,-0.0060709757,-0.23710859,0.041284118,-0.04917068
0.05415542,0.050792336,-0.0059737465,-0.2363725,0.041715518,-0.049056083
0.05429508,0.050803374,-0.005878689,-0.23563866,0.04214647,-0.048942383
0.05443246,0.05081386,-0.0057856147,-0.23490702,0.04257682,-0.048829623
0.054567624,0.050823666,-0.0056946934,-0.23417799,0.043006577,-0.048717514
0.05470058,0.05083276,-0.005605924,-0.23345171,0.043435805,-0.048606005
0.054831367,0.05084122,-0.005519288,-0.23272803,0.04386451,-0.048495036
0.054959983,0.050848898,-0.0054347673,-0.23200725,0.04429258,-0.048384424
0.0550865,0.050855856,-0.0053523052,-0.23128918,0.044719975,-0.048274156
0.05521089,0.050862033,-0.005272052,-0.23057418,0.04514692,-0.04816399
0.055333216,0.050867457,-0.0051938756,-0.22986217,0.04557323,-0.048053943
0.05545348,0.050872028,-0.005117889,-0.2291533,0.04599898,-0.047943894
0.055571992,0.05087577,-0.0050438866,-0.22844672,0.04642435,-0.04783353
0.055688966,0.05087858,-0.004971999,-0.22774246,0.04684969,-0.047722485
0.055804368,0.05088041,-0.0049022264,-0.22704056,0.04727495,-0.047610655
0.055918235,0.050881274,-0.0048344936,-0.22634088,0.047700062,-0.047498155
0.0560306,0.05088116,-0.0047688573,-0.22564366,0.048125062,-0.047384683
0.056141477,0.05088011,-0.004705186,-0.22494863,0.048549797,-0.047270346
0.05625085,0.050878055,-0.0046436293,-0.22425626,0.048974466,-0.04715498
0.056358766,0.050874986,-0.004584169,-0.2235664,0.049398977,-0.047038477
0.05646515,0.050870903,-0.0045268233,-0.22287917,0.049823303,-0.046920884
0.05657011,0.05086581,-0.0044714245,-0.22219442,0.050247367,-0.046802152
0.056673605,0.050859716,-0.004418122,-0.22151227,0.050671168,-0.04668211
0.056775685,0.050852638,-0.004366878,-0.22083274,0.05109478,-0.04656081
0.05687634,0.05084444,-0.0043176366,-0.22015588,0.051518094,-0.04643811
0.05697557,0.05083527,-0.004270416,-0.21948151,0.051941074,-0.046314042
0.057073414,0.05082505,-0.0042251428,-0.21880987,0.05236372,-0.046188515
0.057169873,0.050813783,-0.004181909,-0.21814087,0.052786022,-0.04606151
0.057264913,0.050801467,-0.0041406592,-0.21747458,0.05320799,-0.045932893
0.057358604,0.050788105,-0.0041013747,-0.21681094,0.053629506,-0.045802686
0.05745095,0.050773658,-0.004063999,-0.21614976,0.054050654,-0.04567089
0.057541985,0.05075816,-0.0040285513,-0.21549125,0.05447131,-0.045537334
0.05763163,0.05074165,-0.003994956,-0.21483524,0.054891445,-0.04540211
0.057719972,0.050724026,-0.003963345,-0.21418197,0.05531117,-0.045265075
0.057806965,0.05070538,-0.003933625,-0.21353117,0.05573044,-0.045126278
0.05789268,0.050685614,-0.0039058127,-0.21288311,0.056149077,-0.04498557
0.05797705,0.050664693,-0.0038799662,-0.21223791,0.056567263,-0.044842992
0.05806,0.05064235,-0.0038564026,-0.21159697,0.056984928,-0.04469845
0.05814149,0.050618537,-0.0038352725,-0.21096054,0.057402063,-0.044551942
0.05822152,0.050593313,-0.0038163697,-0.21032833,0.057818603,-0.0444036
0.058300164,0.05056655,-0.0037997686,-0.20970047,0.058234584,-0.04425318
0.058377456,0.05053851,-0.0037852824,-0.2090766,0.058649927,-0.044101078
0.058453895,0.050509837,-0.0037722562,-0.20845678,0.059064854,-0.04394858
0.05852936,0.050481237,-0.003759623,-0.2078396,0.05947844,-0.043797057
0.058603436,0.050453465,-0.0037457736,-0.20722292,0.059889287,-0.04364808
0.058676314,0.050426442,-0.0037308193,-0.2066067,0.060297556,-0.043501064
0.058748033,0.050399978,-0.003715117,-0.2059913,0.060703617,-0.04335581
0.05881874,0.05037404,-0.0036988526,-0.2053771,0.061107732,-0.04321202
0.058888476,0.050348468,-0.0036819335,-0.20476373,0.061509896,-0.04306957
0.058957316,0.050323278,-0.0036648083,-0.2041517,0.06191053,-0.042928267
0.059025288,0.050298423,-0.0036474213,-0.2035409,0.062309623,-0.042787973
0.059092518,0.050273754,-0.00362981,-0.20293127,0.0627073,-0.04264854
0.05915896,0.050249238,-0.003612348,-0.20232354,0.06310389,-0.04250978
0.059224725,0.05022487,-0.0035949424,-0.20171705,0.063499354,-0.042371716
0.05928982,0.05020061,-0.0035777048,-0.20111215,0.06389392,-0.04223417
0.059354354,0.050176393,-0.003560767,-0.20050894,0.064287595,-0.04209706
0.059418287,0.05015229,-0.003544166,-0.19990718,0.06468059,-0.041960414
0.05948169,0.05012811,-0.0035279957,-0.19930704,0.06507302,-0.041824013
0.059544653,0.05010389,-0.0035124428,-0.19870871,0.065465085,-0.041687783
0.05960713,0.050079633,-0.0034974327,-0.19811195,0.06585673,-0.04155179
0.059669193,0.050055344,-0.0034830028,-0.1975167,0.06624808,-0.041415952
0.059730876,0.050030824,-0.0034694336,-0.19692339,0.066639386,-0.041280057
0.059792228,0.050006308,-0.0034565758,-0.19633125,0.0670307,-0.04114435
0.059853315,0.04998156,-0.003444504,-0.19574074,0.06742197,-0.04100858
0.05991407,0.04995671,-0.0034333684,-0.19515167,0.067813545,-0.040872853
0.059974637,0.049931668,-0.003423168,-0.19456388,0.06820538,-0.040737126
0.06003501,0.04990644,-0.0034139787,-0.19397727,0.068597704,-0.040601417
0.06009524,0.04988106,-0.0034058746,-0.19339167,0.06899066,-0.04046569
0.06015539,0.04985538,-0.0033990245,-0.192807,0.0693846,-0.04032998
