Der-mark/objtrans/data/sim/qvel_trajectory.csv
q0,q1,q2,q3,q4,q5
0.0,0.0,0.0,0.0,0.0,0.0
0.00394084956496954,0.004492000676691532,-0.0030020950362086296,-0.004008930176496506,-0.0029514434281736612,0.004002791829407215
0.00790248904377222,0.00947235245257616,-0.0059789856895804405,-0.008010266348719597,-0.005989886820316315,0.00013512081932276487
0.011864828877151012,0.014754803851246834,-0.008803806267678738,-0.012023833580315113,-0.008543700911104679,-0.003658922156319022
0.015881210565567017,0.020210346207022667,-0.01125958189368248,-0.01604408770799637,-0.010816706344485283,-0.0074124764651060104
0.019283875823020935,0.024780847132205963,-0.013744777999818325,-0.019245419651269913,-0.014584089629352093,-0.01172755379229784
0.024557657539844513,0.029457589611411095,-0.017048828303813934,-0.024987630546092987,-0.01775803416967392,-0.016254602000117302
0.028102487325668335,0.030655531212687492,-0.025171007961034775,-0.028516829013824463,-0.024153685197234154,-0.019771434366703033
0.03128555417060852,0.03147845342755318,-0.031041646376252174,-0.03112947568297386,-0.03308508172631264,-0.023971468210220337
0.03590819612145424,0.035482581704854965,-0.03562505543231964,-0.03577464818954468,-0.03577318787574768,-0.02794177457690239
0.03986142575740814,0.039830826222896576,-0.03929077833890915,-0.039934463798999786,-0.039920784533023834,-0.03199102357029915
0.04384569078683853,0.043899405747652054,-0.04318896308541298,-0.04392990842461586,-0.04390564560890198,-0.035990580916404724
0.047835573554039,0.047910187393426895,-0.047157809138298035,-0.04792533814907074,-0.04789889603853226,-0.03805075213313103
0.05182727426290512,0.05190550163388252,-0.051147449761629105,-0.051921021193265915,-0.05189449340105057,-0.03479863703250885
0.05581660568714142,0.05589563399553299,-0.05514397844672203,-0.055916305631399155,-0.05589088797569275,-0.03171085938811302
0.05972224101424217,0.05535034090280533,-0.05865427479147911,-0.05991654470562935,-0.05980977043509483,-0.028630856424570084
0.06378789991140366,0.05875519663095474,-0.06296949088573456,-0.06391332298517227,-0.06386323273181915,-0.029460405930876732
0.06768462806940079,0.05673878267407417,-0.06645772606134415,-0.0679161474108696,-0.06777379661798477,-0.02691604010760784
0.07177695631980896,0.05993872880935669,-0.07090779393911362,-0.07191427797079086,-0.0718485414981842,-0.029107332229614258
0.07575622946023941,0.06210016459226608,-0.07490156590938568,-0.07591342180967331,-0.0758376494050026,-0.02682136930525303
0.07970636337995529,0.061889469623565674,-0.07864535599946976,-0.07991476356983185,-0.07979239523410797,-0.025501798838377
0.08376875519752502,0.06531310826539993,-0.08298611640930176,-0.0839134156703949,-0.08384588360786438,-0.026259317994117737
0.08768262714147568,0.06424518674612045,-0.08657826483249664,-0.08791548758745193,-0.0877709612250328,-0.023889845237135887
0.09175769984722137,0.06756073981523514,-0.09096826612949371,-0.09191444516181946,-0.09183375537395477,-0.02551952376961708
0.0957212969660759,0.06910992413759232,-0.09486915171146393,-0.09591440856456757,-0.09580735117197037,-0.0233291145414114
0.0997161865234375,0.07084183394908905,-0.0988711416721344,-0.09991367906332016,-0.09980333596467972,-0.02277328073978424
0.10370713472366333,0.07249683141708374,-0.10286813974380493,-0.10391275584697723,-0.10379675775766373,-0.022080160677433014
0.10770472139120102,0.07448884099721909,-0.1069098487496376,-0.10791133344173431,-0.10779732465744019,-0.021513722836971283
0.11168651282787323,0.07602425664663315,-0.11087410151958466,-0.11190909892320633,-0.11178437620401382,-0.02072160877287388
0.11569488793611526,0.07862061262130737,-0.1149892508983612,-0.11590675264596939,-0.11579670757055283,-0.02041972056031227
0.11964896321296692,0.07939022034406662,-0.11881756037473679,-0.11990247666835785,-0.1197601929306984,-0.019251149147748947
0.1236860454082489,0.08292843401432037,-0.12309307605028152,-0.12389955669641495,-0.12379974871873856,-0.019796103239059448
0.12761501967906952,0.08335708826780319,-0.12681373953819275,-0.1278933733701706,-0.12774315476417542,-0.017948724329471588
0.1316542774438858,0.08685237914323807,-0.13109974563121796,-0.1318892538547516,-0.13178527355194092,-0.019009988754987717
0.13561606407165527,0.08907116204500198,-0.1350289285182953,-0.13588468730449677,-0.13576221466064453,-0.01742762327194214
0.13960309326648712,0.09163732081651688,-0.13905872404575348,-0.13987921178340912,-0.13975991308689117,-0.01712585613131523
0.14357581734657288,0.0937495008111,-0.14302080869674683,-0.14387273788452148,-0.14374488592147827,-0.01657380349934101
0.1475752890110016,0.09692312777042389,-0.14714063704013824,-0.14786803722381592,-0.14775630831718445,-0.016512321308255196
0.15151940286159515,0.09816168993711472,-0.15095368027687073,-0.15185877680778503,-0.15171508491039276,-0.015597851946949959
0.15554018318653107,0.10175200551748276,-0.15518781542778015,-0.15585388243198395,-0.15574651956558228,-0.01646602153778076
0.1594965010881424,0.10409031808376312,-0.15910638868808746,-0.15984734892845154,-0.15972092747688293,-0.01534771267324686
0.16348694264888763,0.10725387930870056,-0.16319197416305542,-0.16384176909923553,-0.16372647881507874,-0.015456940047442913
0.16213099658489227,0.10888856649398804,-0.16706320643424988,-0.16786952316761017,-0.16769865155220032,-0.014924492686986923
0.15942895412445068,0.11226046085357666,-0.17124763131141663,-0.17187979817390442,-0.17172585427761078,-0.014684388414025307
0.15890230238437653,0.11189539730548859,-0.1748463213443756,-0.1758536547422409,-0.17564989626407623,-0.012799890711903572
0.15510299801826477,0.1152094155550003,-0.179202139377594,-0.17987622320652008,-0.17970845103263855,-0.014793080277740955
0.15596827864646912,0.11883416771888733,-0.18331187963485718,-0.18384642899036407,-0.18371367454528809,-0.012940505519509315
0.15208731591701508,0.11842653900384903,-0.18687936663627625,-0.187867671251297,-0.18763643503189087,-0.012039951048791409
0.15117007493972778,0.12179511040449142,-0.19122245907783508,-0.1918472945690155,-0.1916900873184204,-0.013757673092186451
0.14834551513195038,0.123970165848732,-0.1889527440071106,-0.19586554169654846,-0.19585087895393372,-0.012915225699543953
0.1469111442565918,0.12097474932670593,-0.18595586717128754,-0.19984789192676544,-0.1997469663619995,-0.01237118523567915
0.1431407481431961,0.1236882358789444,-0.18287266790866852,-0.20388028025627136,-0.20388063788414001,-0.01637965813279152
0.14285914599895477,0.12095201760530472,-0.18002404272556305,-0.20784665644168854,-0.20774008333683014,-0.01547068078070879
0.13913969695568085,0.12361447513103485,-0.17700767517089844,-0.21188609302043915,-0.20915603637695312,-0.0194845013320446
0.13734838366508484,0.12101679295301437,-0.1750815212726593,-0.21586360037326813,-0.21191219985485077,-0.018572332337498665
0.134299635887146,0.12353537231683731,-0.17233030498027802,-0.2198837250471115,-0.20808224380016327,-0.022456588223576546
0.13334785401821136,0.12090124934911728,-0.16953282058238983,-0.22385689616203308,-0.21156436204910278,-0.019830673933029175
0.12958168983459473,0.12172310799360275,-0.16640549898147583,-0.2278861701488495,-0.20768502354621887,-0.023850958794355392
0.1292436122894287,0.11894796788692474,-0.16445685923099518,-0.23184792697429657,-0.20960350334644318,-0.023813242092728615
0.12554098665714264,0.12140342593193054,-0.16170482337474823,-0.2358866035938263,-0.20577554404735565,-0.02792862243950367
0.12461864203214645,0.11888276785612106,-0.15950027108192444,-0.23985150456428528,-0.20960485935211182,-0.025503672659397125
0.12083932757377625,0.11818239837884903,-0.15630704164505005,-0.24387715756893158,-0.2057046741247177,-0.029372531920671463
0.12000463902950287,0.11497812718153,-0.15206165611743927,-0.24724005162715912,-0.20589202642440796,-0.03352319076657295
0.11626806110143661,0.11120133846998215,-0.14877262711524963,-0.24328061938285828,-0.20402780175209045,-0.0335828997194767
0.11672354489564896,0.11385001987218857,-0.14639343321323395,-0.239254429936409,-0.200565367937088,-0.03580097109079361
0.11286544054746628,0.11089252680540085,-0.14194777607917786,-0.235285684466362,-0.20223410427570343,-0.036978885531425476
0.11360526084899902,0.11163195967674255,-0.14079971611499786,-0.23125210404396057,-0.19825467467308044,-0.04088672995567322
0.11005942523479462,0.10931253433227539,-0.13861064612865448,-0.22728505730628967,-0.1981542706489563,-0.04421073570847511
0.11220576614141464,0.11195744574069977,-0.13572807610034943,-0.22323952615261078,-0.19431108236312866,-0.048445720225572586
0.10846250504255295,0.10911600291728973,-0.13147829473018646,-0.2192835509777069,-0.1962064951658249,-0.05132284387946129
0.10881520062685013,0.10820884257555008,-0.12989209592342377,-0.21525242924690247,-0.19220319390296936,-0.055246032774448395
0.1064109057188034,0.10921652615070343,-0.12810899317264557,-0.21128404140472412,-0.19083359837532043,-0.05916986241936684
0.10613296180963516,0.10641026496887207,-0.12720011174678802,-0.207255020737648,-0.19183386862277985,-0.05843481048941612
0.10445235669612885,0.1080947071313858,-0.12456775456666946,-0.20328013598918915,-0.18801593780517578,-0.062460605055093765
0.10506745427846909,0.1054774820804596,-0.12288886308670044,-0.1992437243461609,-0.1882486492395401,-0.06653939187526703
0.10142283141613007,0.10531417280435562,-0.11980187892913818,-0.19529549777507782,-0.1843724101781845,-0.07084375619888306
0.10435355454683304,0.1023382917046547,-0.11736027896404266,-0.19121354818344116,-0.18427756428718567,-0.07455756515264511
0.10091305524110794,0.10476674884557724,-0.11484391987323761,-0.18729574978351593,-0.1804405301809311,-0.07873782515525818
0.09937753528356552,0.10258245468139648,-0.11487513035535812,-0.1832648068666458,-0.18254108726978302,-0.08139237016439438
0.09990783035755157,0.10364429652690887,-0.11231362074613571,-0.1792483776807785,-0.17871379852294922,-0.08536778390407562
0.09629952162504196,0.1007569432258606,-0.11027460545301437,-0.17528659105300903,-0.1771811693906784,-0.08965781331062317
0.09982484579086304,0.10030916333198547,-0.10708508640527725,-0.1712086945772171,-0.17327731847763062,-0.09352350234985352
0.09632211178541183,0.0979825034737587,-0.10639755427837372,-0.16728638112545013,-0.17172633111476898,-0.09756900370121002
0.09598091244697571,0.10038631409406662,-0.10380029678344727,-0.16325919330120087,-0.16790686547756195,-0.10153467208147049
0.0946916714310646,0.09831594675779343,-0.10431382060050964,-0.1592574566602707,-0.17169032990932465,-0.10565414279699326
0.09557341784238815,0.0974421501159668,-0.10162035375833511,-0.15523618459701538,-0.1678309589624405,-0.10966965556144714
0.09190119802951813,0.09438693523406982,-0.09968416392803192,-0.15129703283309937,-0.1637537181377411,-0.10973549634218216
0.09540392458438873,0.09502134472131729,-0.09708580374717712,-0.14720432460308075,-0.15987129509449005,-0.1157725527882576
0.09192037582397461,0.09260266274213791,-0.09923703223466873,-0.1432863473892212,-0.15568187832832336,-0.11740519851446152
0.0879296362400055,0.08820250630378723,-0.09628330916166306,-0.139290913939476,-0.15176896750926971,-0.12148129940032959
0.09144838899374008,0.09054383635520935,-0.09344109892845154,-0.13521458208560944,-0.1479349136352539,-0.12570522725582123
0.0879337266087532,0.08802251517772675,-0.09154586493968964,-0.131263867020607,-0.14768829941749573,-0.12921051681041718
0.08836115896701813,0.08481918275356293,-0.09320777654647827,-0.12722709774971008,-0.14358828961849213,-0.1331794559955597
0.09039813280105591,0.08671094477176666,-0.09117893129587173,-0.1232185810804367,-0.13890735805034637,-0.13666746020317078
0.08683113008737564,0.08665288984775543,-0.08836887031793594,-0.11928026378154755,-0.13450933992862701,-0.13871240615844727
0.08286512643098831,0.08584322780370712,-0.08816590905189514,-0.11529629677534103,-0.13030153512954712,-0.14084161818027496
0.08389605581760406,0.08249323070049286,-0.08736655116081238,-0.11122895032167435,-0.1261419951915741,-0.1399925798177719
0.08038748055696487,0.08471038192510605,-0.08535481989383698,-0.10730384290218353,-0.12234526872634888,-0.14416258037090302
0.08370772004127502,0.08226152509450912,-0.08438491076231003,-0.10319984704256058,-0.11827588081359863,-0.1452610343694687
0.08108106255531311,0.08346016705036163,-0.08150803297758102,-0.09930125623941422,-0.11447564512491226,-0.14825154840946198
0.08448585867881775,0.08116171509027481,-0.08150152117013931,-0.0952141210436821,-0.11473377794027328,-0.15130320191383362
0.08116564899682999,0.08327805250883102,-0.07902590930461884,-0.09131699800491333,-0.11097383499145508,-0.15549761056900024
0.08448868989944458,0.08112803846597672,-0.07880303263664246,-0.08720989525318146,-0.11271344870328903,-0.15824757516384125
0.0811181366443634,0.07997758686542511,-0.07606105506420135,-0.08330617100000381,-0.10883646458387375,-0.16214309632778168
0.0837613046169281,0.07708446681499481,-0.07502461969852448,-0.07921866327524185,-0.10472238808870316,-0.16654731333255768
0.08040855824947357,0.07939479500055313,-0.0730605199933052,-0.07531401515007019,-0.10089144855737686,-0.1705324351787567
0.08371090888977051,0.07737288624048233,-0.07352326065301895,-0.07121605426073074,-0.10468024015426636,-0.171147882938385
0.08037064224481583,0.07750315219163895,-0.07119850069284439,-0.06731341779232025,-0.10085849463939667,-0.17542053759098053
0.08369162678718567,0.07461953163146973,-0.0693545863032341,-0.06321142613887787,-0.09995090216398239,-0.17966465651988983
0.0803409069776535,0.07215512543916702,-0.06693015992641449,-0.05930715054273605,-0.09596668183803558,-0.18353575468063354
0.08376241475343704,0.0727197453379631,-0.06582256406545639,-0.055227454751729965,-0.09202928096055984,-0.18740375339984894
0.08035765588283539,0.07026400417089462,-0.06494788080453873,-0.05132465437054634,-0.09135641902685165,-0.19117894768714905
0.08378847688436508,0.07257004082202911,-0.06239471957087517,-0.047241516411304474,-0.0872078388929367,-0.19508996605873108
0.08047376573085785,0.07621587812900543,-0.06317517906427383,-0.0433381013572216,-0.08312468230724335,-0.19969408214092255
0.08122061938047409,0.07391703873872757,-0.06259367614984512,-0.03926348313689232,-0.08670780807733536,-0.19799773395061493
0.08027669042348862,0.07410480082035065,-0.05988679826259613,-0.035299066454172134,-0.08284258842468262,-0.2018827199935913
0.0830082893371582,0.0713844746351242,-0.059284888207912445,-0.031241372227668762,-0.07869677990674973,-0.2056460827589035
0.07969044893980026,0.07353401929140091,-0.056664008647203445,-0.027341008186340332,-0.074869304895401,-0.20979711413383484
0.08296423405408859,0.0716819167137146,-0.0576605387032032,-0.023256704211235046,-0.07859675586223602,-0.21215973794460297
0.07968663424253464,0.07364670187234879,-0.055386003106832504,-0.019361037760972977,-0.0747809037566185,-0.21622225642204285
0.08149991929531097,0.07315856963396072,-0.05526824668049812,-0.015275848098099232,-0.07063860446214676,-0.2199971228837967
0.07803062349557877,0.07276057451963425,-0.05347835272550583,-0.011351465247571468,-0.0668434202671051,-0.22295311093330383
0.08130143582820892,0.0698547288775444,-0.05239655077457428,-0.007241599727421999,-0.06769512593746185,-0.2256401777267456
0.07806064188480377,0.07196886837482452,-0.05023838207125664,-0.0034938433673232794,-0.06385395675897598,-0.22989240288734436
0.08132398128509521,0.07001074403524399,-0.05121927335858345,0.0004270811623428017,-0.06555245816707611,-0.23398320376873016
0.07804818451404572,0.07197844237089157,-0.048924144357442856,0.003075717482715845,-0.06175409257411957,-0.23797999322414398
0.08132299035787582,0.06987422704696655,-0.04907556250691414,0.007184668444097042,-0.0628199353814125,-0.24103295803070068
0.07801566272974014,0.07024908065795898,-0.04639424756169319,0.009082114323973656,-0.058962032198905945,-0.24502775073051453
0.08131946623325348,0.06781088560819626,-0.0464935377240181,0.013185570947825909,-0.058507297188043594,-0.2488860934972763
0.07804207503795624,0.06981988996267319,-0.04405147582292557,0.014277796261012554,-0.05468587577342987,-0.2531338632106781
0.0808824747800827,0.06792345643043518,-0.04511135816574097,0.018389079719781876,-0.057783618569374084,-0.2558082640171051
0.07754356414079666,0.06733878701925278,-0.04248935356736183,0.021426016464829445,-0.053820595145225525,-0.2582841217517853
0.07832130789756775,0.06450390070676804,-0.04215402901172638,0.025471335276961327,-0.04963603615760803,-0.26187941431999207
0.07749084383249283,0.06537969410419464,-0.03945690020918846,0.028467118740081787,-0.04575629159808159,-0.26582425832748413
0.07924006879329681,0.06314186006784439,-0.04017464071512222,0.0325133353471756,-0.04634741321206093,-0.26992636919021606
0.07606632262468338,0.06455852091312408,-0.037788279354572296,0.03183385729789734,-0.04250968620181084,-0.27415531873703003
0.07938443124294281,0.06237625703215599,-0.03771471977233887,0.0359555147588253,-0.04537295550107956,-0.2774563431739807
0.07607000321149826,0.063173308968544,-0.03559291362762451,0.03473636880517006,-0.041502323001623154,-0.28180307149887085
0.07938563078641891,0.06078984960913658,-0.03572911024093628,0.03882760927081108,-0.041855767369270325,-0.2858613431453705
0.07612156867980957,0.061342041939496994,-0.033249907195568085,0.04090770334005356,-0.03797754645347595,-0.28998374938964844
0.07939460128545761,0.059003524482250214,-0.03356354311108589,0.045031506568193436,-0.03924821317195892,-0.2941873073577881
0.07610802352428436,0.06096595898270607,-0.03131372854113579,0.04423890262842178,-0.035426605492830276,-0.2974829077720642
0.07940173149108887,0.059060774743556976,-0.032360102981328964,0.04835445061326027,-0.03796079009771347,-0.3014131784439087
0.07606187462806702,0.05635420233011246,-0.029639137908816338,0.04913150519132614,-0.03404160961508751,-0.305390864610672
0.07943880558013916,0.05657486990094185,-0.028674256056547165,0.05322553589940071,-0.030110176652669907,-0.3102829158306122
0.07603614032268524,0.05375376343727112,-0.029221095144748688,0.051386117935180664,-0.028412261977791786,-0.31467288732528687
0.07570916414260864,0.05574289709329605,-0.02692876011133194,0.05213470757007599,-0.024660689756274223,-0.31445491313934326
0.07595691829919815,0.053895462304353714,-0.028669964522123337,0.05612478405237198,-0.02704945020377636,-0.31458547711372375
0.07688216120004654,0.05355839803814888,-0.026250550523400307,0.05495602637529373,-0.0232074111700058,-0.3147469460964203
0.07356078922748566,0.05080259218811989,-0.026349561288952827,0.058460842818021774,-0.02137601003050804,-0.31476014852523804
0.07689906656742096,0.052676498889923096,-0.023962100967764854,0.0625520721077919,-0.017558343708515167,-0.3155328631401062
0.07613313943147659,0.05082140862941742,-0.025912420824170113,0.06373515725135803,-0.020927727222442627,-0.315723717212677
0.07870128750801086,0.04928348585963249,-0.02337455376982689,0.06488631665706635,-0.01706518419086933,-0.31594735383987427
0.07537630945444107,0.04921768605709076,-0.023051192983984947,0.06403183937072754,-0.013368493877351284,-0.31603026390075684
0.07864850759506226,0.046159375458955765,-0.021403934806585312,0.06819219887256622,-0.01645425520837307,-0.3158692717552185
0.07542059570550919,0.04839242622256279,-0.020430786535143852,0.06755540519952774,-0.012588652782142162,-0.31617945432662964
0.07867894321680069,0.046296730637550354,-0.0209346953779459,0.07166556268930435,-0.015512864105403423,-0.3159303069114685
0.07707380503416061,0.045360054820775986,-0.01883384957909584,0.07209914922714233,-0.011612355709075928,-0.3157426416873932
0.08006779104471207,0.04244675859808922,-0.018654299899935722,0.0762391909956932,-0.008832493796944618,-0.315937340259552
0.07676833868026733,0.04453419893980026,-0.0171356201171875,0.07369330525398254,-0.004909691400825977,-0.3069172501564026
0.08005589991807938,0.042620036751031876,-0.018282553181052208,0.07786379009485245,-0.008731817826628685,-0.3064727187156677
0.07703039795160294,0.040534477680921555,-0.016015414148569107,0.07804252207279205,-0.004820785019546747,-0.3066985309123993
0.08040058612823486,0.039511788636446,-0.01502834353595972,0.08223946392536163,-0.001111058983951807,-0.3070017099380493
0.07746922969818115,0.039959248155355453,-0.015178246423602104,0.08063185960054398,0.0006986386142671108,-0.3072586953639984
0.0807596817612648,0.036896467208862305,-0.013506326824426651,0.08471561223268509,-0.002230304293334484,-0.31228190660476685
0.07753100991249084,0.03922862187027931,-0.013208398595452309,0.08064182847738266,0.0016309850616380572,-0.31319621205329895
0.08082687109708786,0.03689512610435486,-0.01272930484265089,0.08473711460828781,-0.0006868203636258841,-0.30876415967941284
0.07754158973693848,0.03303314000368118,-0.012137727811932564,0.08779758214950562,0.0035115370992571115,-0.30512797832489014
0.08081920444965363,0.030666334554553032,-0.009862885810434818,0.09194395691156387,0.007404383271932602,-0.31259840726852417
0.07757878303527832,0.03305896371603012,-0.010120571590960026,0.09032276272773743,0.009519954212009907,-0.31342583894729614
0.080820232629776,0.030559895560145378,-0.009051931090652943,0.09444017708301544,0.005640041083097458,-0.31358084082603455
0.07787489145994186,0.029905708506703377,-0.00843572523444891,0.09278159588575363,0.009574087336659431,-0.31399089097976685
0.08118831366300583,0.02673918381333351,-0.006557875778526068,0.0968790054321289,0.00917007215321064,-0.3141788840293884
0.0779978409409523,0.02924661710858345,-0.0069780717603862286,0.09278759360313416,0.013040894642472267,-0.31449493765830994
0.08127564936876297,0.026767505332827568,-0.0057385992258787155,0.09689489752054214,0.00920112058520317,-0.3147910535335541
0.07949934154748917,0.029219480231404305,-0.005841837730258703,0.09586470574140549,0.01311554480344057,-0.30756938457489014
0.08287964016199112,0.026877474039793015,-0.00594395212829113,0.0999307706952095,0.01310164574533701,-0.30796271562576294
0.0795813649892807,0.026410531252622604,-0.004865911789238453,0.09775765240192413,0.0168154314160347,-0.32334190607070923
0.0828590914607048,0.023194067180156708,-0.001846367958933115,0.101707823574543,0.01280747540295124,-0.3294339179992676
0.07968591898679733,0.02586994506418705,-0.002875962993130088,0.10090776532888412,0.016842374578118324,-0.3209955394268036
0.08275781571865082,0.02357303909957409,-0.0033097851555794477,0.10502360761165619,0.013973420485854149,-0.32106178998947144
0.0794423297047615,0.02496475726366043,-0.0032896660268306732,0.10093212127685547,0.017811380326747894,-0.3209540843963623
0.08145998418331146,0.022365914657711983,-0.0027187939267605543,0.1050243154168129,0.014866350218653679,-0.32070663571357727
0.07843586057424545,0.02446877583861351,-0.0030637048184871674,0.10095123201608658,0.018712621182203293,-0.3207414746284485
0.08173101395368576,0.02200229838490486,-0.0024312168825417757,0.1050112247467041,0.0148176159709692,-0.3208635747432709
0.07844673097133636,0.023257166147232056,-0.002951815025880933,0.10092069208621979,0.018686452880501747,-0.3209484815597534
0.0808793231844902,0.020454660058021545,-0.0017021612729877234,0.10500267893075943,0.015194372273981571,-0.3210087716579437
0.07753290981054306,0.02294984459877014,-0.0025576981715857983,0.10091622173786163,0.019054939970374107,-0.32096898555755615
0.08078904449939728,0.020460713654756546,-0.0016719006234779954,0.1050151139497757,0.015151270665228367,-0.3210713267326355
0.07749877870082855,0.021569756790995598,-0.0023002801463007927,0.10092227905988693,0.019041018560528755,-0.3210740387439728
0.08045435696840286,0.018685357645154,-0.0008094578515738249,0.10484925657510757,0.01586713269352913,-0.31449124217033386
0.08435773104429245,0.017913194373250008,-0.0021630623377859592,0.1089925616979599,0.01186351478099823,-0.3139272928237915
0.08817799389362335,0.02055792324244976,-0.0027706569526344538,0.11161453276872635,0.012827485799789429,-0.3138274848461151
0.0848732590675354,0.018584799021482468,-0.004494781140238047,0.11134001612663269,0.009728683158755302,-0.31384649872779846
0.08518875390291214,0.020476941019296646,-0.002424720674753189,0.11296781152486801,0.013482959941029549,-0.3137759268283844
0.08320512622594833,0.01864682324230671,-0.004424992483109236,0.11610420048236847,0.009684447199106216,-0.31372639536857605
0.08657456189393997,0.020588388666510582,-0.0027150779496878386,0.11492417007684708,0.013326597400009632,-0.32379889488220215
0.08335277438163757,0.018619302660226822,-0.004424830432981253,0.11796700954437256,0.009507140144705772,-0.3237382769584656
0.08637877553701401,0.020573081448674202,-0.0023387689143419266,0.11810686439275742,0.010997437871992588,-0.323714941740036
0.08304881304502487,0.01865956373512745,-0.004361933562904596,0.11804820597171783,0.0072951540350914,-0.3235728144645691
0.08521819859743118,0.02053443156182766,-0.0023572142235934734,0.11923155933618546,0.011026550084352493,-0.32365909218788147
0.08180583268404007,0.01865421235561371,-0.00436641788110137,0.12076183408498764,0.007230510003864765,-0.3236725330352783
0.08508013188838959,0.02056628093123436,-0.00243004085496068,0.12146369367837906,0.010644281283020973,-0.3236483633518219
0.08177503943443298,0.01866673119366169,-0.00445197056978941,0.12201991677284241,0.006847779266536236,-0.323612242937088
0.0850837305188179,0.020330850034952164,-0.0025470915716141462,0.1234283372759819,0.010140903294086456,-0.3236299157142639
0.08176328241825104,0.018371164798736572,-0.004608978051692247,0.1233285591006279,0.006339314393699169,-0.3237099349498749
0.08508314937353134,0.0202394500374794,-0.0026197724509984255,0.12454511225223541,0.010087983682751656,-0.32409563660621643
0.08180490881204605,0.018343865871429443,-0.004631676245480776,0.1269759237766266,0.006302539724856615,-0.32410258054733276
0.08507005125284195,0.01998954452574253,-0.003075887681916356,0.12763965129852295,0.010072752833366394,-0.32427412271499634
0.0817728340625763,0.01799279823899269,-0.005198451690375805,0.12864021956920624,0.0062830387614667416,-0.323517382144928
0.08507135510444641,0.019844235852360725,-0.003225291147828102,0.1294102817773819,0.010029196739196777,-0.3236498534679413
0.08177558332681656,0.017944520339369774,-0.0052445437759160995,0.1305033266544342,0.006234530359506607,-0.3236761689186096
0.08507923781871796,0.019832901656627655,-0.003235909389331937,0.1317136585712433,0.009817244485020638,-0.3238428831100464
0.08196394890546799,0.017944490537047386,-0.005248737521469593,0.132518470287323,0.006026416085660458,-0.3239692449569702
0.08525840938091278,0.01950679160654545,-0.003500961698591709,0.1323109120130539,0.009446196258068085,-0.32401934266090393
0.08195046335458755,0.017510084435343742,-0.005605924874544144,0.13153864443302155,0.005645899102091789,-0.32400020956993103
0.08528438955545425,0.01938127540051937,-0.0036630253307521343,0.13273806869983673,0.008853062056005001,-0.3240339159965515
0.08210159838199615,0.017472989857196808,-0.005699988454580307,0.13148392736911774,0.005061388947069645,-0.3241243064403534
0.08545339852571487,0.019461559131741524,-0.004311659373342991,0.13256540894508362,0.008227426558732986,-0.32418638467788696
0.08216053247451782,0.017506595700979233,-0.00644253846257925,0.13187840580940247,0.004426679573953152,-0.32419344782829285
0.08549422770738602,0.019387077540159225,-0.004559955559670925,0.13305963575839996,0.007823904976248741,-0.32426872849464417
0.08253222703933716,0.01748053729534149,-0.006605510134249926,0.1319657415151596,0.004036157391965389,-0.3243565559387207
0.08590700477361679,0.019439058378338814,-0.005019796546548605,0.13301514089107513,0.00699513778090477,-0.3244090676307678
0.08258464932441711,0.01749761402606964,-0.00712205795571208,0.1325463354587555,0.00321290735155344,-0.3244321346282959
0.08592496067285538,0.019407832995057106,-0.005341935902833939,0.13456036150455475,0.00634363479912281,-0.3244355022907257
0.08354004472494125,0.017496470361948013,-0.007410278543829918,0.1336502581834793,0.002562836743891239,-0.3246004283428192
0.08696752041578293,0.019469434395432472,-0.006072919350117445,0.1344435065984726,0.006028853822499514,-0.3246747553348541
0.08365388214588165,0.017512239515781403,-0.008213155902922153,0.13403813540935516,0.0022234595380723476,-0.3247499465942383
0.0869625136256218,0.019369613379240036,-0.006225893273949623,0.13405193388462067,0.005755811929702759,-0.3248753547668457
0.08367297053337097,0.01747421734035015,-0.008252158761024475,0.13449504971504211,0.0019449049141258001,-0.3218734860420227
0.07965429872274399,0.013241247273981571,-0.0053235809318721294,0.13051700592041016,0.00494112353771925,-0.32224562764167786
0.08298274874687195,0.015651995316147804,-0.003445326117798686,0.1311800479888916,0.0040208096615970135,-0.32263681292533875
0.07968157529830933,0.013843754306435585,-0.005552566610276699,0.1321968287229538,0.0016228408785536885,-0.3232335150241852
0.0830327495932579,0.015972767025232315,-0.004765673540532589,0.13628476858139038,0.004725811071693897,-0.3238626718521118
0.08293915539979935,0.01400042325258255,-0.007010119967162609,0.1359943449497223,0.0015228830743581057,-0.3245215117931366
0.08664753288030624,0.0159766748547554,-0.006082425359636545,0.1393307000398636,0.005136255174875259,-0.3250814378261566
0.08333281427621841,0.015529952943325043,-0.008550942875444889,0.13765037059783936,0.0020374259911477566,-0.3251524269580841
0.08669493347406387,0.017508670687675476,-0.006443152669817209,0.14130334556102753,0.0030190707184374332,-0.32472747564315796
0.083295539021492,0.015547394752502441,-0.008531512692570686,0.1373615711927414,0.0027748937718570232,-0.3229227662086487
0.08658082783222198,0.017666976898908615,-0.006484925746917725,0.1334676295518875,-0.0014216949930414557,-0.3234575390815735
0.0833699032664299,0.021890440955758095,-0.009591702371835709,0.12923575937747955,-0.00361270597204566,-0.3259087800979614
0.08657882362604141,0.019895322620868683,-0.012413104064762592,0.13144828379154205,-0.007446512579917908,-0.3261811137199402
0.09035199880599976,0.016330011188983917,-0.01491362601518631,0.12747037410736084,-0.011407812125980854,-0.32678428292274475
0.08721747249364853,0.013183662667870522,-0.012382475659251213,0.12335623800754547,-0.015173941850662231,-0.32688218355178833
0.08974219113588333,0.015430834144353867,-0.010075215250253677,0.12043055146932602,-0.011776430532336235,-0.3273875117301941
0.08648543804883957,0.014762863516807556,-0.012180622667074203,0.1243789792060852,-0.015523436479270458,-0.32794108986854553
0.08977431058883667,0.017324158921837807,-0.011943142861127853,0.1284761279821396,-0.01705821231007576,-0.3279888927936554
0.08767226338386536,0.015635963529348373,-0.014310303144156933,0.12566547095775604,-0.0178214218467474,-0.32858631014823914
0.09121496230363846,0.017640966922044754,-0.012213102541863918,0.12977497279644012,-0.01796468161046505,-0.32873961329460144
0.08786439150571823,0.01776810549199581,-0.01464375015348196,0.1268284022808075,-0.018902329728007317,-0.32932206988334656
0.09119775891304016,0.01842566207051277,-0.014044547453522682,0.13090351223945618,-0.021950524300336838,-0.33021995425224304
0.09514884650707245,0.02118857577443123,-0.01748981513082981,0.13493531942367554,-0.019942736253142357,-0.32950282096862793
0.09367384016513824,0.01871761865913868,-0.020046427845954895,0.13886311650276184,-0.023808276280760765,-0.3294583559036255
0.09718534350395203,0.020374108105897903,-0.018194811418652534,0.1429436355829239,-0.02006429247558117,-0.329385370016098
0.09385588020086288,0.020073870196938515,-0.020590899512171745,0.14159736037254333,-0.020853396505117416,-0.3293476998806
0.09717362374067307,0.02094750851392746,-0.018523933365941048,0.14486713707447052,-0.022373419255018234,-0.3292928636074066
0.09380965679883957,0.020473666489124298,-0.021111205220222473,0.14079055190086365,-0.021402904763817787,-0.3292100131511688
0.09716924279928207,0.020989663898944855,-0.01869751140475273,0.1445169895887375,-0.02483678236603737,-0.3291514217853546
0.09383566677570343,0.021733634173870087,-0.021539708599448204,0.14043842256069183,-0.021509787067770958,-0.3290709853172302
0.096622534096241,0.018694965168833733,-0.019282666966319084,0.14380818605422974,-0.025506433099508286,-0.32901880145072937
0.09334899485111237,0.021377738565206528,-0.0209055133163929,0.13973282277584076,-0.021614359691739082,-0.32896125316619873
0.0948752909898758,0.019751915708184242,-0.020011384040117264,0.1420254111289978,-0.025536954402923584,-0.3289257287979126
0.0914684385061264,0.022419186308979988,-0.020634086802601814,0.13796323537826538,-0.021956175565719604,-0.3289340138435364
0.09468372911214828,0.02008112519979477,-0.020131006836891174,0.14206050336360931,-0.025817008689045906,-0.3289257287979126
0.09144457429647446,0.022485896944999695,-0.020560406148433685,0.1379791498184204,-0.02292163483798504,-0.3289766311645508
0.0939517542719841,0.02009171061217785,-0.020069459453225136,0.1420588493347168,-0.026790527626872063,-0.3289956748485565
0.0906393900513649,0.022445280104875565,-0.02037050947546959,0.1379891186952591,-0.022947754710912704,-0.3290087580680847
0.09326095879077911,0.020097602158784866,-0.0199506264179945,0.1418749988079071,-0.026813391596078873,-0.3290298283100128
0.08996542543172836,0.022457802668213844,-0.02023707516491413,0.13780350983142853,-0.023464510217308998,-0.3290289640426636
0.09216059744358063,0.020095549523830414,-0.01979665458202362,0.14080680906772614,-0.02732442133128643,-0.3290282189846039
0.0888347327709198,0.022425314411520958,-0.019842376932501793,0.13673369586467743,-0.024183165282011032,-0.32904312014579773
0.09205842018127441,0.020452121272683144,-0.019693966954946518,0.14077743887901306,-0.028052352368831635,-0.3289598226547241
0.08882594108581543,0.022837651893496513,-0.01997402310371399,0.1366988867521286,-0.024295547977089882,-0.32897740602493286
0.08901200443506241,0.02061709575355053,-0.01943468488752842,0.13944567739963531,-0.028167545795440674,-0.32902002334594727
0.08860526233911514,0.023033566772937775,-0.019173763692378998,0.13549204170703888,-0.025968044996261597,-0.32898277044296265
0.08692684024572372,0.020942222326993942,-0.019936364144086838,0.13755376636981964,-0.029804013669490814,-0.3290245532989502
0.09032558649778366,0.023011190816760063,-0.018266290426254272,0.13532257080078125,-0.02676216885447502,-0.32900241017341614
0.08709070831537247,0.02239510603249073,-0.020568374544382095,0.13443343341350555,-0.030578039586544037,-0.3290550708770752
0.08786127716302872,0.024522433057427406,-0.018428752198815346,0.136478453874588,-0.029629474505782127,-0.32906943559646606
0.08552151173353195,0.022708501666784286,-0.02046581730246544,0.13613727688789368,-0.03259113430976868,-0.32912686467170715
0.08892904967069626,0.024581817910075188,-0.01840019039809704,0.13645318150520325,-0.028842061758041382,-0.32914647459983826
0.08560027927160263,0.022735867649316788,-0.020436862483620644,0.13358111679553986,-0.032624032348394394,-0.3292018175125122
0.08648885041475296,0.024577632546424866,-0.018394140526652336,0.13531529903411865,-0.029774151742458344,-0.3291975259780884
0.08385085314512253,0.022743847221136093,-0.020442930981516838,0.1354326456785202,-0.033553414046764374,-0.32922232151031494
0.08721248060464859,0.02459479682147503,-0.018390122801065445,0.13559691607952118,-0.029798312112689018,-0.3292064666748047
0.08389608561992645,0.02273508347570896,-0.020429665222764015,0.1334240436553955,-0.03322971239686012,-0.32924604415893555
0.08673638850450516,0.024590540677309036,-0.01837622933089733,0.13507907092571259,-0.02978822961449623,-0.32925400137901306
0.08333189785480499,0.022718103602528572,-0.020259831100702286,0.13255098462104797,-0.033493008464574814,-0.3292946517467499
0.08583132922649384,0.024581322446465492,-0.01818406581878662,0.13460808992385864,-0.030167145654559135,-0.32930031418800354
0.0823875218629837,0.022730473428964615,-0.020152030512690544,0.1324187070131302,-0.03385606408119202,-0.32935625314712524
0.08571939170360565,0.02459491416811943,-0.01808282546699047,0.13411632180213928,-0.030355602502822876,-0.32937318086624146
0.0823667123913765,0.022743849083781242,-0.020084137097001076,0.1313522905111313,-0.03405076265335083,-0.32943156361579895
0.08383329957723618,0.024579327553510666,-0.018034610897302628,0.13313592970371246,-0.030674558132886887,-0.32942184805870056
0.0803128033876419,0.022657349705696106,-0.019528454169631004,0.13283966481685638,-0.034466106444597244,-0.32946959137916565
0.08359244465827942,0.024561608210206032,-0.0173718873411417,0.13399037718772888,-0.03070978820323944,-0.32948049902915955
0.08024411648511887,0.02274070680141449,-0.019399896264076233,0.1312440186738968,-0.03417402133345604,-0.32953792810440063
0.08359600603580475,0.02460668794810772,-0.017330147325992584,0.13328811526298523,-0.03094455599784851,-0.3295653462409973
0.08022201061248779,0.022767258808016777,-0.019375933334231377,0.1292017698287964,-0.03473328426480293,-0.32959187030792236
0.08211631327867508,0.019344046711921692,-0.021878700703382492,0.12906722724437714,-0.03501481935381889,-0.3296106457710266
0.07888080924749374,0.020712951198220253,-0.020102793350815773,0.12519027292728424,-0.031278327107429504,-0.329632967710495
0.08209007978439331,0.018297245725989342,-0.01852181926369667,0.12928327918052673,-0.03514440730214119,-0.3296533524990082
0.07887738198041916,0.02091432549059391,-0.019625063985586166,0.1252140998840332,-0.03125647082924843,-0.32968249917030334
0.08146436512470245,0.018451035022735596,-0.018749166280031204,0.1292923092842102,-0.03514287993311882,-0.32970118522644043
0.0782058909535408,0.02083861455321312,-0.01914907805621624,0.12607258558273315,-0.031286533921957016,-0.3297252953052521
0.0813860148191452,0.01852514035999775,-0.01879134587943554,0.1301639974117279,-0.035154085606336594,-0.32974523305892944
0.07818444073200226,0.020848335698246956,-0.01911362074315548,0.1260930895805359,-0.03130923956632614,-0.3297598361968994
0.08086498826742172,0.01849507726728916,-0.018584299832582474,0.13017311692237854,-0.03518102318048477,-0.32977986335754395
0.07761228829622269,0.020851824432611465,-0.01889158971607685,0.1264062225818634,-0.03189336508512497,-0.329793781042099
0.08079931139945984,0.0185175072401762,-0.018438879400491714,0.13049641251564026,-0.03576378524303436,-0.32981523871421814
0.07760128378868103,0.020861942321062088,-0.018807068467140198,0.1264232099056244,-0.03216853365302086,-0.3298238515853882
0.07927878946065903,0.01849733293056488,-0.018332989886403084,0.13048622012138367,-0.03604235500097275,-0.3298448622226715
0.07637801021337509,0.02081962488591671,-0.01840364746749401,0.12676699459552765,-0.03261467441916466,-0.3298488259315491
0.07959762215614319,0.018574388697743416,-0.018322303891181946,0.13085481524467468,-0.036475591361522675,-0.32987484335899353
0.07640956342220306,0.020838314667344093,-0.018469884991645813,0.12677718698978424,-0.032644014805555344,-0.3298804461956024
0.07898829132318497,0.018528994172811508,-0.018118474632501602,0.1308576613664627,-0.03651284798979759,-0.32990697026252747
0.07572651654481888,0.02084156684577465,-0.01833939366042614,0.12679284811019897,-0.03276330232620239,-0.32991480827331543
0.0789087787270546,0.01854286901652813,-0.017998676747083664,0.13087770342826843,-0.03663256764411926,-0.3299320340156555
0.07571802288293839,0.020862329751253128,-0.018309922888875008,0.1268039047718048,-0.03291766718029976,-0.3299448788166046
0.07741832733154297,0.018508901819586754,-0.017843790352344513,0.13086643815040588,-0.03679199144244194,-0.3299679160118103
0.07459358870983124,0.020835325121879578,-0.017947955057024956,0.12682250142097473,-0.03333431854844093,-0.32997480034828186
0.07782049477100372,0.018582407385110855,-0.017827674746513367,0.13090461492538452,-0.037198059260845184,-0.3299981355667114
0.0746406689286232,0.020850053057074547,-0.01799672655761242,0.12683022022247314,-0.03336646780371666,-0.33001142740249634
0.07697414606809616,0.018537912517786026,-0.017641974613070488,0.1309029459953308,-0.0372370108962059,-0.3300352394580841
0.07369037717580795,0.02084672637283802,-0.0178330410271883,0.12684154510498047,-0.03354834020137787,-0.33004486560821533
0.07686285674571991,0.018559914082288742,-0.017525387927889824,0.13092949986457825,-0.03741791844367981,-0.33006876707077026
0.07367777079343796,0.02087446115911007,-0.017847051844000816,0.12685644626617432,-0.033679746091365814,-0.33008208870887756
0.07638867944478989,0.018841996788978577,-0.017438098788261414,0.1309349238872528,-0.03756257891654968,-0.330106645822525
0.0731450691819191,0.021267849951982498,-0.017872298136353493,0.12686866521835327,-0.03424316272139549,-0.3301214873790741
0.07632086426019669,0.018933527171611786,-0.017377357929944992,0.1309552937746048,-0.03811994940042496,-0.33014699816703796
0.0731377974152565,0.02127947472035885,-0.01781008020043373,0.1268826723098755,-0.03427908942103386,-0.3301602303981781
0.07498874515295029,0.01892024464905262,-0.01731792464852333,0.13075010478496552,-0.0381571389734745,-0.3301868140697479
0.07185766100883484,0.021244965493679047,-0.01747317798435688,0.12669871747493744,-0.03470543771982193,-0.33019763231277466
0.07503961771726608,0.018978796899318695,-0.01726171001791954,0.1307843029499054,-0.038573868572711945,-0.3302233815193176
0.07186351716518402,0.021268347278237343,-0.01752801425755024,0.12671105563640594,-0.03474043682217598,-0.3302391469478607
0.075034961104393,0.01895502768456936,-0.017107710242271423,0.1303635686635971,-0.03861523047089577,-0.3302655816078186
0.07186459749937057,0.021279776468873024,-0.017458327114582062,0.12628969550132751,-0.03488120809197426,-0.33028095960617065
0.07375326752662659,0.019206637516617775,-0.017038505524396896,0.12979792058467865,-0.038765475153923035,-0.33030828833580017
0.07049936056137085,0.021604403853416443,-0.017260175198316574,0.12574300169944763,-0.03574378043413162,-0.33032408356666565
0.0736619085073471,0.019328486174345016,-0.016979405656456947,0.1298294961452484,-0.0396154522895813,-0.3303506076335907
0.07048740983009338,0.02163415215909481,-0.01730697602033615,0.1257568746805191,-0.035780780017375946,-0.3303643465042114
0.07366203516721725,0.019311444833874702,-0.016857434064149857,0.12984175980091095,-0.03965775668621063,-0.33039239048957825
0.07048870623111725,0.02164759859442711,-0.01728712022304535,0.12576924264431,-0.03581934794783592,-0.3304067552089691
0.07318832725286484,0.019303377717733383,-0.016781723126769066,0.1292474865913391,-0.03969898447394371,-0.3304368257522583
0.06997127085924149,0.021627120673656464,-0.01707746833562851,0.125180184841156,-0.03592551872134209,-0.33045119047164917
0.07289578020572662,0.01932309754192829,-0.016700545325875282,0.12913337349891663,-0.03980129212141037,-0.3304770588874817
0.06969930231571198,0.021640732884407043,-0.017033854499459267,0.12506389617919922,-0.03605448827147484,-0.3304925858974457
0.07231307774782181,0.019317876547574997,-0.01660875976085663,0.1287052482366562,-0.0399312898516655,-0.3305266797542572
0.06908664852380753,0.021634206175804138,-0.016871294006705284,0.12463943660259247,-0.036365922540426254,-0.3305414021015167
0.07224371284246445,0.01933697611093521,-0.016512153670191765,0.12854421138763428,-0.04024177044630051,-0.3305683434009552
0.06907889246940613,0.02165055461227894,-0.016872476786375046,0.12447132170200348,-0.03640659898519516,-0.33058470487594604
0.07119252532720566,0.019341085106134415,-0.016421722248196602,0.12796293199062347,-0.040286846458911896,-0.3306123614311218
0.06791151314973831,0.021662520244717598,-0.01661563105881214,0.1239037737250328,-0.036867137998342514,-0.33062711358070374
0.0710599347949028,0.019390085712075233,-0.01634782925248146,0.12798987329006195,-0.04074070602655411,-0.33065465092658997
0.06789614260196686,0.02169754169881344,-0.016681477427482605,0.12391714751720428,-0.03699595108628273,-0.3303607106208801
0.07105853408575058,0.01940806396305561,-0.01620662212371826,0.12747535109519958,-0.04133647307753563,-0.32974734902381897
0.06790197640657425,0.02178656868636608,-0.01692294329404831,0.12341125309467316,-0.03758113458752632,-0.3295878469944
0.06796293705701828,0.020525172352790833,-0.01657222956418991,0.12279823422431946,-0.041504282504320145,-0.32961368560791016
0.06695617735385895,0.023085197433829308,-0.016495367512106895,0.12017136812210083,-0.03797932714223862,-0.3296109139919281
0.06722837686538696,0.021000586450099945,-0.017222175374627113,0.12417475879192352,-0.04181906580924988,-0.32966238260269165
0.06795799732208252,0.02311379462480545,-0.016402143985033035,0.12044443190097809,-0.03810317441821098,-0.32966458797454834
0.06452479958534241,0.021031493321061134,-0.017610838636755943,0.1234685629606247,-0.041931115090847015,-0.32972052693367004
0.06769143044948578,0.022577062249183655,-0.015706099569797516,0.12328077852725983,-0.03950473666191101,-0.32971471548080444
0.06438972055912018,0.02064494974911213,-0.01790883019566536,0.12094961851835251,-0.04284927621483803,-0.3297773003578186
0.0677269920706749,0.02242853306233883,-0.015835963189601898,0.12329955399036407,-0.03961630538105965,-0.3297656774520874
0.06438560783863068,0.02059190347790718,-0.01795216090977192,0.1202206090092659,-0.04264044016599655,-0.329829603433609
0.06773724406957626,0.022425716742873192,-0.015841735526919365,0.12312470376491547,-0.04010976105928421,-0.32982027530670166
0.06438170373439789,0.020583083853125572,-0.017959807068109512,0.11968187242746353,-0.04262842610478401,-0.3298843502998352
0.067682646214962,0.02243329957127571,-0.015838390216231346,0.12298639118671417,-0.04062332957983017,-0.3298783004283905
0.06431159377098083,0.020574647933244705,-0.01796777918934822,0.11937171965837479,-0.04252098500728607,-0.32994192838668823
0.0663362517952919,0.022424394264817238,-0.015853485092520714,0.12302201986312866,-0.04103291407227516,-0.3299354910850525
0.06282087415456772,0.020552806556224823,-0.017907217144966125,0.12036264687776566,-0.042742207646369934,-0.3299970030784607
0.06615239381790161,0.02243317849934101,-0.015748824924230576,0.12389271706342697,-0.04111051559448242,-0.32998543977737427
0.06277362257242203,0.020574111491441727,-0.01787750795483589,0.11980514973402023,-0.042637065052986145,-0.330047070980072
0.06615304201841354,0.022455807775259018,-0.01573219522833824,0.12374432384967804,-0.041621800512075424,-0.3300364911556244
0.06277406960725784,0.02057264931499958,-0.017880383878946304,0.11965754628181458,-0.04262719675898552,-0.330098032951355
0.06615105271339417,0.022464940324425697,-0.015725234523415565,0.12346025556325912,-0.04198010265827179,-0.3300875425338745
0.06277448683977127,0.020571226254105568,-0.01788339950144291,0.11937355995178223,-0.04266532510519028,-0.33014798164367676
0.06497364491224289,0.022453559562563896,-0.015741437673568726,0.12330593168735504,-0.04222824424505234,-0.33013996481895447
0.0614609532058239,0.02056736871600151,-0.017895299941301346,0.11984340846538544,-0.04296844080090523,-0.33019810914993286
0.064814493060112,0.022465402260422707,-0.01573062501847744,0.12393541634082794,-0.04234400764107704,-0.33018675446510315
0.061431027948856354,0.020573249086737633,-0.017889278009533882,0.11984958499670029,-0.04285307973623276,-0.3302518427371979
0.0648069828748703,0.022477302700281143,-0.015720704570412636,0.1237204298377037,-0.0425618477165699,-0.3302406668663025
0.06143055483698845,0.020578807219862938,-0.01788695715367794,0.11963400989770889,-0.043024320155382156,-0.3302983343601227
0.06471513956785202,0.022480234503746033,-0.015718815848231316,0.12336976081132889,-0.042762260884046555,-0.33028745651245117
0.06133030727505684,0.02058081328868866,-0.017887793481349945,0.11928453296422958,-0.04316297918558121,-0.330344021320343
0.06367778778076172,0.02246919274330139,-0.015734834596514702,0.12325983494520187,-0.04294249415397644,-0.33033424615859985
0.06017822027206421,0.020579040050506592,-0.017896290868520737,0.11946487426757812,-0.04342985525727272,-0.33038806915283203
0.06353668868541718,0.022482162341475487,-0.01572261191904545,0.1235547810792923,-0.043119512498378754,-0.33037570118904114
0.060295604169368744,0.02060033194720745,-0.01789083331823349,0.11946996301412582,-0.043332137167453766,-0.016291897743940353
0.05989691987633705,0.017230184748768806,-0.021383507177233696,0.12351149320602417,-0.03929194435477257,-0.016464179381728172
0.06336189806461334,0.019368786364793777,-0.024256590753793716,0.1275816708803177,-0.03546469658613205,-0.016456088051199913
0.060189515352249146,0.017359457910060883,-0.02457408979535103,0.12805703282356262,-0.03141398727893829,-0.01649748533964157
0.06346318870782852,0.019389420747756958,-0.02336517535150051,0.13190539181232452,-0.027564140036702156,-0.016505952924489975
0.06012127548456192,0.017371969297528267,-0.025732791051268578,0.12980864942073822,-0.023376744240522385,-0.016549337655305862
0.06344223022460938,0.017872868105769157,-0.023350665345788002,0.13390153646469116,-0.020374976098537445,-0.016572825610637665
0.060137368738651276,0.016654230654239655,-0.02575310878455639,0.13208793103694916,-0.021690290421247482,-0.016619276255369186
0.06346634030342102,0.018667170777916908,-0.023532235994935036,0.1357211172580719,-0.021623220294713974,-0.01662091724574566
0.06009597331285477,0.016818515956401825,-0.025678390637040138,0.13185812532901764,-0.022758254781365395,-0.0166692603379488
0.06345321238040924,0.01879655383527279,-0.024033186957240105,0.1356985867023468,-0.022575683891773224,-0.01667041704058647
0.060093775391578674,0.016867343336343765,-0.02629115991294384,0.13198986649513245,-0.023611659184098244,-0.01672070100903511
0.06345749646425247,0.018724659457802773,-0.024143772199749947,0.13573302328586578,-0.02323671616613865,-0.016719581559300423
0.060097601264715195,0.016834426671266556,-0.02632395178079605,0.1319987028837204,-0.02408687397837639,-0.016454733908176422
0.06342687457799911,0.0187925286591053,-0.02458123303949833,0.1351621299982071,-0.02388087846338749,-0.01732703484594822
0.06008516252040863,0.016758829355239868,-0.026913218200206757,0.1310926228761673,-0.019683871418237686,-0.0170153696089983
0.06327232718467712,0.018057379871606827,-0.026564566418528557,0.12720611691474915,-0.019134962931275368,-0.017008326947689056
0.06008697673678398,0.0159702617675066,-0.02732934057712555,0.12309475243091583,-0.021210938692092896,-0.016998110339045525
0.056379880756139755,0.01783221773803234,-0.025051573291420937,0.12039194256067276,-0.01857869140803814,-0.0169775802642107
0.05935148149728775,0.016055727377533913,-0.02603025734424591,0.1244916170835495,-0.022383593022823334,-0.0169640202075243
0.05622866377234459,0.018193984404206276,-0.02594415470957756,0.1204129159450531,-0.018554870039224625,-0.016953084617853165
0.05892736092209816,0.015924744307994843,-0.025549661368131638,0.12448272854089737,-0.02240539714694023,-0.016969600692391396
0.05575793609023094,0.018238060176372528,-0.02596416138112545,0.12072264403104782,-0.018552768975496292,-0.016958028078079224
0.05794065445661545,0.015912171453237534,-0.02546551264822483,0.12478289008140564,-0.022412318736314774,-0.016977135092020035
0.05472497269511223,0.01821763627231121,-0.02580832503736019,0.12200909852981567,-0.01856038346886635,-0.016964543610811234
0.057804666459560394,0.015957146883010864,-0.02551286295056343,0.1260898858308792,-0.022416535764932632,-0.016982631757855415
0.05468428134918213,0.01824895106256008,-0.0259217768907547,0.12201767414808273,-0.018566476181149483,-0.016970716416835785
0.05713872238993645,0.01590983383357525,-0.02534070424735546,0.1260804682970047,-0.02242625690996647,-0.0169902965426445
0.05395594984292984,0.018229378387331963,-0.025747420266270638,0.12309485673904419,-0.0185718797147274,-0.016977770254015923
0.057041142135858536,0.015951156616210938,-0.025375455617904663,0.12717384099960327,-0.022429978474974632,-0.01699627749621868
0.05391918495297432,0.01801646687090397,-0.02578391134738922,0.12310134619474411,-0.01857217587530613,-0.016985084861516953
0.05554797127842903,0.015594583004713058,-0.02511209435760975,0.1271490901708603,-0.022439319640398026,-0.017004093155264854
0.05279655009508133,0.017910806462168694,-0.025434723123908043,0.12470579147338867,-0.018585922196507454,-0.01699071191251278
0.05591791495680809,0.01568002812564373,-0.02534811571240425,0.12878119945526123,-0.02203289419412613,-0.01700742542743683
0.05281268432736397,0.01773548312485218,-0.025572480633854866,0.12470633536577225,-0.01818297989666462,-0.01699603721499443
0.055203668773174286,0.01536964438855648,-0.02500448375940323,0.12876839935779572,-0.021938132122159004,-0.017015384510159492
0.052005890756845474,0.01768205687403679,-0.025400321930646896,0.12491124123334885,-0.018084164708852768,-0.017003333196043968
0.05509744957089424,0.015385931357741356,-0.024923596531152725,0.12898759543895721,-0.021880654618144035,-0.017021868377923965
0.051990777254104614,0.017683207988739014,-0.025427544489502907,0.12514647841453552,-0.018025292083621025,-0.017010921612381935
0.053842052817344666,0.015322275459766388,-0.02484453283250332,0.12919780611991882,-0.021632861346006393,-0.01703096181154251
0.050693072378635406,0.017042260617017746,-0.025075895711779594,0.12687361240386963,-0.01776445284485817,-0.01701897382736206
0.05376654490828514,0.014627400785684586,-0.024705935269594193,0.13095484673976898,-0.020556548610329628,-0.017029767856001854
0.05066177621483803,0.01692141778767109,-0.02520139329135418,0.1268833726644516,-0.016704540699720383,-0.01701986789703369
0.0537681020796299,0.014578443951904774,-0.02454666793346405,0.13095612823963165,-0.020567113533616066,-0.017038099467754364
0.050662826746702194,0.016918648034334183,-0.025104470551013947,0.126885786652565,-0.016708875074982643,-0.01702752336859703
0.052653808146715164,0.014563415199518204,-0.02447722665965557,0.13093790411949158,-0.020571213215589523,-0.017046885564923286
0.04942033812403679,0.016875477507710457,-0.024825965985655785,0.12754935026168823,-0.016716502606868744,-0.017035648226737976
0.05248555541038513,0.014620725065469742,-0.024491211399435997,0.13162767887115479,-0.020574143156409264,-0.017054326832294464
0.04938459023833275,0.01691157929599285,-0.024930154904723167,0.12755616009235382,-0.01672211103141308,-0.017044195905327797
0.05248364061117172,0.014589963480830193,-0.02433592453598976,0.13162924349308014,-0.020583324134349823,-0.017063042148947716
0.04938852787017822,0.016917075961828232,-0.024869002401828766,0.12780429422855377,-0.016726046800613403,-0.01705305650830269
0.051574621349573135,0.014570621773600578,-0.024294162169098854,0.13186080753803253,-0.020228011533617973,-0.01707182265818119
0.04837717115879059,0.0165700800716877,-0.024635840207338333,0.12916700541973114,-0.016364939510822296,-0.017061341553926468
0.05143570527434349,0.01422195229679346,-0.024243734776973724,0.1332467496395111,-0.01965516060590744,-0.01707824133336544
0.04833940416574478,0.016515979543328285,-0.02472880110144615,0.12917576730251312,-0.01580197736620903,-0.017068950459361076
0.05143457278609276,0.014186766929924488,-0.02410777099430561,0.13324807584285736,-0.01966409757733345,-0.017087779939174652
0.048339929431676865,0.01651477999985218,-0.024642689153552055,0.12917782366275787,-0.015806207433342934,-0.01707780361175537
0.05037608742713928,0.014170642010867596,-0.02404101751744747,0.13323037326335907,-0.019633812829852104,-0.017097294330596924
0.04716384410858154,0.016399066895246506,-0.024395395070314407,0.1302575170993805,-0.015776831656694412,-0.017086779698729515
0.050213828682899475,0.014127685688436031,-0.024087348952889442,0.13433633744716644,-0.01929047331213951,-0.01710513047873974
0.04711748659610748,0.016148652881383896,-0.024480603635311127,0.130264014005661,-0.015431642532348633,-0.01709599792957306
0.050211649388074875,0.013753357343375683,-0.0237985011190176,0.1343366801738739,-0.019092686474323273,-0.017113545909523964
0.04712154343724251,0.016083693131804466,-0.02438153699040413,0.13026712834835052,-0.01523375604301691,-0.017104340717196465
0.04976677522063255,0.013736321590840816,-0.02374192886054516,0.13433019816875458,-0.01889050379395485,-0.01712305098772049
0.0466272234916687,0.016060395166277885,-0.02422833815217018,0.13066095113754272,-0.01503261923789978,-0.01711360551416874
0.04969736188650131,0.013766210526227951,-0.023737642914056778,0.13473495841026306,-0.01879941113293171,-0.01713263802230358
0.04661266878247261,0.016072608530521393,-0.024232350289821625,0.1307600736618042,-0.014943481422960758,-0.01712372899055481
0.04867533966898918,0.013739405199885368,-0.02367270737886429,0.1348130702972412,-0.018652480095624924,-0.017142705619335175
0.04547496885061264,0.015727749094367027,-0.02397867664694786,0.1321084350347519,-0.014789882116019726,-0.017133526504039764
0.048516515642404556,0.013396731577813625,-0.023635411635041237,0.1361875683069229,-0.017981724813580513,-0.01714826188981533
0.045433830469846725,0.015677500516176224,-0.024096235632896423,0.1321166604757309,-0.01412871666252613,-0.017139893025159836
0.04851551353931427,0.013360926881432533,-0.02350066602230072,0.1361881047487259,-0.017990808933973312,-0.01715819351375103
0.045434098690748215,0.01567726768553257,-0.024018293246626854,0.13211822509765625,-0.014132826589047909,-0.017149629071354866
0.048424821346998215,0.013360045850276947,-0.02342240884900093,0.13618764281272888,-0.017995523288846016,-0.017168249934911728
0.04533318802714348,0.015674637630581856,-0.023926470428705215,0.13211914896965027,-0.014137688092887402,-0.0171598382294178
0.04748095944523811,0.013346322812139988,-0.023372547701001167,0.1361732929944992,-0.017780371010303497,-0.01717853918671608
0.04429236054420471,0.015397559851408005,-0.023705853149294853,0.13307975232601166,-0.013918591663241386,-0.01717008277773857
0.04733505845069885,0.013078812509775162,-0.023321930319070816,0.13715702295303345,-0.017365537583827972,-0.017188018187880516
0.044258538633584976,0.01536062266677618,-0.02379145845770836,0.1330866515636444,-0.013511491008102894,-0.01718039996922016
0.04733393341302872,0.013048684224486351,-0.023208577185869217,0.13715755939483643,-0.017373787239193916,-0.017198700457811356
0.04425901174545288,0.015358434058725834,-0.023713523522019386,0.1330878883600235,-0.013515784405171871,-0.017190665006637573
0.04716869443655014,0.013043533079326153,-0.023138830438256264,0.13715562224388123,-0.017222601920366287,-0.017209187150001526
0.04407341778278351,0.015354766510426998,-0.023631080985069275,0.13308830559253693,-0.013364642858505249,-0.017201852053403854
0.04652886837720871,0.013042615726590157,-0.023090675473213196,0.13714805245399475,-0.01715242676436901,-0.017220381647348404
0.04338352009654045,0.015068858861923218,-0.023457812145352364,0.1338605433702469,-0.013289537280797958,-0.01721271499991417
0.04643106833100319,0.012723558582365513,-0.0229993537068367,0.13793572783470154,-0.016557445749640465,-0.01722962036728859
0.04336042329668999,0.015016085468232632,-0.02350054867565632,0.1338658630847931,-0.012701310217380524,-0.017222467809915543
0.04643036797642708,0.01270451582968235,-0.02291252091526985,0.137936070561409,-0.01656430959701538,-0.01724059134721756
0.04336133599281311,0.015011620707809925,-0.023417076095938683,0.13386668264865875,-0.012705877423286438,-0.017233537510037422
0.04541771858930588,0.012689885683357716,-0.022872300818562508,0.1379181146621704,-0.016477443277835846,-0.01725236512720585
0.04222913086414337,0.014875199645757675,-0.023198561742901802,0.13472223281860352,-0.012619361281394958,-0.01724468730390072
0.0452568344771862,0.012615164741873741,-0.02289867214858532,0.13879889249801636,-0.016229115426540375,-0.017262963578104973
0.042194679379463196,0.014737464487552643,-0.023287620395421982,0.13472768664360046,-0.012372318655252457,-0.017256412655115128
0.04526174068450928,0.012399830855429173,-0.022703060880303383,0.13879841566085815,-0.016098009422421455,-0.017274240031838417
0.042197562754154205,0.014701562002301216,-0.02321464568376541,0.1347292810678482,-0.012239543721079826,-0.017267681658267975
0.04526148736476898,0.012391871772706509,-0.022646375000476837,0.13879869878292084,-0.015876689925789833,-0.017286330461502075
0.042198292911052704,0.014699766412377357,-0.023159528151154518,0.13472966849803925,-0.012017861008644104,-0.017278779298067093
0.0447620265185833,0.012387351132929325,-0.022601258009672165,0.1387900412082672,-0.015783553943037987,-0.017297465354204178
0.04163861647248268,0.01468078512698412,-0.023022403940558434,0.13499979674816132,-0.011926105245947838,-0.017290953546762466
0.04468147084116936,0.012414610013365746,-0.022597968578338623,0.1390722692012787,-0.015690026804804802,-0.017309360206127167
0.04161776229739189,0.014495945535600185,-0.02301209047436714,0.135001540184021,-0.011828858405351639,-0.01730342209339142
0.044425543397665024,0.012134185060858727,-0.022414319217205048,0.13906678557395935,-0.015312615782022476,-0.017321141436696053
0.04133359342813492,0.01443549431860447,-0.022908398881554604,0.13506266474723816,-0.011453717015683651,-0.017314860597252846
0.04416520893573761,0.012142953462898731,-0.02239646576344967,0.1391289234161377,-0.01531692873686552,-0.017333172261714935
0.041083019226789474,0.014427796006202698,-0.02283528260886669,0.13530848920345306,-0.011459695175290108,-0.017327262088656425
0.04398643597960472,0.012147116474807262,-0.022381264716386795,0.13937705755233765,-0.01508375909179449,-0.01734575442969799
0.04091506823897362,0.014379141852259636,-0.02280169166624546,0.13551224768161774,-0.01122571062296629,-0.017339996993541718
0.04362154006958008,0.012083210982382298,-0.02232595905661583,0.13957667350769043,-0.014959538355469704,-0.017358381301164627
0.04052498936653137,0.01424702163785696,-0.022708088159561157,0.13580018281936646,-0.011100237257778645,-0.017352668568491936
0.04356563836336136,0.011947797611355782,-0.022251522168517113,0.13987192511558533,-0.014687729068100452,-0.017369773238897324
0.04051367938518524,0.014226894825696945,-0.022704830393195152,0.1358024626970291,-0.01083067525178194,-0.017364686354994774
0.043000414967536926,0.01192992553114891,-0.02220074273645878,0.13986124098300934,-0.014631453901529312,-0.017382550984621048
0.03987817093729973,0.01406309474259615,-0.022543633356690407,0.1362241804599762,-0.010771178640425205,-0.017377030104398727
0.04290813207626343,0.011773239821195602,-0.022146141156554222,0.140297070145607,-0.014288495294749737,-0.017394565045833588
0.03985927626490593,0.014042293652892113,-0.02257866971194744,0.13622735440731049,-0.010432302951812744,-0.017389677464962006
0.0429072380065918,0.011759638786315918,-0.022073179483413696,0.14029666781425476,-0.014294704422354698,-0.017407039180397987
0.039859820157289505,0.014039784669876099,-0.022512171417474747,0.136227548122406,-0.01043667085468769,-0.017401937395334244
0.04225151240825653,0.011745939031243324,-0.022039486095309258,0.14028465747833252,-0.014035257510840893,-0.017420314252376556
0.03911944478750229,0.013744114898145199,-0.022339824587106705,0.1367088407278061,-0.010171741247177124,-0.01741558127105236
0.04214430972933769,0.011426566168665886,-0.021927662193775177,0.14078183472156525,-0.013690494932234287,-0.01743162050843239
0.0390993133187294,0.013689981773495674,-0.02236766926944256,0.1367124766111374,-0.009834177792072296,-0.017427485436201096
0.04214351251721382,0.011405868455767632,-0.021865149959921837,0.14078140258789062,-0.013644629158079624,-0.01744479313492775
0.03910035267472267,0.013682970777153969,-0.022295191884040833,0.1367124319076538,-0.00978635810315609,-0.017440566793084145
0.04186021909117699,0.011400574818253517,-0.021827753633260727,0.14077627658843994,-0.013415944762527943,-0.017458299174904823
0.03878047317266464,0.01367358397692442,-0.022211184725165367,0.1367109715938568,-0.0095583600923419,-0.017453394830226898
0.0418134406208992,0.011417464353144169,-0.021789556369185448,0.14078111946582794,-0.013420145958662033,-0.017471449449658394
0.03877359628677368,0.013681543990969658,-0.022188903763890266,0.13671164214611053,-0.009563110768795013,-0.017467504367232323
0.04114903509616852,0.011400178074836731,-0.02175222896039486,0.14076851308345795,-0.013230807147920132,-0.01748570054769516
0.038024403154850006,0.013489906676113605,-0.022034918889403343,0.13715168833732605,-0.009370259009301662,-0.01748141646385193
0.041039664298295975,0.011215876787900925,-0.02169467695057392,0.141224667429924,-0.012995012104511261,-0.017499487847089767
0.03800276294350624,0.013464388437569141,-0.022078851237893105,0.1371549367904663,-0.009139418601989746,-0.017496146261692047
0.041038621217012405,0.011196772567927837,-0.02162855863571167,0.14122402667999268,-0.012944560497999191,-0.01751328818500042
0.03800328075885773,0.013460797257721424,-0.02202119305729866,0.13715486228466034,-0.009086772799491882,-0.01750965602695942
0.04101632162928581,0.011194193735718727,-0.021583719179034233,0.1412235051393509,-0.012723470106720924,-0.017527485266327858
0.037979431450366974,0.013460278511047363,-0.021976962685585022,0.1371544450521469,-0.008865433745086193,-0.01752384938299656
0.04035821184515953,0.011188815347850323,-0.021560147404670715,0.14121116697788239,-0.012648939155042171,-0.017541635781526566
0.037236154079437256,0.013228817842900753,-0.021810382604599,0.1374136507511139,-0.008787516504526138,-0.017538361251354218
0.0402495302259922,0.010944166220724583,-0.021457621827721596,0.14148597419261932,-0.01234032679349184,-0.017555344849824905
0.037217993289232254,0.01319145318120718,-0.021843094378709793,0.13741645216941833,-0.008484006859362125,-0.01755252107977867
0.04024871066212654,0.010927671566605568,-0.02140454202890396,0.14148513972759247,-0.01229840237647295,-0.017569255083799362
0.03721890598535538,0.01318533904850483,-0.02177867479622364,0.13741599023342133,-0.008440468460321426,-0.017566537484526634
0.04018925875425339,0.010925503447651863,-0.021366747096180916,0.14148375391960144,-0.012069853954017162,-0.017584029585123062
0.03715309873223305,0.01318310759961605,-0.02173057571053505,0.13741520047187805,-0.008211961016058922,-0.017581066116690636
0.039663564413785934,0.010924465954303741,-0.02134356088936329,0.14147450029850006,-0.012017561122775078,-0.01759856753051281
0.036566320806741714,0.013135065324604511,-0.02161519043147564,0.13746605813503265,-0.008160433731973171,-0.017595821991562843
0.03957725688815117,0.01090427115559578,-0.021306516602635384,0.1415373533964157,-0.011959422379732132,-0.01761350780725479
0.03655007854104042,0.013041415251791477,-0.021619858220219612,0.1374669373035431,-0.008100887760519981,-0.017611157149076462
0.03957604616880417,0.010758766904473305,-0.02119321934878826,0.14153602719306946,-0.011668440885841846,-0.01762850023806095
0.03655166178941727,0.013013689778745174,-0.02156994864344597,0.1374669373035431,-0.007810071110725403,-0.017625916749238968
0.039162445813417435,0.010753900744020939,-0.021175848320126534,0.1415276676416397,-0.011590632610023022,-0.017643066123127937
0.03608423471450806,0.01299614179879427,-0.021461546421051025,0.13754579424858093,-0.00773367565125227,-0.017640801146626472
0.03909263759851456,0.010774963535368443,-0.021165989339351654,0.1416165977716446,-0.011534621939063072,-0.017658395692706108
0.03606889769434929,0.012865297496318817,-0.021451255306601524,0.13754582405090332,-0.0076748887076973915,-0.017656881362199783
0.03907657042145729,0.010575859807431698,-0.021031243726611137,0.14161446690559387,-0.011187785305082798,-0.017673004418611526
0.036054108291864395,0.012826613150537014,-0.021399421617388725,0.1375456154346466,-0.00732923811301589,-0.017671585083007812
0.03843734413385391,0.010567951947450638,-0.021027663722634315,0.14160211384296417,-0.011127527803182602,-0.017688198015093803
0.03533563390374184,0.012799360789358616,-0.021264422684907913,0.1378273069858551,-0.007271106820553541,-0.017686523497104645
0.038329776376485825,0.010601680725812912,-0.021058106794953346,0.14189967513084412,-0.011077312752604485,-0.017704684287309647
0.03530970215797424,0.012619509361684322,-0.02128705009818077,0.13782796263694763,-0.00721751619130373,-0.01770329847931862
0.03832848742604256,0.010322452522814274,-0.02087709866464138,0.14189709722995758,-0.010690406896173954,-0.017719488590955734
0.03531217575073242,0.012567399069666862,-0.021236294880509377,0.1378280222415924,-0.006831776350736618,-0.017717964947223663
0.03832811862230301,0.010321707464754581,-0.020857753232121468,0.14189621806144714,-0.01061895489692688,-0.017734382301568985
0.03531359136104584,0.012560218572616577,-0.021173056215047836,0.1378268152475357,-0.006760860793292522,-0.0177331380546093
0.03784853219985962,0.010315438732504845,-0.0208438728004694,0.1418866664171219,-0.010420480743050575,-0.017750147730112076
0.03476959839463234,0.012543827295303345,-0.021073903888463974,0.1378231942653656,-0.006563697010278702,-0.017748700454831123
0.037767443805933,0.010340138338506222,-0.020828785374760628,0.1418941468000412,-0.01042416412383318,-0.01776633970439434
0.03475683555006981,0.012556788511574268,-0.021087653934955597,0.13782353699207306,-0.006568129174411297,-0.017764920368790627
0.03776607662439346,0.010331100784242153,-0.02077542617917061,0.14189279079437256,-0.010325619950890541,-0.017781727015972137
0.0347566083073616,0.012557994574308395,-0.021055681630969048,0.13782265782356262,-0.006468159146606922,-0.017780592665076256
0.03746512532234192,0.010324893519282341,-0.020749051123857498,0.14188604056835175,-0.010152357630431652,-0.01779761351644993
0.0344129353761673,0.012453191913664341,-0.02096773311495781,0.13781952857971191,-0.00629292381927371,-0.017796633765101433
0.037413835525512695,0.010214646346867085,-0.02067161165177822,0.14188973605632782,-0.010030552744865417,-0.01781361736357212
0.03440634161233902,0.012435566633939743,-0.020953122526407242,0.1378198266029358,-0.006173334550112486,-0.017813201993703842
0.03713051602244377,0.010202215984463692,-0.02064722590148449,0.14188334345817566,-0.009870273992419243,-0.01782967336475849
0.03408537805080414,0.012423194944858551,-0.020875858142971992,0.13781705498695374,-0.0060130232013762,-0.017829077318310738
0.03708186745643616,0.010218196548521519,-0.020627066493034363,0.14188715815544128,-0.009857223369181156,-0.017845990136265755
0.034075673669576645,0.012335634790360928,-0.02085387334227562,0.1378161907196045,-0.005998106673359871,-0.01784602925181389
0.03677794337272644,0.010078893043100834,-0.020540092140436172,0.14187970757484436,-0.00952130276709795,-0.017862139269709587
0.03373206779360771,0.012300224974751472,-0.020778443664312363,0.13781380653381348,-0.005663599818944931,-0.017861656844615936
0.03672616556286812,0.010095014236867428,-0.020530248060822487,0.14188390970230103,-0.009524897672235966,-0.017878323793411255
0.03372430056333542,0.01229220349341631,-0.020760133862495422,0.13781319558620453,-0.005667665041983128,-0.017878584563732147
0.036495935171842575,0.010069355368614197,-0.020490270107984543,0.1418781578540802,-0.009367626160383224,-0.017894698306918144
0.03346140682697296,0.012181783095002174,-0.020685313269495964,0.13781028985977173,-0.005507867317646742,-0.017895178869366646
0.036456428468227386,0.009947074577212334,-0.020410656929016113,0.14188027381896973,-0.009196074679493904,-0.017911015078425407
0.03345680236816406,0.01215992122888565,-0.020663876086473465,0.13781005144119263,-0.005338392686098814,-0.017911603674292564
0.036002859473228455,0.009934334084391594,-0.020398683845996857,0.14187057316303253,-0.009050372987985611,-0.01792743243277073
0.0329408161342144,0.012108022347092628,-0.020561549812555313,0.1378072053194046,-0.005192519165575504,-0.017927754670381546
0.0359249971807003,0.009913269430398941,-0.02036919817328453,0.1418784260749817,-0.009054023772478104,-0.0179445743560791
0.03292794153094292,0.01206989400088787,-0.020566822960972786,0.13780713081359863,-0.005196528509259224,-0.01794544793665409
0.03592367097735405,0.00984618254005909,-0.02030341513454914,0.14187660813331604,-0.008786380290985107,-0.017961304634809494
0.03292850777506828,0.01205762941390276,-0.020533807575702667,0.13780590891838074,-0.004928185138851404,-0.01796216517686844
0.03567668795585632,0.009845269843935966,-0.020286692306399345,0.14187046885490417,-0.008713868446648121,-0.017977531999349594
0.032647404819726944,0.012008823454380035,-0.020456036552786827,0.13780272006988525,-0.0048554944805800915,-0.017978863790631294
0.035633597522974014,0.009804506786167622,-0.020246565341949463,0.14187324047088623,-0.008572269231081009,-0.017994558438658714
0.0326412096619606,0.012004492804408073,-0.02044910006225109,0.1378021240234375,-0.0047148666344583035,-0.017995793372392654
0.03531188890337944,0.009794914163649082,-0.02022487483918667,0.14186564087867737,-0.008442814461886883,-0.01801162026822567
0.032272204756736755,0.011837768368422985,-0.02035040594637394,0.13779805600643158,-0.0045817093923687935,-0.018012702465057373
0.03525634855031967,0.009604072198271751,-0.020119110122323036,0.14186884462833405,-0.008218151517212391,-0.018028493970632553
0.032265566289424896,0.011803803965449333,-0.020338330417871475,0.1377979815006256,-0.004360290244221687,-0.018030228093266487
0.0351187065243721,0.009594134986400604,-0.020102720707654953,0.14186467230319977,-0.008088995702564716,-0.018044982105493546
0.03211062774062157,0.011793456971645355,-0.020275456830859184,0.13779543340206146,-0.004230975639075041,-0.01804671250283718
0.03495514392852783,0.009600762277841568,-0.0200901310890913,0.14186309278011322,-0.007995081134140491,-0.018062295392155647
0.03194858133792877,0.011792130768299103,-0.020241742953658104,0.13779336214065552,-0.004137717187404633,-0.01806388981640339
0.034847769886255264,0.009603973478078842,-0.020068055018782616,0.14186222851276398,-0.007897330448031425,-0.01807953231036663
0.03185063973069191,0.011793136596679688,-0.020217690616846085,0.13779157400131226,-0.004039918538182974,-0.018081272020936012
0.03459124267101288,0.009601431898772717,-0.020047849044203758,0.14185743033885956,-0.007777197752147913,-0.0180975254625082
0.031570758670568466,0.011693564243614674,-0.02015533484518528,0.13778835535049438,-0.003917585127055645,-0.018098829314112663
0.03454899415373802,0.009485731832683086,-0.019972065463662148,0.14185935258865356,-0.007607744541019201,-0.018114503473043442
0.031565312296152115,0.011674144305288792,-0.020142382010817528,0.1377878189086914,-0.0037498907186090946,-0.018116552382707596
0.03426825627684593,0.009475497528910637,-0.01995711401104927,0.14185243844985962,-0.0074758464470505714,-0.018131569027900696
0.03124661184847355,0.011661981232464314,-0.020072488114237785,0.13778434693813324,-0.00361812487244606,-0.018133394420146942
0.03421906754374504,0.009490713477134705,-0.01994560845196247,0.14185570180416107,-0.007448568008840084,-0.01814965531229973
0.031238000839948654,0.01163509301841259,-0.020067818462848663,0.13778316974639893,-0.003590433159843087,-0.018151724711060524
0.0340866856276989,0.009435795247554779,-0.019895050674676895,0.14185108244419098,-0.007210021372884512,-0.018166782334446907
0.031088637188076973,0.011621675454080105,-0.02002542093396187,0.13778086006641388,-0.0033518080599606037,-0.018168991431593895
0.03394192084670067,0.009442675858736038,-0.01988263428211212,0.1418493688106537,-0.007188505493104458,-0.018184365704655647
0.03094487264752388,0.011542044579982758,-0.019977375864982605,0.13777825236320496,-0.0033289568964391947,-0.018186474218964577
0.03378680348396301,0.009337474592030048,-0.019817685708403587,0.1418466717004776,-0.006920700427144766,-0.018201643601059914
0.030790548771619797,0.011519553139805794,-0.01994417980313301,0.13777633011341095,-0.0030624507926404476,-0.018204450607299805
0.033669114112854004,0.009342239238321781,-0.01980680227279663,0.14184534549713135,-0.006908852607011795,-0.018219023942947388
0.030680110678076744,0.011517105624079704,-0.019907746464014053,0.13777409493923187,-0.003050996223464608,-0.018221931532025337
0.03346230462193489,0.009339474141597748,-0.01979130320250988,0.14184165000915527,-0.006726962048560381,-0.018236972391605377
0.030458686873316765,0.011400233022868633,-0.019856596365571022,0.13777080178260803,-0.0028663133271038532,-0.018239999189972878
0.03342898190021515,0.009197273291647434,-0.019704049453139305,0.14184215664863586,-0.006558477878570557,-0.018254755064845085
0.030454963445663452,0.01137382909655571,-0.019834479317069054,0.1377699226140976,-0.0026999148540198803,-0.018257830291986465
0.03302657604217529,0.009185083210468292,-0.0197004321962595,0.14183296263217926,-0.006404798477888107,-0.018272317945957184
0.0299972053617239,0.011357110925018787,-0.019753675907850266,0.13776540756225586,-0.0025467723608016968,-0.018275504931807518
0.03295598179101944,0.009206291288137436,-0.01969839073717594,0.14183811843395233,-0.006407935172319412,-0.018290702253580093
0.029985086992383003,0.011336238123476505,-0.0197646114975214,0.13776439428329468,-0.002549779135733843,-0.018294254317879677
0.03295474126935005,0.009155498817563057,-0.01964167132973671,0.14183561503887177,-0.006207732018083334,-0.01830870471894741
0.02998511865735054,0.011328283697366714,-0.019741782918572426,0.13776259124279022,-0.0023488462902605534,-0.018311960622668266
0.032806362956762314,0.009153728373348713,-0.01962578482925892,0.14183078706264496,-0.006102787330746651,-0.018325835466384888
0.02981683239340782,0.0113225057721138,-0.019694384187459946,0.13775955140590668,-0.0022441574838012457,-0.018329467624425888
0.03273624926805496,0.009160531684756279,-0.019612755626440048,0.14183054864406586,-0.006001617293804884,-0.018344497308135033
0.029761623591184616,0.011263848282396793,-0.01967117190361023,0.1377573162317276,-0.002141662174835801,-0.0183480903506279
0.03241344541311264,0.009072832763195038,-0.019561750814318657,0.1418229341506958,-0.005786770023405552,-0.01836230605840683
0.02940203621983528,0.011238436214625835,-0.019610466435551643,0.13775382936000824,-0.0019281413406133652,-0.018366124480962753
0.032357968389987946,0.00908779725432396,-0.019559048116207123,0.14182643592357635,-0.0057900166139006615,-0.018380681052803993
0.029391610994935036,0.01116875745356083,-0.01959972083568573,0.13775205612182617,-0.0019299541600048542,-0.01838482730090618
0.03235674276947975,0.008978763595223427,-0.01948106661438942,0.14182353019714355,-0.005507148802280426,-0.018398582935333252
0.029392486438155174,0.011148063465952873,-0.019572854042053223,0.13775251805782318,-0.0016524088568985462,-0.018403494730591774
0.031933750957250595,0.008973083458840847,-0.019482580944895744,0.1418137550354004,-0.005429226905107498,-0.018416211009025574
0.028910601511597633,0.01113191805779934,-0.019490204751491547,0.13774870336055756,-0.0015797581290826201,-0.01842133328318596
0.03185895085334778,0.008993747644126415,-0.019483275711536407,0.1418190598487854,-0.005427006632089615,-0.018435314297676086
0.02889593318104744,0.01103969756513834,-0.019496861845254898,0.13774727284908295,-0.0015799275133758783,-0.018441030755639076
0.031857918947935104,0.008844423107802868,-0.019383978098630905,0.14181573688983917,-0.005089954473078251,-0.018453475087881088
0.028897151350975037,0.01101369597017765,-0.019467288628220558,0.13774415850639343,-0.0013054682640358806,-0.018458573147654533
0.03180503472685814,0.008844135329127312,-0.019376059994101524,0.14181265234947205,-0.004998981487005949,-0.01847120188176632
0.028838377445936203,0.011008629575371742,-0.019422726705670357,0.13773930072784424,-0.0012319883098825812,-0.018475724384188652
0.031494054943323135,0.008842192590236664,-0.019373608753085136,0.1418059766292572,-0.004834309685975313,-0.01848909817636013
0.02849334292113781,0.010999844409525394,-0.01937362737953663,0.13773520290851593,-0.0010698187397792935,-0.018494313582777977
0.031440623104572296,0.008857524022459984,-0.019366396591067314,0.14180880784988403,-0.004837386775761843,-0.01850810833275318
0.02848459780216217,0.01100770104676485,-0.019381336867809296,0.13773362338542938,-0.0010730957146734,-0.018513387069106102
0.03143935650587082,0.00884932279586792,-0.019334740936756134,0.14180618524551392,-0.0046454863622784615,-0.0185261107981205
0.02848418802022934,0.01100824773311615,-0.019366184249520302,0.13773135840892792,-0.0008799998322501779,-0.018531708046793938
0.03109382651746273,0.00884503498673439,-0.019326360896229744,0.1417974978685379,-0.004545706324279308,-0.01854444108903408
0.02808702178299427,0.010869486257433891,-0.019283471629023552,0.13772636651992798,-0.0007782676839269698,-0.01855003461241722
0.031032802537083626,0.008689478039741516,-0.019243668764829636,0.14180031418800354,-0.004357955418527126,-0.01856391504406929
0.028078684583306313,0.01084308885037899,-0.019284846261143684,0.1377256214618683,-0.0005931321647949517,-0.01856936141848564
0.03103180043399334,0.008681223727762699,-0.01922588422894478,0.14179784059524536,-0.004237115848809481,-0.018582019954919815
0.028079291805624962,0.010838575661182404,-0.019251609221100807,0.1377229243516922,-0.0004714804235845804,-0.018586991354823112
0.030757403001189232,0.008677756413817406,-0.019220462068915367,0.14179059863090515,-0.00408143037930131,-0.018599549308419228
0.027767008170485497,0.010829657316207886,-0.019200138747692108,0.13771866261959076,-0.00031670829048380256,-0.018605198711156845
0.030708549544215202,0.008692856878042221,-0.019215485081076622,0.1417931467294693,-0.004080295097082853,-0.01861855760216713
0.02775907889008522,0.01083659753203392,-0.019205261021852493,0.13771717250347137,-0.0003158682375214994,-0.018624771386384964
0.030707258731126785,0.008685204200446606,-0.019187459722161293,0.1417904496192932,-0.0038725314661860466,-0.018637238070368767
0.027758652344346046,0.010837067849934101,-0.01919238455593586,0.137714684009552,-0.00010699627455323935,-0.018642999231815338
0.03030264750123024,0.008680328726768494,-0.01918279007077217,0.14178059995174408,-0.00378569308668375,-0.018654843792319298
0.02729460783302784,0.01073700562119484,-0.019111381843686104,0.13770939409732819,-1.9427388906478882e-05,-0.018661046400666237
0.030230870470404625,0.008581598289310932,-0.019128980115056038,0.14178454875946045,-0.0036720759235322475,-0.01867525838315487
0.027283810079097748,0.010723412968218327,-0.01912604458630085,0.13770854473114014,9.230279829353094e-05,-0.018681371584534645
0.030229777097702026,0.008571506477892399,-0.01910557597875595,0.1417817920446396,-0.003528691828250885,-0.018693163990974426
0.027283992618322372,0.010720696300268173,-0.01910133846104145,0.13770581781864166,0.00023682217579334974,-0.01869909279048443
0.03022233210504055,0.008572361432015896,-0.019090110436081886,0.14177924394607544,-0.0033889722544699907,-0.01871107891201973
0.0272767823189497,0.010720210149884224,-0.01908021792769432,0.1377030909061432,0.0003767607267946005,-0.018717676401138306
0.029826948419213295,0.008567025884985924,-0.019090237095952034,0.14176972210407257,-0.003255648072808981,-0.018729576840996742
0.026825958862900734,0.010676459409296513,-0.019015558063983917,0.1376979649066925,0.0005096234381198883,-0.018736818805336952
0.029756788164377213,0.00854467786848545,-0.01907510869204998,0.14177371561527252,-0.003254835493862629,-0.018750159069895744
0.026814695447683334,0.010676192119717598,-0.01903603784739971,0.13769659399986267,0.0005094594089314342,-0.01875700242817402
0.029755573719739914,0.00853078905493021,-0.019046925008296967,0.14177079498767853,-0.0030482804868370295,-0.018769141286611557
0.026814397424459457,0.010675198398530483,-0.01902359165251255,0.13769404590129852,0.0007175017381086946,-0.018776051700115204
0.029754742980003357,0.008533281274139881,-0.01903386600315571,0.14176805317401886,-0.0029618856497108936,-0.018787743523716927
0.02681446634232998,0.010675271973013878,-0.019005559384822845,0.1376911848783493,0.0008040140382945538,-0.01879548653960228
0.02941243164241314,0.008526570163667202,-0.01903403550386429,0.14175942540168762,-0.002789912046864629,-0.018807392567396164
0.02642037905752659,0.010517219081521034,-0.018932277336716652,0.1376858502626419,0.0009784998837858438,-0.018814535811543465
0.029351728036999702,0.00834664236754179,-0.018945669755339622,0.14176158607006073,-0.0026370759587734938,-0.018827470019459724
0.026412365958094597,0.010484644211828709,-0.018931016325950623,0.13768480718135834,0.0011281711049377918,-0.018834618851542473
0.029350552707910538,0.008336035534739494,-0.01893400400876999,0.14175891876220703,-0.0024797681253403425,-0.018845606595277786
0.026413101702928543,0.010478999465703964,-0.018900714814662933,0.1376817226409912,0.0012863936135545373,-0.01885264925658703
0.029157159850001335,0.008334805257618427,-0.018931910395622253,0.14175494015216827,-0.0023546149022877216,-0.018864380195736885
0.026193395256996155,0.010472080670297146,-0.01886025443673134,0.1376776397228241,0.001414670841768384,-0.018871624022722244
0.029122043401002884,0.008345496840775013,-0.018931012600660324,0.14175648987293243,-0.002304057590663433,-0.018883828073740005
0.026187678799033165,0.010476816445589066,-0.018865006044507027,0.13767533004283905,0.0014671864919364452,-0.018891720101237297
0.028950855135917664,0.008338045328855515,-0.01891876943409443,0.14175225794315338,-0.0021490720100700855,-0.01890341192483902
0.025992609560489655,0.010471666231751442,-0.01883740723133087,0.13767150044441223,0.0016404350753873587,-0.018911128863692284
0.028919968754053116,0.008348116651177406,-0.018914837390184402,0.14175230264663696,-0.002127443440258503,-0.018923485651612282
0.02598756179213524,0.010476009920239449,-0.01883893460035324,0.13766905665397644,0.001668002107180655,-0.018930379301309586
0.02868863381445408,0.008340475149452686,-0.018904278054833412,0.1417444348335266,-0.0019681653939187527,-0.018942097201943398
0.025723330676555634,0.010469313710927963,-0.01880771480500698,0.13766495883464813,0.0018647760152816772,-0.01895013079047203
0.028647057712078094,0.00835353136062622,-0.01890326850116253,0.14174537360668182,-0.001970906276255846,-0.018962346017360687
0.025716478005051613,0.010475368238985538,-0.018815547227859497,0.1376626044511795,0.0018623839132487774,-0.018969561904668808
0.028615066781640053,0.008347904309630394,-0.018882334232330322,0.14173799753189087,-0.0018033840460702777,-0.018980424851179123
0.02568049542605877,0.010475290939211845,-0.018807552754878998,0.13765965402126312,0.002063567051663995,-0.018989499658346176
0.028324875980615616,0.008346294984221458,-0.0188833549618721,0.14173062145709991,-0.0017292650882154703,-0.019000019878149033
0.02535196579992771,0.010366078466176987,-0.018749505281448364,0.13765476644039154,0.002139334101229906,-0.01900859922170639
0.028273798525333405,0.008221999742090702,-0.018820270895957947,0.14173199236392975,-0.001541593694128096,-0.019020093604922295
0.025344738736748695,0.010345100425183773,-0.01875479333102703,0.13765324652194977,0.002325282897800207,-0.019029075279831886
0.028272943571209908,0.00821546372026205,-0.018807346001267433,0.14172907173633575,-0.0014346286188811064,-0.019038252532482147
0.025345226749777794,0.01034143753349781,-0.0187288299202919,0.13765010237693787,0.0024330508895218372,-0.019047576934099197
0.02798214741051197,0.008211296051740646,-0.01881115883588791,0.14172133803367615,-0.0012687519192695618,-0.01905749924480915
0.025013692677021027,0.01033249031752348,-0.018688086420297623,0.13764537870883942,0.002598297782242298,-0.019066624343395233
0.027929777279496193,0.00822695903480053,-0.01881648413836956,0.14172333478927612,-0.0012710137525573373,-0.019077710807323456
0.025005027651786804,0.010339813306927681,-0.018704144284129143,0.13764314353466034,0.0025959669146686792,-0.019086992368102074
0.027927225455641747,0.008219941519200802,-0.0187933761626482,0.14162509143352509,-0.0010835782159119844,-0.019096171483397484
0.02500474452972412,0.01033900398761034,-0.018686240538954735,0.1375456303358078,0.002783846575766802,-0.019104307517409325
0.027705976739525795,0.008218938484787941,-0.01878630556166172,0.14151298999786377,-0.0010094584431499243,-0.01911390945315361
0.024752089753746986,0.010307928547263145,-0.01863400824368,0.13743498921394348,0.0028583668172359467,-0.019123220816254616
0.027667207643389702,0.008196387439966202,-0.018765168264508247,0.14151012897491455,-0.0009277267381548882,-0.019133612513542175
0.024745559319853783,0.010308504104614258,-0.018647408112883568,0.13742946088314056,0.0029399849008768797,-0.019143136218190193
0.027565645053982735,0.008190048858523369,-0.018746444955468178,0.1413094848394394,-0.0007676806417293847,-0.01915285363793373
0.02463281713426113,0.010279855690896511,-0.018597250804305077,0.13722944259643555,0.0031009220983833075,-0.019162850454449654
0.027385596185922623,0.00816408358514309,-0.018726227805018425,0.14128215610980988,-0.0007204151479527354,-0.019172392785549164
0.024442173540592194,0.01026382390409708,-0.018576176837086678,0.13720299303531647,0.0031475636642426252,-0.019181761890649796
0.02735479734838009,0.008154633454978466,-0.01870930939912796,0.14119873940944672,-0.0005926595185883343,-0.019191300496459007
0.02443685010075569,0.010247169993817806,-0.018570387735962868,0.13711723685264587,0.003276175819337368,-0.019201448187232018
0.02710636705160141,0.008126068860292435,-0.01868733949959278,0.14103680849075317,-0.00046551221748813987,-0.01921134814620018
0.0241534486413002,0.010178987868130207,-0.018505262210965157,0.13695789873600006,0.0034039162565022707,-0.019220566377043724
0.027063706889748573,0.008064298890531063,-0.018648114055395126,0.14103737473487854,-0.0004026381066069007,-0.019230594858527184
0.024146679788827896,0.01017146185040474,-0.018515266478061676,0.1369558572769165,0.0034659658558666706,-0.01924036629498005
0.027018247172236443,0.008056928403675556,-0.018628664314746857,0.1408265084028244,-0.00021931261289864779,-0.01925012096762657
0.024098938331007957,0.010166528634727001,-0.01847652904689312,0.1367451399564743,0.0036498354747891426,-0.019259687513113022
0.026693928986787796,0.00805567018687725,-0.01862471178174019,0.14079870283603668,-0.00019800756126642227,-0.019268184900283813
0.02373196929693222,0.010124588385224342,-0.018432024866342545,0.13672028481960297,0.0036713064182549715,-0.019278250634670258
0.026636511087417603,0.008019465021789074,-0.018603364005684853,0.1408005952835083,-9.142863564193249e-05,-0.019288476556539536
0.023722512647509575,0.010123491287231445,-0.018455088138580322,0.13671834766864777,0.0037777526304125786,-0.019299175590276718
0.026633387431502342,0.008014106191694736,-0.01858293078839779,0.14063169062137604,4.218867979943752e-05,-0.019307700917124748
0.02372267283499241,0.010120263323187828,-0.018421931192278862,0.13654904067516327,0.003912110812962055,-0.01931804232299328
0.026499636471271515,0.00801387894898653,-0.018572716042399406,0.14052367210388184,0.0001336042769253254,-0.01932634226977825
0.023569397628307343,0.01009645126760006,-0.01838681288063526,0.13644252717494965,0.004003698006272316,-0.019336631521582603
0.026466792449355125,0.007992208935320377,-0.01854967698454857,0.14046844840049744,0.00023226707708090544,-0.019345946609973907
0.023557458072900772,0.01009485311806202,-0.018391387537121773,0.1364310085773468,0.004116734489798546,-0.019328046590089798
0.02609056420624256,0.007981640286743641,-0.018525969237089157,0.1400885283946991,0.00043029605876654387,-0.019320311024785042
0.023127656430006027,0.009946663863956928,-0.018274635076522827,0.13600820302963257,0.004303291440010071,-0.01933138445019722
0.026027781888842583,0.007826687768101692,-0.01845688745379448,0.14008976519107819,0.0004285054747015238,-0.019342903047800064
0.02311822958290577,0.009922162629663944,-0.01830234006047249,0.136006698012352,0.004298259038478136,-0.019353285431861877
0.026027480140328407,0.007809187285602093,-0.01843906193971634,0.1400863081216812,0.000607732217758894,-0.019361117854714394
0.023118523880839348,0.009917997755110264,-0.018287330865859985,0.1360035538673401,0.004479113966226578,-0.019370976835489273
0.025965426117181778,0.0078101991675794125,-0.018436675891280174,0.14008235931396484,0.0007163644768297672,-0.019378889352083206
0.023048637434840202,0.009915499947965145,-0.018267683684825897,0.1359999030828476,0.004587762989103794,-0.019389798864722252
0.025776507332921028,0.0078118029050529,-0.018440669402480125,0.1399664580821991,0.0008392252493649721,-0.01939825713634491
0.022845931351184845,0.009909814223647118,-0.018233895301818848,0.1358843743801117,0.004710116423666477,-0.01940905675292015
0.025745391845703125,0.007820327766239643,-0.01843765564262867,0.13996607065200806,0.0008544415468350053,-0.019417524337768555
0.022840429097414017,0.009915540926158428,-0.0182467270642519,0.1358817219734192,0.0047256178222596645,-0.019428230822086334
0.025583773851394653,0.007812656462192535,-0.018424997106194496,0.13978421688079834,0.001052933861501515,-0.019436504691839218
0.022658726200461388,0.009908799082040787,-0.01820646971464157,0.13570116460323334,0.004924333188682795,-0.019447442144155502
0.0255566518753767,0.007822323590517044,-0.018420638516545296,0.1397833675146103,0.0010517251212149858,-0.019455505535006523
0.022653840482234955,0.00991467759013176,-0.01821759343147278,0.13569845259189606,0.004923264961689711,-0.01946655474603176
0.02530175819993019,0.007812927477061749,-0.01841133087873459,0.139639750123024,0.0012214771704748273,-0.019474536180496216
0.022363848984241486,0.009886888787150383,-0.018171435222029686,0.13555724918842316,0.0050934432074427605,-0.01948593556880951
0.025257384404540062,0.0078001245856285095,-0.01839946024119854,0.13964025676250458,0.0012199928751215339,-0.01949380896985531
0.022356316447257996,0.009889349341392517,-0.01818898878991604,0.1355549395084381,0.005091782659292221,-0.01950472965836525
0.0252549946308136,0.007792701944708824,-0.01837923377752304,0.13952147960662842,0.0014017460634931922,-0.019512256607413292
0.022356027737259865,0.009888321161270142,-0.018173448741436005,0.13543614745140076,0.005274519324302673,-0.019524268805980682
0.024941401556134224,0.007789755240082741,-0.018381595611572266,0.13943009078502655,0.0014645005576312542,-0.019530851393938065
0.021994488313794136,0.009769710712134838,-0.018106872215867043,0.13534760475158691,0.005338872317224741,-0.01954229362308979
0.024885090067982674,0.007656734902411699,-0.018312884494662285,0.1393871307373047,0.001624949392862618,-0.019551236182451248
0.021986179053783417,0.009747723117470741,-0.01811549812555313,0.13530173897743225,0.005497577600181103,-0.01956205628812313
0.024882404133677483,0.007650088518857956,-0.018297238275408745,0.13918861746788025,0.0017426349222660065,-0.019568176940083504
0.021986979991197586,0.009741651825606823,-0.0180717334151268,0.13510257005691528,0.005616038106381893,-0.019580140709877014
0.02466757409274578,0.00764900166541338,-0.01829460635781288,0.1390840858221054,0.0018352927872911096,-0.019586844369769096
0.02174101024866104,0.009735644795000553,-0.018036672845482826,0.13499988615512848,0.005708116106688976,-0.01959838718175888
0.024629389867186546,0.007657978683710098,-0.018292587250471115,0.139084130525589,0.0018616820452734828,-0.019606154412031174
0.02173413150012493,0.00974286999553442,-0.01805807836353779,0.13499735295772552,0.005734934471547604,-0.019617684185504913
0.024610143154859543,0.007652249187231064,-0.018274929374456406,0.13893373310565948,0.0020446577109396458,-0.01962495595216751
0.021714890375733376,0.00974132027477026,-0.01803930662572384,0.134847030043602,0.005918670911341906,-0.019636793062090874
0.024271776899695396,0.007649338338524103,-0.018278826028108597,0.13886897265911102,0.0020862631499767303,-0.019642803817987442
0.021329190582036972,0.00971947517246008,-0.017993256449699402,0.13478536903858185,0.005959652364253998,-0.019654449075460434
0.024211129173636436,0.007645640522241592,-0.018274828791618347,0.1388709396123886,0.002120770514011383,-0.019663015380501747
0.021317465230822563,0.009677470661699772,-0.018017910420894623,0.1347832828760147,0.005995546467602253,-0.01967497356235981
0.02420842833817005,0.007573150563985109,-0.018221832811832428,0.13870245218276978,0.002357661258429289,-0.019681259989738464
0.02131790854036808,0.009662189520895481,-0.01799030788242817,0.13461536169052124,0.006232487969100475,-0.0196932852268219
0.024186985567212105,0.0075749121606349945,-0.018215622752904892,0.1386214941740036,0.0023904680274426937,-0.019698357209563255
0.021293530240654945,0.009660094976425171,-0.017967546358704567,0.13453420996665955,0.0062653180211782455,-0.019710620865225792
0.02387475036084652,0.00756973959505558,-0.018218230456113815,0.13844940066337585,0.0025636700447648764,-0.01971685141324997
0.02094183675944805,0.009649800136685371,-0.01791885308921337,0.13436424732208252,0.006437888368964195,-0.01972932554781437
0.02382052130997181,0.00758425984531641,-0.018222445622086525,0.13845078647136688,0.0025625128764659166,-0.01973589137196541
0.020930780097842216,0.009600065648555756,-0.0179393719881773,0.13436193764209747,0.006438401062041521,-0.019748440012335777
0.02381904609501362,0.007497893646359444,-0.018160970881581306,0.13836312294006348,0.0027378909289836884,-0.019754551351070404
0.020930955186486244,0.00958448089659214,-0.017925139516592026,0.13427534699440002,0.00661360751837492,-0.019766664132475853
0.023701705038547516,0.0074952333234250546,-0.018159428611397743,0.13820505142211914,0.0028450568206608295,-0.0197715125977993
0.020798783749341965,0.009576876647770405,-0.017881734296679497,0.13411766290664673,0.006720690988004208,-0.019783955067396164
0.023628558963537216,0.007500973530113697,-0.018160253763198853,0.13819026947021484,0.0028956534806638956,-0.019789930433034897
0.02073470875620842,0.009579788893461227,-0.017888208851218224,0.13410189747810364,0.006771364714950323,-0.019801853224635124
0.02347237430512905,0.00749761750921607,-0.018155507743358612,0.13804891705513,0.0030402853153645992,-0.01980794407427311
0.020567292347550392,0.009575522504746914,-0.017862776294350624,0.13396099209785461,0.00691615417599678,-0.019820213317871094
0.023446980863809586,0.007504694163799286,-0.018152888864278793,0.13804763555526733,0.0030424080323427916,-0.019826073199510574
0.020562639459967613,0.009580965153872967,-0.017877664417028427,0.13395817577838898,0.006918633822351694,-0.019838251173496246
0.02322455309331417,0.007495790254324675,-0.018146783113479614,0.13786576688289642,0.0032498405780643225,-0.019843611866235733
0.020308375358581543,0.009478849358856678,-0.01782136783003807,0.13377808034420013,0.007128111552447081,-0.019857345148921013
0.02318659797310829,0.007382621057331562,-0.01808602176606655,0.13786478340625763,0.0032958663068711758,-0.01986236684024334
0.020302779972553253,0.009459950029850006,-0.017827332019805908,0.13377562165260315,0.007172576151788235,-0.019873948767781258
0.02310749888420105,0.007373342756181955,-0.01807660050690174,0.13760076463222504,0.0035217159893363714,-0.01987854205071926
0.020217223092913628,0.009451217949390411,-0.017779001966118813,0.13351134955883026,0.0073990169912576675,-0.019891077652573586
0.022892696782946587,0.007377322763204575,-0.018082471564412117,0.1375955045223236,0.003521481528878212,-0.019897041842341423
0.019982172176241875,0.00944856833666563,-0.017763204872608185,0.13350710272789001,0.007398221176117659,-0.019909048452973366
0.022855177521705627,0.007382304407656193,-0.01807980053126812,0.13759516179561615,0.0035935062915086746,-0.0199151411652565
0.019975239410996437,0.009455706924200058,-0.017790427431464195,0.13350450992584229,0.0074710058979690075,-0.019927525892853737
0.022852716967463493,0.007378673646599054,-0.01806689240038395,0.13744065165519714,0.0037382422015070915,-0.019932052120566368
0.01997515559196472,0.009454413317143917,-0.017774386331439018,0.1333499252796173,0.007616417482495308,-0.019944261759519577
0.022519385442137718,0.007374012842774391,-0.018072517588734627,0.13734228909015656,0.0038133258931338787,-0.019948620349168777
0.0195919256657362,0.009401827119290829,-0.017721951007843018,0.13325440883636475,0.007691544014960527,-0.019960656762123108
0.02245936542749405,0.0073314243927598,-0.018051113933324814,0.1373436003923416,0.0038506812416017056,-0.019966576248407364
0.019581837579607964,0.009399975650012493,-0.01775144413113594,0.13325223326683044,0.007728638593107462,-0.019978826865553856
