Der-mark/objtrans/data/sim/qvel_trajectory.csv
q0,q1,q2,q3,q4,q5
0.0,0.0,0.0,0.0,0.0,0.0
0.0,0.0,0.0,0.0,0.0,0.0
0.0,0.0,0.0,0.0,0.0,0.0
-0.01119999960064888,-0.012000000104308128,0.012000000104308128,-0.012000000104308128,-0.012000000104308128,-0.012000000104308128
-0.007180783431977034,0.0,0.0,0.0,0.0,0.0
-0.011903918348252773,0.009471255354583263,-0.009471255354583263,0.009471255354583263,0.009471255354583263,0.009471255354583263
-0.016755161806941032,0.0127948559820652,-0.0127948559820652,0.0127948559820652,0.0127948559820652,0.0127948559820652
-0.020943952724337578,0.011730222031474113,-0.011730222031474113,0.011730222031474113,0.011730222031474113,0.011730222031474113
-0.025021767243742943,0.024862369522452354,-0.025469155982136726,0.025469155982136726,0.025469155982136726,0.025469155982136726
-0.02314380183815956,0.020943952724337578,-0.020943952724337578,0.020943952724337578,0.020943952724337578,0.020943952724337578
-0.021935779601335526,0.018528444692492485,-0.016430383548140526,0.016430383548140526,0.016430383548140526,0.016430383548140526
-0.031601205468177795,0.0385129377245903,-0.03801487386226654,0.03801487386226654,0.03801487386226654,0.03801487386226654
-0.02478640526533127,0.033321965485811234,-0.033321965485811234,0.033321965485811234,0.033321965485811234,0.033321965485811234
-0.018023770302534103,0.04663665220141411,-0.043385181576013565,0.043385181576013565,0.043385181576013565,0.043385181576013565
-0.027762439101934433,0.044106483459472656,-0.044106483459472656,0.044106483459472656,0.044106483459472656,0.044106483459472656
-0.022914979606866837,0.04435362666845322,-0.04435362666845322,0.04435362666845322,0.04435362666845322,0.04435362666845322
-0.036140020936727524,0.050540950149297714,-0.050540950149297714,0.050540950149297714,0.050540950149297714,0.050540950149297714
-0.04032881185412407,0.05282464623451233,-0.05282464623451233,0.05282464623451233,0.05282464623451233,0.05282464623451233
-0.04430961236357689,0.05864306911826134,-0.05864306911826134,0.05864306911826134,0.05864306911826134,0.05864306911826134
-0.04887145385146141,0.06283185631036758,-0.06362535059452057,0.06362535059452057,0.06362535059452057,0.06362535059452057
-0.060879260301589966,0.07812953740358353,-0.0771799236536026,0.07113976031541824,0.0771799236536026,0.0771799236536026
-0.05507948622107506,0.07001591473817825,-0.07001591473817825,0.06282950937747955,0.07001591473817825,0.07001591473817825
-0.05647899582982063,0.07370921224355698,-0.07085991650819778,0.05686165392398834,0.07085991650819778,0.07085991650819778
-0.0649096816778183,0.07958701997995377,-0.07958701997995377,0.05337227135896683,0.07958701997995377,0.07958701997995377
-0.06062653288245201,0.08377581089735031,-0.08377581089735031,0.05502193421125412,0.08377581089735031,0.08377581089735031
-0.06113578379154205,0.08796460181474686,-0.08796460181474686,0.05441367253661156,0.08796460181474686,0.08796460181474686
-0.0659579411149025,0.09512744098901749,-0.09512744098901749,0.04866696894168854,0.09512744098901749,0.09512744098901749
-0.06721362471580505,0.1013229638338089,-0.1013229638338089,0.035397760570049286,0.1013229638338089,0.1013229638338089
-0.0665011927485466,0.10025286674499512,-0.10025286674499512,0.040663834661245346,0.09995470941066742,0.10025286674499512
-0.06577350199222565,0.10471976548433304,-0.10512576997280121,0.03838946670293808,0.10394539684057236,0.10512576997280121
-0.06619742512702942,0.11037959158420563,-0.11037959158420563,0.032286256551742554,0.1082996129989624,0.11037959158420563
-0.06650985032320023,0.11309734731912613,-0.11309734731912613,0.03169066458940506,0.10615865886211395,0.11309734731912613
-0.06729558110237122,0.1215137466788292,-0.12286169826984406,0.025602342560887337,0.10692143440246582,0.12286169826984406
-0.0657171756029129,0.11927096545696259,-0.11927096545696259,0.025034362450242043,0.11908452212810516,0.11927096545696259
-0.06662789732217789,0.12389948964118958,-0.1262456327676773,0.022568820044398308,0.10959222912788391,0.1262456327676773
-0.06839051842689514,0.1277770847082138,-0.13309957087039948,0.02296372689306736,0.10572686046361923,0.13309957087039948
-0.06657536327838898,0.12816902995109558,-0.13410381972789764,0.018840644508600235,0.11500105261802673,0.13410381972789764
-0.0674159973859787,0.13159263134002686,-0.1382300853729248,0.016814837232232094,0.11140349507331848,0.1382300853729248
-0.06644576042890549,0.1346711367368698,-0.14547879993915558,0.012194285169243813,0.1176174059510231,0.14547879993915558
-0.06539304554462433,0.13248282670974731,-0.1484297513961792,0.014169557020068169,0.12127257883548737,0.1484297513961792
-0.06607849895954132,0.135174959897995,-0.14739097654819489,0.01134360022842884,0.11955927312374115,0.14739097654819489
-0.06475548446178436,0.1358671933412552,-0.16351795196533203,0.01168283075094223,0.12415765225887299,0.1603020876646042
-0.06506755203008652,0.13570989668369293,-0.15724493563175201,0.01161403302103281,0.12302076071500778,0.16042906045913696
-0.06667520850896835,0.13423556089401245,-0.1509719043970108,0.011687981896102428,0.1179140955209732,0.14935603737831116
-0.06444543600082397,0.13719899952411652,-0.16755156219005585,0.01010637916624546,0.12568296492099762,0.16755156219005585
-0.06622535735368729,0.13940320909023285,-0.15235386788845062,0.007109991740435362,0.1224173903465271,0.15185359120368958
-0.06385035812854767,0.1360476315021515,-0.17555618286132812,0.011905483901500702,0.12536336481571198,0.17345589399337769
-0.06305959820747375,0.13600583374500275,-0.1801179051399231,0.011774709448218346,0.1279633641242981,0.1801179051399231
-0.06188471242785454,0.13346192240715027,-0.18430669605731964,0.01590690016746521,0.12629948556423187,0.18485569953918457
-0.0633394718170166,0.14048071205615997,-0.18741494417190552,0.004697949625551701,0.1375458687543869,0.18741494417190552
-0.06161415949463844,0.1357826143503189,-0.19189533591270447,0.011551102623343468,0.13201463222503662,0.1927213817834854
-0.06167500838637352,0.1371680051088333,-0.19229838252067566,0.009566460736095905,0.13447658717632294,0.1968730390071869
-0.061242543160915375,0.1368749588727951,-0.19282563030719757,0.009887654334306717,0.1354752779006958,0.19956012070178986
-0.06006792560219765,0.13484397530555725,-0.19327710568904877,0.012479264289140701,0.13582390546798706,0.2052506059408188
-0.05952579155564308,0.13401558995246887,-0.19301290810108185,0.013069047592580318,0.1371811330318451,0.20943939685821533
-0.058756306767463684,0.1327059119939804,-0.1929544061422348,0.014582790434360504,0.13797859847545624,0.2136281579732895
-0.05809972435235977,0.1314573884010315,-0.19283664226531982,0.015890371054410934,0.13879892230033875,0.21781694889068604
-0.05778740718960762,0.1303683966398239,-0.19237136840820312,0.01669163629412651,0.1394803375005722,0.22200573980808258
-0.057407308369874954,0.1292554885149002,-0.19196148216724396,0.017590563744306564,0.1401858776807785,0.22619451582431793
-0.05680772289633751,0.1280554234981537,-0.19162617623806,0.018804607912898064,0.14096039533615112,0.23038330674171448
-0.05805128067731857,0.13052473962306976,-0.19244691729545593,0.016307426616549492,0.13938800990581512,0.2235662192106247
-0.05565164238214493,0.1255185306072235,-0.19058893620967865,0.021209167316555977,0.14253480732440948,0.23876085877418518
-0.054373472929000854,0.12256228923797607,-0.1892165094614029,0.023970799520611763,0.14441746473312378,0.2512376606464386
-0.055007386952638626,0.12473104149103165,-0.19008967280387878,0.022106099873781204,0.14401328563690186,0.24713844060897827
-0.053382519632577896,0.11884961277246475,-0.18749889731407166,0.027208205312490463,0.14477162063121796,0.25846973061561584
-0.05359933525323868,0.12062732875347137,-0.18816454708576202,0.025718433782458305,0.1451520174741745,0.25551602244377136
-0.05276104062795639,0.11697342991828918,-0.186639666557312,0.028866861015558243,0.14532336592674255,0.2597047686576843
-0.052932582795619965,0.11754444241523743,-0.18684022128582,0.028358373790979385,0.14493463933467865,0.2596605122089386
-0.05231129750609398,0.11755508929491043,-0.1860368698835373,0.028742877766489983,0.14678825438022614,0.2680823802947998
-0.0513281375169754,0.11426854133605957,-0.18438024818897247,0.03171887993812561,0.1478281468153,0.2773747444152832
-0.05161554738879204,0.1155581846833229,-0.18495935201644897,0.030621768906712532,0.14785486459732056,0.2764599621295929
-0.0506841316819191,0.11299923062324524,-0.18337297439575195,0.03284258767962456,0.14836232364177704,0.28064876794815063
-0.05014271289110184,0.1113293394446373,-0.18165451288223267,0.034765634685754776,0.1487364023923874,0.2848375737667084
-0.05014459043741226,0.11172579973936081,-0.18231463432312012,0.034165747463703156,0.14917467534542084,0.28913581371307373
-0.049631934612989426,0.11072178930044174,-0.18178941309452057,0.03501519560813904,0.15011590719223022,0.29321515560150146
-0.048857733607292175,0.10808758437633514,-0.1792292594909668,0.037894777953624725,0.15025009214878082,0.2974039614200592
-0.05084687098860741,0.11452463269233704,-0.18540315330028534,0.031083296984434128,0.14915047585964203,0.2812395393848419
-0.047980133444070816,0.10534637421369553,-0.17681658267974854,0.040523651987314224,0.15118691325187683,0.31307509541511536
-0.046544745564460754,0.10116426646709442,-0.17289312183856964,0.04492660239338875,0.15238162875175476,0.3168695569038391
-0.048613447695970535,0.10620535165071487,-0.17802202701568604,0.0391424298286438,0.15092623233795166,0.31114986538887024
-0.047328367829322815,0.10114017874002457,-0.17297732830047607,0.04442426934838295,0.15032954514026642,0.3183479607105255
-0.04752290993928909,0.09936423599720001,-0.17112241685390472,0.04568782076239586,0.14950387179851532,0.32253673672676086
-0.04785166680812836,0.09963163733482361,-0.1715957373380661,0.04498369246721268,0.1498541384935379,0.3267255425453186
-0.04766683280467987,0.09653553366661072,-0.16840238869190216,0.04795657843351364,0.14811567962169647,0.32882001996040344
-0.04788763448596001,0.09757866710424423,-0.16960816085338593,0.04667193442583084,0.14882870018482208,0.32825061678886414
-0.04767684265971184,0.09675342589616776,-0.1686263531446457,0.04773745313286781,0.14824192225933075,0.3282954692840576
-0.04821231961250305,0.09559867531061172,-0.16792446374893188,0.047766923904418945,0.1479169726371765,0.32880470156669617
-0.0485897995531559,0.09524122625589371,-0.16741454601287842,0.04793403670191765,0.14756764471530914,0.32932180166244507
-0.04887884110212326,0.09469135105609894,-0.16718320548534393,0.04778545722365379,0.14753998816013336,0.3296439051628113
-0.04850040748715401,0.09394042193889618,-0.16700176894664764,0.04812616482377052,0.1474151462316513,0.32882001996040344
-0.04826253280043602,0.09335257112979889,-0.16669577360153198,0.04851657152175903,0.14714749157428741,0.3282812535762787
-0.04860474541783333,0.0927698090672493,-0.1661188304424286,0.048665404319763184,0.14671239256858826,0.3286961317062378
-0.04897283762693405,0.09218327701091766,-0.1655787080526352,0.04875071346759796,0.1462981402873993,0.32914334535598755
-0.04876064881682396,0.09181367605924606,-0.16560350358486176,0.0488450787961483,0.14620710909366608,0.3286537230014801
-0.049282919615507126,0.09132200479507446,-0.16508804261684418,0.04886944591999054,0.14593616127967834,0.32945412397384644
-0.04878510907292366,0.0921928733587265,-0.16574467718601227,0.0487697534263134,0.14637339115142822,0.32882001996040344
-0.04917500168085098,0.09073924273252487,-0.1651340276002884,0.04889839142560959,0.14583802223205566,0.3291110098361969
-0.04927920550107956,0.08886510878801346,-0.1647319793701172,0.049089040607213974,0.14533719420433044,0.32882001996040344
-0.04920963943004608,0.09030269831418991,-0.16515883803367615,0.04881758987903595,0.14582327008247375,0.3291110098361969
-0.04988052323460579,0.08995889127254486,-0.16387683153152466,0.04914460703730583,0.14498932659626007,0.32980233430862427
-0.04895694926381111,0.0889749750494957,-0.16546382009983063,0.04887093976140022,0.14576633274555206,0.3285723030567169
-0.04849344119429588,0.08954145759344101,-0.16660244762897491,0.04838711768388748,0.1466226428747177,0.3283543884754181
-0.04879029095172882,0.08864554017782211,-0.1657269299030304,0.048871949315071106,0.14589731395244598,0.32835653424263
-0.04861469194293022,0.08948521316051483,-0.16663658618927002,0.048002541065216064,0.14662855863571167,0.32882001996040344
-0.048468559980392456,0.08888410776853561,-0.16639932990074158,0.04863898828625679,0.14628610014915466,0.32803359627723694
-0.048749830573797226,0.08855348080396652,-0.16609570384025574,0.04833197221159935,0.14620910584926605,0.32882001996040344
-0.04876407980918884,0.08814428001642227,-0.16639350354671478,0.04761335998773575,0.14656874537467957,0.32960644364356995
-0.04881039261817932,0.08840973675251007,-0.16591134667396545,0.04845944792032242,0.14602068066596985,0.32882001996040344
-0.0486534908413887,0.0878756120800972,-0.1665603667497635,0.04753410816192627,0.14667299389839172,0.32960644364356995
-0.048736706376075745,0.0881999060511589,-0.16600024700164795,0.04841208830475807,0.14604070782661438,0.32882001996040344
-0.04846792295575142,0.08752205967903137,-0.16684295237064362,0.04737555608153343,0.1468556523323059,0.32960644364356995
-0.04869541525840759,0.0880550965666771,-0.1660250574350357,0.04840855300426483,0.14598402380943298,0.32882001996040344
-0.047836754471063614,0.08698511868715286,-0.1671372950077057,0.048270680010318756,0.1464277058839798,0.32803359627723694
-0.047390613704919815,0.08599352836608887,-0.16826747357845306,0.047133058309555054,0.14740999042987823,0.32882001996040344
-0.048007428646087646,0.08653835207223892,-0.1675112396478653,0.04724477231502533,0.14711575210094452,0.32960644364356995
-0.04719071462750435,0.08561646938323975,-0.16862015426158905,0.046975404024124146,0.1475100815296173,0.32882001996040344
-0.04704536870121956,0.08554713428020477,-0.1685456931591034,0.047769054770469666,0.14705146849155426,0.32803359627723694
-0.04721939191222191,0.0855550542473793,-0.16863930225372314,0.04749235883355141,0.1475476771593094,0.32882001996040344
-0.046881355345249176,0.08520817011594772,-0.1688939929008484,0.047928906977176666,0.1471567004919052,0.32803359627723694
-0.047102898359298706,0.08538256585597992,-0.16883330047130585,0.047444261610507965,0.14771053194999695,0.32882001996040344
-0.046660684049129486,0.0848456546664238,-0.1693391650915146,0.04808272421360016,0.14746759831905365,0.32803359627723694
-0.046976055949926376,0.08517756313085556,-0.1690535992383957,0.04744981974363327,0.14784984290599823,0.32882001996040344
-0.04677553102374077,0.08436819911003113,-0.16994790732860565,0.04805689677596092,0.14876200258731842,0.32960644364356995
-0.04671074450016022,0.08466792851686478,-0.16957230865955353,0.04773494228720665,0.14810805022716522,0.32882001996040344
-0.04648412764072418,0.08389469236135483,-0.17056170105934143,0.048316698521375656,0.14919807016849518,0.32960644364356995
-0.04662333428859711,0.08450884371995926,-0.16969849169254303,0.04766673222184181,0.14814981818199158,0.32882001996040344
-0.046170808374881744,0.08337146043777466,-0.17121148109436035,0.048599161207675934,0.14965054392814636,0.32960644364356995
-0.044852130115032196,0.08134081959724426,-0.1734318882226944,0.049720752984285355,0.15048424899578094,0.32882001996040344
-0.04586844891309738,0.082877978682518,-0.17185483872890472,0.04888008534908295,0.15010923147201538,0.32960644364356995
-0.04479075223207474,0.08120108395814896,-0.1735037863254547,0.04959885776042938,0.15041275322437286,0.32882001996040344
-0.04552833363413811,0.08222811669111252,-0.17252598702907562,0.04923089221119881,0.15039996802806854,0.32960644364356995
-0.04480782896280289,0.0813266709446907,-0.17345501482486725,0.049337856471538544,0.15044155716896057,0.32882001996040344
-0.044344011694192886,0.0808810219168663,-0.17376230657100677,0.04891977086663246,0.14995278418064117,0.32803359627723694
-0.04473663493990898,0.08128046244382858,-0.1734764724969864,0.048963695764541626,0.15029332041740417,0.32882001996040344
-0.044344719499349594,0.08088010549545288,-0.17378608882427216,0.04898403212428093,0.1500135064125061,0.32803359627723694
-0.04438084363937378,0.08074664324522018,-0.17409130930900574,0.04890523850917816,0.15044590830802917,0.32882001996040344
-0.04442864656448364,0.0806313157081604,-0.17437776923179626,0.04883052036166191,0.15087738633155823,0.32960644364356995
-0.04408373683691025,0.08034709095954895,-0.17465119063854218,0.04890328273177147,0.15072205662727356,0.32882001996040344
-0.04412900283932686,0.08022905141115189,-0.1749361753463745,0.04881179705262184,0.15111558139324188,0.32960644364356995
-0.04403506591916084,0.08028031140565872,-0.17475073039531708,0.04890374839305878,0.15076903998851776,0.32882001996040344
-0.043778810650110245,0.07970865070819855,-0.175586998462677,0.04880509525537491,0.15133020281791687,0.32960644364356995
-0.044069670140743256,0.0803513377904892,-0.17469577491283417,0.04889284446835518,0.15074968338012695,0.32882001996040344
-0.043087493628263474,0.07917363196611404,-0.17618101835250854,0.048936668783426285,0.15105241537094116,0.32803359627723694
-0.04371732473373413,0.07986772805452347,-0.1753608137369156,0.04885890707373619,0.15094496309757233,0.32882001996040344
-0.042755164206027985,0.07864902913570404,-0.17684794962406158,0.04896675422787666,0.15135861933231354,0.32803359627723694
-0.04372289404273033,0.0798630341887474,-0.1753363013267517,0.04883474111557007,0.15076953172683716,0.32882001996040344
-0.042456891387701035,0.07821843773126602,-0.1774575561285019,0.04897431656718254,0.15166647732257843,0.32803359627723694
-0.04238543286919594,0.0778723731637001,-0.17793211340904236,0.04882872849702835,0.1516837626695633,0.32882001996040344
-0.04235636815428734,0.0780707597732544,-0.17769761383533478,0.04899340495467186,0.1518603414297104,0.32803359627723694
-0.04208272695541382,0.07739312201738358,-0.17857374250888824,0.048764582723379135,0.15162914991378784,0.32892948389053345
-0.04173833876848221,0.07737115770578384,-0.17892742156982422,0.04905598983168602,0.15257927775382996,0.32761523127555847
-0.04113426059484482,0.07605566084384918,-0.18067118525505066,0.048793405294418335,0.1525224894285202,0.32882001996040344
-0.04181985184550285,0.07640853524208069,-0.1795915961265564,0.04841344803571701,0.15081799030303955,0.3304431438446045
-0.04202548786997795,0.07726946473121643,-0.17858415842056274,0.04874998331069946,0.151173934340477,0.32882001996040344
-0.04143881797790527,0.07593261450529099,-0.18039308488368988,0.048364222049713135,0.1510295569896698,0.3303968906402588
-0.041139066219329834,0.075980044901371,-0.18061161041259766,0.04875423014163971,0.15212447941303253,0.32882001996040344
-0.041244570165872574,0.07541028410196304,-0.18093019723892212,0.04848093166947365,0.15114600956439972,0.3303968906402588
-0.04105526581406593,0.07597789913415909,-0.18072403967380524,0.048654574900865555,0.1520509421825409,0.32882001996040344
-0.04043809697031975,0.07546709477901459,-0.18166588246822357,0.04903794080018997,0.1531544327735901,0.3272431492805481
-0.04079333692789078,0.07543608546257019,-0.18137222528457642,0.04869528114795685,0.15217332541942596,0.32882001996040344
-0.040173571556806564,0.07484418898820877,-0.18238689005374908,0.04912489280104637,0.1531989872455597,0.3272431492805481
-0.04072635993361473,0.07535812258720398,-0.1815081089735031,0.048655956983566284,0.1520811766386032,0.32882001996040344
-0.04036422073841095,0.07373940944671631,-0.18308325111865997,0.04848847910761833,0.15125195682048798,0.3303968906402588
-0.039545923471450806,0.07274717837572098,-0.18463237583637238,0.04893824830651283,0.15242627263069153,0.32882001996040344
-0.03963460773229599,0.07384833693504333,-0.18380610644817352,0.04909948259592056,0.15343093872070312,0.3272431492805481
-0.039251215755939484,0.07225602865219116,-0.18530115485191345,0.048903752118349075,0.15241394937038422,0.32882001996040344
-0.03924785554409027,0.07300632447004318,-0.1847783476114273,0.04918672516942024,0.15338467061519623,0.3272431492805481
-0.039276279509067535,0.07245087623596191,-0.18526305258274078,0.04879855737090111,0.1523904651403427,0.32882001996040344
-0.03885332867503166,0.07308299094438553,-0.18539024889469147,0.04861648380756378,0.15322712063789368,0.3272431492805481
-0.03876611962914467,0.07262136042118073,-0.1860547810792923,0.047985851764678955,0.15211215615272522,0.32882001996040344
-0.03873203322291374,0.0728519856929779,-0.18561090528964996,0.04856231436133385,0.15318234264850616,0.3272431492805481
-0.03863077983260155,0.07209672778844833,-0.18616817891597748,0.047930967062711716,0.15164925158023834,0.32882001996040344
-0.03867340832948685,0.0710132047533989,-0.18670859932899475,0.047782622277736664,0.15039829909801483,0.3303968906402588
-0.03887069597840309,0.0701962560415268,-0.18509860336780548,0.04846343398094177,0.15015725791454315,0.32882001996040344
-0.038724057376384735,0.07053984701633453,-0.18616220355033875,0.04759865254163742,0.1495317965745926,0.3303968906402588
-0.038986559957265854,0.06950695067644119,-0.18418407440185547,0.048411618918180466,0.14914071559906006,0.3284893333911896
-0.03906654193997383,0.06906824558973312,-0.18363237380981445,0.04794684052467346,0.14780671894550323,0.3287992775440216
-0.039108339697122574,0.0689728781580925,-0.18335284292697906,0.047603387385606766,0.1470695436000824,0.3291108310222626
-0.03919122740626335,0.0683932676911354,-0.18290618062019348,0.04749826341867447,0.14619319140911102,0.3290310204029083
-0.03940395638346672,0.06780020892620087,-0.18217714130878448,0.04744715616106987,0.14520668983459473,0.3288542628288269
-0.03939705714583397,0.06749136000871658,-0.18205557763576508,0.047128766775131226,0.14439566433429718,0.32903921604156494
-0.03966865688562393,0.06759563088417053,-0.18144991993904114,0.04761679098010063,0.14489270746707916,0.3285289406776428
-0.04046512395143509,0.0626986101269722,-0.177681103348732,0.0449707917869091,0.13374853134155273,0.3291351795196533
-0.0395500622689724,0.06818309426307678,-0.18201196193695068,0.0477215014398098,0.1450415849685669,0.328617125749588
-0.03993749991059303,0.06591127812862396,-0.18024460971355438,0.046560466289520264,0.14109058678150177,0.32883721590042114
-0.040559783577919006,0.0678052231669426,-0.1789766550064087,0.04658205807209015,0.14293630421161652,0.32863494753837585
-0.04042122885584831,0.05978401377797127,-0.17803820967674255,0.04434623196721077,0.12828408181667328,0.32914289832115173
-0.04035959765315056,0.064832404255867,-0.1791098713874817,0.045879118144512177,0.13832464814186096,0.3288259208202362
-0.04185457155108452,0.06502475589513779,-0.1765187531709671,0.045835766941308975,0.13756245374679565,0.3285807967185974
-0.03576858341693878,0.06581497937440872,-0.18394531309604645,0.042227502912282944,0.13622887432575226,0.32992294430732727
-0.04187238588929176,0.06740012764930725,-0.177732914686203,0.0475352481007576,0.14322231709957123,0.3283173739910126
-0.03776322305202484,0.0647289976477623,-0.18134276568889618,0.04301922768354416,0.13488587737083435,0.32955223321914673
-0.04763227701187134,0.06015634536743164,-0.16878555715084076,0.04816386103630066,0.13091909885406494,0.3274545967578888
-0.0381883904337883,0.06397736072540283,-0.18183672428131104,0.043106257915496826,0.13432228565216064,0.329488068819046
-0.041826967149972916,0.06239691749215126,-0.17631807923316956,0.044664572924375534,0.13213315606117249,0.3287539482116699
-0.04069722443819046,0.06288310885429382,-0.17529237270355225,0.04127851128578186,0.13057857751846313,0.3296072781085968
-0.0390414297580719,0.06372085213661194,-0.18026718497276306,0.04395556077361107,0.13463500142097473,0.3292379081249237
-0.0433361642062664,0.06036854907870293,-0.1721629649400711,0.042456358671188354,0.12650847434997559,0.32910504937171936
-0.04270027577877045,0.06040618196129799,-0.17432741820812225,0.04382089152932167,0.1281808316707611,0.3289239704608917
-0.042584311217069626,0.05835357680916786,-0.1773463785648346,0.04631086438894272,0.1268959790468216,0.32842114567756653
-0.04421011358499527,0.05721564590930939,-0.1731397807598114,0.04462788999080658,0.12331611663103104,0.32865047454833984
-0.04336950555443764,0.057581909000873566,-0.17541956901550293,0.04554900899529457,0.12476703524589539,0.3285215497016907
-0.045936185866594315,0.05885927379131317,-0.1651241034269333,0.03999894857406616,0.12002110481262207,0.32931992411613464
-0.043075885623693466,0.055125851184129715,-0.1804286390542984,0.04992999508976936,0.12594115734100342,0.32797402143478394
-0.045102283358573914,0.057140886783599854,-0.17023232579231262,0.0433259941637516,0.12104269117116928,0.3288300335407257
-0.04573466256260872,0.0564107745885849,-0.16897770762443542,0.04357632249593735,0.12047743797302246,0.3288617432117462
-0.0451681986451149,0.05729955434799194,-0.1698833853006363,0.04179279878735542,0.11818413436412811,0.3288205862045288
-0.04663299396634102,0.05515933036804199,-0.16751113533973694,0.0431305468082428,0.1172553226351738,0.32881808280944824
-0.047476429492235184,0.05405022203922272,-0.1660497635602951,0.04348280653357506,0.11613739281892776,0.3288193345069885
-0.04724443703889847,0.05455181375145912,-0.16635525226593018,0.042311765253543854,0.11483631283044815,0.32881900668144226
-0.04810388386249542,0.05344249680638313,-0.16483166813850403,0.043653856962919235,0.1154215931892395,0.3288190960884094
-0.04824558645486832,0.05405382812023163,-0.16421370208263397,0.038803163915872574,0.10542121529579163,0.32882067561149597
-0.04937125742435455,0.052313800901174545,-0.16238775849342346,0.041732776910066605,0.11076127737760544,0.32882019877433777
-0.04972906410694122,0.0518096424639225,-0.1617676168680191,0.04168197512626648,0.10965006053447723,0.32881924510002136
-0.051187749952077866,0.05161910504102707,-0.15886743366718292,0.041060250252485275,0.10817600041627884,0.3288220167160034
-0.05054547265172005,0.05198432877659798,-0.16027450561523438,0.044575221836566925,0.11457004398107529,0.3288220465183258
-0.05003983899950981,0.05070000886917114,-0.16123007237911224,0.039966881275177,0.10540948808193207,0.32881778478622437
-0.05137351527810097,0.05025887489318848,-0.1586133986711502,0.03904382139444351,0.10325662791728973,0.32881954312324524
-0.05112753063440323,0.04987182095646858,-0.15928910672664642,0.039504241198301315,0.10368581861257553,0.328819215297699
-0.052448172122240067,0.04916999116539955,-0.15678749978542328,0.03894028067588806,0.10200703889131546,0.32882049679756165
-0.053176719695329666,0.049166519194841385,-0.15449322760105133,0.03512568771839142,0.09355143457651138,0.32881757616996765
-0.05339749902486801,0.04848175495862961,-0.154889315366745,0.037419240921735764,0.09869080036878586,0.3288206160068512
-0.05318506062030792,0.04947381466627121,-0.15482601523399353,0.03612654656171799,0.09752582758665085,0.328819215297699
-0.05423520877957344,0.04765404760837555,-0.15295156836509705,0.03729920834302902,0.0982438400387764,0.32882145047187805
-0.05491270124912262,0.04669824242591858,-0.15194202959537506,0.035779472440481186,0.09528450667858124,0.32882076501846313
-0.054771531373262405,0.04730214551091194,-0.15221066772937775,0.034382693469524384,0.0939445048570633,0.32882019877433777
-0.05655569210648537,0.043966833502054214,-0.14764879643917084,0.035876885056495667,0.09305372089147568,0.3288213908672333
-0.05176366865634918,0.05431080609560013,-0.16061708331108093,0.026212729513645172,0.09327486902475357,0.3288179934024811
-0.05432076007127762,0.049487266689538956,-0.14965276420116425,0.02952140010893345,0.09005151689052582,0.3288186490535736
-0.056540463119745255,0.04411167651414871,-0.1488475650548935,0.03386181592941284,0.08914145082235336,0.3288189172744751
-0.05465439334511757,0.04973714426159859,-0.15453098714351654,0.02316688932478428,0.0878838300704956,0.32882046699523926
-0.056576937437057495,0.04516386613249779,-0.14817626774311066,0.029836885631084442,0.08790366351604462,0.32881996035575867
-0.05859776958823204,0.04273977503180504,-0.13923557102680206,0.02822112664580345,0.08321321755647659,0.32881981134414673
-0.05727361887693405,0.042858682572841644,-0.14667783677577972,0.0336335189640522,0.0888640508055687,0.3288196623325348
-0.056280963122844696,0.045723240822553635,-0.1491716057062149,0.02617093175649643,0.08660314232110977,0.3288201093673706
-0.056698109954595566,0.04600252956151962,-0.14424952864646912,0.020363355055451393,0.08247487246990204,0.32882028818130493
-0.057533085346221924,0.0421779491007328,-0.1418786197900772,0.030369700863957405,0.08574359118938446,0.32881948351860046
-0.056823767721652985,0.04470457136631012,-0.1433924287557602,0.02243054285645485,0.08327590674161911,0.32882001996040344
-0.056989628821611404,0.046333424746990204,-0.14609871804714203,0.021120218560099602,0.08266384154558182,0.32882025837898254
-0.05600311607122421,0.044846948236227036,-0.14131790399551392,0.018459664657711983,0.08214559406042099,0.3288201093673706
-0.0565665028989315,0.04461054503917694,-0.14033247530460358,0.01721787266433239,0.08127912878990173,0.32882025837898254
-0.05510791763663292,0.043199680745601654,-0.13678456842899323,0.017538568004965782,0.08218786120414734,0.3288198709487915
-0.054275039583444595,0.04434167593717575,-0.13804778456687927,0.01547164935618639,0.08206084370613098,0.32882001996040344
-0.05365266650915146,0.0449548177421093,-0.13856306672096252,0.014153329655528069,0.08202847838401794,0.3288201093673706
-0.052847858518362045,0.044196538627147675,-0.13587266206741333,0.013059841468930244,0.08205940574407578,0.32882001996040344
-0.05212126672267914,0.044300567358732224,-0.13508164882659912,0.011550123803317547,0.08198029547929764,0.32882001996040344
-0.051224201917648315,0.04430413991212845,-0.1337948888540268,0.009897283278405666,0.08193865418434143,0.32882001996040344
-0.05047192424535751,0.04429776221513748,-0.1328585296869278,0.008581550791859627,0.0819554477930069,0.32882001996040344
-0.049657996743917465,0.04429968073964119,-0.13186229765415192,0.007244296371936798,0.08200895041227341,0.32882001996040344
-0.04907383769750595,0.044365040957927704,-0.1311003416776657,0.0060967630706727505,0.08196217566728592,0.32882001996040344
-0.048171836882829666,0.04428187385201454,-0.13003703951835632,0.004773699212819338,0.08209683746099472,0.32882001996040344
-0.04718786105513573,0.04428828880190849,-0.12877655029296875,0.0032381017226725817,0.08215170353651047,0.32882001996040344
-0.04636387154459953,0.044310636818408966,-0.12785395979881287,0.0020181690342724323,0.08224035054445267,0.32882001996040344
-0.04558155685663223,0.04428066313266754,-0.1265888661146164,0.0008164243190549314,0.08222980797290802,0.32882001996040344
-0.04448755085468292,0.04434407129883766,-0.12646019458770752,-0.00031007901998236775,0.08275184035301208,0.32882001996040344
-0.04138737916946411,0.04451066255569458,-0.12489491701126099,-0.004208469297736883,0.08374375849962234,0.32882001996040344
-0.04331951215863228,0.04409177601337433,-0.12150244414806366,-0.002948654582723975,0.0817795917391777,0.32882001996040344
-0.04292718693614006,0.044340748339891434,-0.12287121266126633,-0.0030357332434505224,0.0823272168636322,0.32882001996040344
-0.04139892756938934,0.044643402099609375,-0.12414466589689255,-0.004326249472796917,0.08342666178941727,0.32882001996040344
-0.040568720549345016,0.0441749133169651,-0.12075267732143402,-0.0054708183743059635,0.08305304497480392,0.32882001996040344
-0.04052206873893738,0.0439731664955616,-0.11991908401250839,-0.0055131567642092705,0.08293573558330536,0.32882001996040344
-0.039938535541296005,0.044375065714120865,-0.11932607740163803,-0.0065642232075333595,0.08277714252471924,0.32882001996040344
-0.03936084359884262,0.04384157806634903,-0.11824042350053787,-0.0064060864970088005,0.08316335827112198,0.32882001996040344
-0.03919015824794769,0.04472694545984268,-0.11835989356040955,-0.007766262628138065,0.08262812346220016,0.32882001996040344
-0.038348183035850525,0.043303608894348145,-0.11656218022108078,-0.006499523296952248,0.08363831788301468,0.32882001996040344
-0.038125816732645035,0.04475827515125275,-0.1168595403432846,-0.008652538061141968,0.08275461941957474,0.32882001996040344
-0.036879416555166245,0.044310037046670914,-0.1149572804570198,-0.00896034948527813,0.08324558287858963,0.32882001996040344
-0.03624744713306427,0.044590868055820465,-0.11392351239919662,-0.009582307189702988,0.08309813588857651,0.32882001996040344
-0.03550807386636734,0.043132226914167404,-0.1132061704993248,-0.007802002597600222,0.08455048501491547,0.32882001996040344
-0.032978735864162445,0.04330482706427574,-0.1088431254029274,-0.009412790648639202,0.08458541333675385,0.32882001996040344
-0.03852331265807152,0.0438670888543129,-0.11664755642414093,-0.0067645045928657055,0.08356240391731262,0.32882001996040344
-0.034051790833473206,0.043431106954813004,-0.11058869957923889,-0.0087834307923913,0.08441291749477386,0.32882001996040344
-0.03503161668777466,0.044255539774894714,-0.10958939045667648,-0.008298832923173904,0.08275468647480011,0.32882001996040344
-0.03332725539803505,0.045471034944057465,-0.1057879775762558,-0.010281368158757687,0.08166634291410446,0.32882001996040344
-0.036210883408784866,0.043816421180963516,-0.10832583904266357,-0.006107097025960684,0.0817575678229332,0.32882001996040344
-0.03248415142297745,0.04515274241566658,-0.10507819056510925,-0.010245230980217457,0.08229301124811172,0.32882001996040344
-0.028197718784213066,0.04558730497956276,-0.10359198600053787,-0.014293719083070755,0.08432693034410477,0.32882001996040344
-0.0306900255382061,0.04295273870229721,-0.10631020367145538,-0.0092332623898983,0.0857614129781723,0.32882001996040344
-0.03031468205153942,0.04401916638016701,-0.10425981134176254,-0.010230563580989838,0.08445468544960022,0.32882001996040344
-0.03080868534743786,0.042398691177368164,-0.10583064705133438,-0.008133805356919765,0.08591600507497787,0.32882001996040344
-0.029069706797599792,0.04482266679406166,-0.10410328209400177,-0.012387799099087715,0.08470567315816879,0.32882001996040344
-0.03019447810947895,0.04194921255111694,-0.10639399290084839,-0.008503819815814495,0.08692307770252228,0.32882001996040344
-0.028928309679031372,0.04494341462850571,-0.10273333638906479,-0.011948393657803535,0.08423972129821777,0.32882001996040344
-0.029760070145130157,0.04430776461958885,-0.09897205233573914,-0.00823946576565504,0.08275587856769562,0.32882001996040344
-0.028515944257378578,0.045740023255348206,-0.1016441062092781,-0.012855561450123787,0.08355464786291122,0.32882001996040344
-0.02953583560883999,0.044212643057107925,-0.09804627299308777,-0.007870941422879696,0.08264300972223282,0.32882001996040344
-0.029372144490480423,0.04198543354868889,-0.0991513729095459,-0.005597534589469433,0.08486030995845795,0.32882001996040344
-0.029539136216044426,0.04407503455877304,-0.09751981496810913,-0.007268207147717476,0.08257745206356049,0.32882001996040344
-0.029782017692923546,0.040937960147857666,-0.09805428981781006,-0.0035490873269736767,0.08489919453859329,0.32882001996040344
-0.02484053559601307,0.04611942917108536,-0.0990147590637207,-0.01568126305937767,0.08523837476968765,0.32882001996040344
-0.02949085459113121,0.04087937995791435,-0.09701494872570038,-0.0022134389728307724,0.08483021706342697,0.32882001996040344
-0.02483394369482994,0.045761071145534515,-0.09715141355991364,-0.014345615170896053,0.08489670604467392,0.32882001996040344
-0.029438305646181107,0.04034371301531792,-0.09617884457111359,-0.0023108345922082663,0.08510773628950119,0.32882001996040344
-0.02776389941573143,0.04220500588417053,-0.0961756780743599,-0.005733707454055548,0.08496325463056564,0.32882001996040344
-0.029657037928700447,0.04149628430604935,-0.09873379021883011,-0.004503230098634958,0.08489131182432175,0.32882001996040344
-0.022958530113101006,0.04187177121639252,-0.08469096571207047,-0.0030417449306696653,0.08508624136447906,0.32882001996040344
-0.027484498918056488,0.041677508503198624,-0.09410766512155533,-0.004095269832760096,0.08492399007081985,0.32882001996040344
-0.030103472992777824,0.04128178954124451,-0.09988467395305634,-0.00450640544295311,0.08501539379358292,0.32882001996040344
-0.02723565697669983,0.04096291586756706,-0.09257473051548004,-0.002794682513922453,0.08501558750867844,0.32882001996040344
-0.028848282992839813,0.04143773391842842,-0.09670291841030121,-0.004080542828887701,0.08487195521593094,0.32882001996040344
-0.024590423330664635,0.04296306520700455,-0.08401712030172348,-0.00266646477393806,0.08380217850208282,0.32882001996040344
-0.027045495808124542,0.041479356586933136,-0.09121478348970413,-0.0025710223708301783,0.08460342139005661,0.32882001996040344
-0.028654320165514946,0.0410819910466671,-0.09081776440143585,7.145493873395026e-05,0.08393538743257523,0.32882001996040344
-0.026981810107827187,0.03997032716870308,-0.0864221379160881,0.0023612328805029392,0.08441213518381119,0.32882001996040344
-0.026695536449551582,0.04060441255569458,-0.08927297592163086,-0.0008101526764221489,0.08477489650249481,0.32882001996040344
-0.02697419561445713,0.04065389186143875,-0.08898930996656418,-0.0003472978714853525,0.084555484354496,0.32882001996040344
-0.027258139103651047,0.040505558252334595,-0.08840455114841461,0.00045787650742568076,0.08434724807739258,0.32882001996040344
-0.027166735380887985,0.04024572670459747,-0.08782020956277847,0.0009110413957387209,0.08436711132526398,0.32882001996040344
-0.026954462751746178,0.04019910842180252,-0.08729109168052673,0.0010105740511789918,0.08436274528503418,0.32882001996040344
-0.0270861629396677,0.040030963718891144,-0.08702569454908371,0.0015398701652884483,0.08432658016681671,0.32882001996040344
-0.026866627857089043,0.0398811474442482,-0.08612927049398422,0.0018939778674393892,0.0842737928032875,0.32882001996040344
-0.027235092595219612,0.03963587060570717,-0.08670274168252945,0.002569768810644746,0.08440951257944107,0.32882001996040344
-0.026611389592289925,0.03989990055561066,-0.0851248949766159,0.0018251690780743957,0.08408311754465103,0.32882001996040344
-0.027070386335253716,0.03793022409081459,-0.0812719315290451,0.005693657789379358,0.08397950977087021,0.32882001996040344
-0.026448212563991547,0.03982699662446976,-0.0841386690735817,0.0021008809562772512,0.08392136543989182,0.32882001996040344
-0.026259567588567734,0.03885113447904587,-0.08113054186105728,0.004669627640396357,0.08376439660787582,0.32882001996040344
-0.026747537776827812,0.03878341615200043,-0.08286609500646591,0.004443803336471319,0.08400575816631317,0.32882001996040344
-0.02773202210664749,0.038084451109170914,-0.08471590280532837,0.005703877657651901,0.084385447204113,0.32882001996040344
-0.0250314399600029,0.03761827200651169,-0.07370765507221222,0.00784542690962553,0.08319634944200516,0.32882001996040344
-0.027084268629550934,0.03773901239037514,-0.0812954232096672,0.006891960743814707,0.08395854383707047,0.32882001996040344
-0.028774086385965347,0.03747798129916191,-0.08089002221822739,0.008135979995131493,0.08284488320350647,0.32882001996040344
-0.02719777636229992,0.037370048463344574,-0.08400813490152359,0.0067166551016271114,0.08495820313692093,0.32882001996040344
-0.02804093062877655,0.037282515317201614,-0.07977337390184402,0.008413144387304783,0.08309006690979004,0.32882001996040344
-0.027289848774671555,0.03697529435157776,-0.08250536024570465,0.007701379247009754,0.0846484825015068,0.32882001996040344
-0.027943789958953857,0.03706641122698784,-0.0788470208644867,0.008993963710963726,0.0829702615737915,0.32882001996040344
-0.027876541018486023,0.036579761654138565,-0.07556529343128204,0.010561461560428143,0.08224399387836456,0.32882001996040344
-0.027303870767354965,0.03566480800509453,-0.07764559239149094,0.010739912278950214,0.0838598683476448,0.32882001996040344
-0.027712292969226837,0.03549700602889061,-0.0758947804570198,0.011668973602354527,0.0831407755613327,0.32882001996040344
-0.027291273698210716,0.03451145067811012,-0.07725071907043457,0.012130144983530045,0.08447623252868652,0.32882001996040344
-0.027709616348147392,0.03607354313135147,-0.07593560218811035,0.010935598984360695,0.08278991281986237,0.32882001996040344
-0.027770020067691803,0.0342474989593029,-0.07482097297906876,0.013251805678009987,0.08356133103370667,0.32882001996040344
-0.027482831850647926,0.03468449413776398,-0.07616706937551498,0.012089059688150883,0.08392797410488129,0.32882001996040344
-0.028998004272580147,0.030268963426351547,-0.06820563226938248,0.02080605737864971,0.08320920914411545,0.32882001996040344
-0.02633390761911869,0.037724819034338,-0.08253957331180573,0.003923055715858936,0.0848233625292778,0.32882001996040344
-0.028009604662656784,0.03282427042722702,-0.07329653203487396,0.014647424221038818,0.08389589935541153,0.32882001996040344
-0.028340132907032967,0.030689425766468048,-0.06906469911336899,0.019376367330551147,0.08364129811525345,0.32882001996040344
-0.02668100781738758,0.03630572557449341,-0.08041299879550934,0.006435762625187635,0.08510008454322815,0.32882001996040344
-0.028142446652054787,0.03226669505238533,-0.07241570949554443,0.015468709170818329,0.08394601941108704,0.32882001996040344
-0.02854623645544052,0.03163308650255203,-0.07125366479158401,0.01684776321053505,0.08370941877365112,0.32882001996040344
-0.028191503137350082,0.031582966446876526,-0.07120128720998764,0.016146644949913025,0.08404097706079483,0.32882001996040344
-0.028663204982876778,0.031620174646377563,-0.07127947360277176,0.016819922253489494,0.08366400003433228,0.32882001996040344
-0.029111327603459358,0.031150376424193382,-0.07074140757322311,0.01652650721371174,0.083686962723732,0.32882001996040344
-0.02852683700621128,0.03108023665845394,-0.07029667496681213,0.016997486352920532,0.08386854082345963,0.32882001996040344
-0.02912118099629879,0.03140658512711525,-0.07108282297849655,0.016813358291983604,0.08352791517972946,0.32882001996040344
-0.029031643643975258,0.03049550950527191,-0.06949416548013687,0.016924584284424782,0.08385686576366425,0.32882001996040344
-0.028187761083245277,0.030354082584381104,-0.06902121752500534,0.016720570623874664,0.08432187139987946,0.32882001996040344
-0.029553167521953583,0.029312066733837128,-0.06762468814849854,0.017118170857429504,0.08399392664432526,0.32882001996040344
-0.030115574598312378,0.029559390619397163,-0.06818350404500961,0.017395582050085068,0.08360123634338379,0.32882001996040344
-0.02924579754471779,0.029500259086489677,-0.06777329742908478,0.0171577800065279,0.08399787545204163,0.32882001996040344
-0.02984270453453064,0.030190331861376762,-0.06911835819482803,0.017419831827282906,0.08346612006425858,0.32882001996040344
-0.029738422483205795,0.028892861679196358,-0.06691459566354752,0.01729845069348812,0.084000363945961,0.32882001996040344
-0.030264675617218018,0.02871629223227501,-0.06680731475353241,0.017461391165852547,0.08381911367177963,0.32882001996040344
-0.030121304094791412,0.02834230661392212,-0.06609693914651871,0.017338227480649948,0.08406191319227219,0.32882001996040344
-0.030576245859265327,0.028423037379980087,-0.06655462086200714,0.017611786723136902,0.08374433219432831,0.32882001996040344
-0.0315585732460022,0.027394354343414307,-0.06526612490415573,0.01785527542233467,0.08366599678993225,0.32882001996040344
-0.030935557559132576,0.0270572230219841,-0.06421103328466415,0.01724010519683361,0.08422163128852844,0.32882001996040344
-0.03068905882537365,0.02731654979288578,-0.0645318254828453,0.01690918765962124,0.08430507779121399,0.32882001996040344
-0.03127088025212288,0.026338810101151466,-0.06312274932861328,0.01732785999774933,0.08431283384561539,0.32882001996040344
-0.030188946053385735,0.02705891989171505,-0.06371001154184341,0.01670566014945507,0.08466851711273193,0.32882001996040344
-0.031639184802770615,0.026308687403798103,-0.06337331980466843,0.017062334343791008,0.0842428207397461,0.32882001996040344
-0.0304246935993433,0.026575524359941483,-0.06298046559095383,0.016521504148840904,0.08475343883037567,0.32882001996040344
-0.03195328265428543,0.025366030633449554,-0.06186608970165253,0.016688141971826553,0.0845121294260025,0.32882001996040344
-0.0306695606559515,0.026105180382728577,-0.062288831919431686,0.016383571550250053,0.0848303958773613,0.32882001996040344
-0.0322415716946125,0.02518845908343792,-0.06197246536612511,0.01688316836953163,0.08453600853681564,0.32882001996040344
-0.030851352959871292,0.02563786320388317,-0.061554744839668274,0.016077734529972076,0.08494097739458084,0.32882001996040344
-0.03252391889691353,0.025010162964463234,-0.06195159628987312,0.017039647325873375,0.08453476428985596,0.32882001996040344
-0.03151712939143181,0.025016706436872482,-0.060945190489292145,0.01598415896296501,0.08492277562618256,0.32882001996040344
-0.03269968181848526,0.024757951498031616,-0.061797428876161575,0.01716066338121891,0.08460869640111923,0.32882001996040344
-0.03397567570209503,0.023325016722083092,-0.06030717492103577,0.01694405823945999,0.08471045643091202,0.32882001996040344
-0.032811239361763,0.024264996871352196,-0.06110457330942154,0.016916079446673393,0.08479362726211548,0.32882001996040344
-0.03407713770866394,0.02302888035774231,-0.05970520153641701,0.016477229073643684,0.08480043709278107,0.32882001996040344
-0.0329158790409565,0.02421700768172741,-0.06114765256643295,0.016980376094579697,0.08476057648658752,0.32882001996040344
-0.032021790742874146,0.023706180974841118,-0.059164971113204956,0.015146611258387566,0.08533283323049545,0.32882001996040344
-0.03301567956805229,0.023913374170660973,-0.06080416589975357,0.01686984673142433,0.08486302942037582,0.32882001996040344
-0.032047439366579056,0.023471519351005554,-0.05865601822733879,0.014727319590747356,0.08544948697090149,0.32882001996040344
-0.033151835203170776,0.02255295403301716,-0.058378756046295166,0.015355030074715614,0.08545687049627304,0.32882001996040344
-0.034502867609262466,0.021229909732937813,-0.05721413344144821,0.015068179927766323,0.08557004481554031,0.32882001996040344
-0.03322295844554901,0.021930662915110588,-0.057116348296403885,0.014202050864696503,0.08575903624296188,0.32882001996040344
-0.03168586641550064,0.02301916293799877,-0.05824063718318939,0.014844669960439205,0.08583793044090271,0.32882001996040344
-0.03313133493065834,0.02182360738515854,-0.05692097172141075,0.014057116582989693,0.08583927899599075,0.32882001996040344
-0.031754955649375916,0.022777849808335304,-0.05790114030241966,0.014623160474002361,0.08594987541437149,0.32882001996040344
-0.03329283371567726,0.02159692533314228,-0.05672070011496544,0.013993887230753899,0.08589313179254532,0.32882001996040344
-0.031260762363672256,0.0212420467287302,-0.05717060714960098,0.015714839100837708,0.0869169756770134,0.32882001996040344
-0.03331734985113144,0.019335342571139336,-0.0555976927280426,0.01534076314419508,0.08701810985803604,0.32882001996040344
-0.0334215946495533,0.02093602530658245,-0.05608101189136505,0.013834037818014622,0.08616366982460022,0.32882001996040344
-0.03327152878046036,0.01930144988000393,-0.05537938326597214,0.015032706782221794,0.08700613677501678,0.32882001996040344
-0.03337984159588814,0.020974384620785713,-0.055921539664268494,0.013535013422369957,0.08614825457334518,0.32882001996040344
-0.03265460953116417,0.020438987761735916,-0.05441000312566757,0.011740061454474926,0.08673344552516937,0.32882001996040344
-0.03262794017791748,0.018226971849799156,-0.05348792299628258,0.013337844051420689,0.08784696459770203,0.32882001996040344
-0.033884111791849136,0.02009459212422371,-0.05604004114866257,0.014972572214901447,0.08635464310646057,0.32882001996040344
-0.032825957983732224,0.018600042909383774,-0.05370084196329117,0.0131533769890666,0.08758377283811569,0.32882001996040344
-0.033621273934841156,0.01985493302345276,-0.05530690774321556,0.01409784983843565,0.08654914051294327,0.32882001996040344
-0.0329430028796196,0.018529217690229416,-0.05347342789173126,0.012721567414700985,0.08762633055448532,0.32882001996040344
-0.03325023874640465,0.01946745626628399,-0.05328603461384773,0.010953007265925407,0.08702471852302551,0.32882001996040344
-0.032897669821977615,0.018123766407370567,-0.05307433009147644,0.012499704957008362,0.08791147172451019,0.32882001996040344
-0.03321531414985657,0.019035058096051216,-0.05293821170926094,0.010946884751319885,0.08726774156093597,0.32882001996040344
-0.03308786824345589,0.018022168427705765,-0.05289086326956749,0.012224100530147552,0.08791141957044601,0.32882001996040344
-0.03334309160709381,0.019029241055250168,-0.05285689979791641,0.010808202438056469,0.08717004209756851,0.32882001996040344
-0.03301755711436272,0.017860623076558113,-0.05257764831185341,0.011850069276988506,0.08805727958679199,0.32882001996040344
-0.033830419182777405,0.017734460532665253,-0.05293024703860283,0.012451963499188423,0.08773766458034515,0.32882001996040344
-0.0334579162299633,0.01786017417907715,-0.052469559013843536,0.011503320187330246,0.08785443753004074,0.32882001996040344
-0.03394731134176254,0.017664816230535507,-0.052755292505025864,0.012244741432368755,0.0876627117395401,0.32882001996040344
-0.03457578271627426,0.0181293748319149,-0.05243607610464096,0.010952543467283249,0.0869830846786499,0.32882001996040344
-0.033951401710510254,0.017893178388476372,-0.05161450430750847,0.009782726876437664,0.08749648183584213,0.32882001996040344
-0.033500686287879944,0.017176827415823936,-0.051486510783433914,0.010541273280978203,0.08818918466567993,0.32882001996040344
-0.03416614979505539,0.017807308584451675,-0.05136914551258087,0.009356629103422165,0.08743279427289963,0.32882001996040344
-0.033322446048259735,0.017002757638692856,-0.0511694997549057,0.01021032128483057,0.08838648349046707,0.32882001996040344
-0.03421979397535324,0.017652472481131554,-0.05122318118810654,0.009326694533228874,0.0874439999461174,0.32882001996040344
-0.035261888056993484,0.016980042681097984,-0.05107436329126358,0.009777246043086052,0.08715682476758957,0.32882001996040344
-0.03427647426724434,0.017883194610476494,-0.05111017823219299,0.00889207050204277,0.0872044488787651,0.32882001996040344
-0.03519761189818382,0.016774525865912437,-0.05079028382897377,0.009491984732449055,0.08730480074882507,0.32882001996040344
-0.03429015725851059,0.017795821651816368,-0.05091329291462898,0.008672617375850677,0.08719861507415771,0.32882001996040344
-0.035174623131752014,0.016545921564102173,-0.050543032586574554,0.009305543266236782,0.08743712306022644,0.32882001996040344
-0.034218188375234604,0.015207801014184952,-0.04919116944074631,0.00878145918250084,0.08859998732805252,0.32882001996040344
-0.03526134416460991,0.016361098736524582,-0.050356101244688034,0.00914582796394825,0.0874950960278511,0.32882001996040344
-0.03416901454329491,0.015262564644217491,-0.049012668430805206,0.008509346283972263,0.08849587291479111,0.32882001996040344
-0.03500205650925636,0.01650080271065235,-0.049958035349845886,0.008546764962375164,0.0873475894331932,0.32882001996040344
-0.0346795953810215,0.017748448997735977,-0.050022900104522705,0.007447500713169575,0.08659674972295761,0.32882001996040344
-0.03374522924423218,0.016553742811083794,-0.0487278513610363,0.00686752051115036,0.08762522041797638,0.32882001996040344
-0.03276032954454422,0.016237586736679077,-0.04792925342917442,0.006350480020046234,0.08808964490890503,0.32882001996040344
-0.0338381826877594,0.015236886218190193,-0.04794033616781235,0.006743505131453276,0.08842621743679047,0.32882001996040344
-0.032673709094524384,0.016243426129221916,-0.04761410132050514,0.005913387984037399,0.08798561990261078,0.32882001996040344
-0.03334234282374382,0.015421601012349129,-0.04763301461935043,0.0063356272876262665,0.08838491141796112,0.3285089433193207
-0.03256257250905037,0.01667328178882599,-0.047357507050037384,0.005151525605469942,0.08753909170627594,0.3273123502731323
-0.03183639794588089,0.0182302575558424,-0.0472356379032135,0.003929974045604467,0.0864449068903923,0.32649534940719604
-0.03291654586791992,0.016471795737743378,-0.04698289558291435,0.004511443432420492,0.08739613741636276,0.32504865527153015
-0.03507225960493088,0.016217516735196114,-0.04800953343510628,0.005128283519297838,0.08687976747751236,0.32587921619415283
-0.032922424376010895,0.017799898982048035,-0.04732157289981842,0.0038687291089445353,0.08632725477218628,0.325415700674057
-0.03412916511297226,0.011058094911277294,-0.04503333196043968,0.005490206182003021,0.0908556655049324,0.3164842128753662
-0.031738489866256714,0.01624220982193947,-0.04586641490459442,0.0036820147652179003,0.08795050531625748,0.32176095247268677
-0.03222107142210007,0.013249666430056095,-0.04496517404913902,0.0044547077268362045,0.08984526991844177,0.3195137679576874
-0.032783061265945435,0.0162569098174572,-0.045734427869319916,0.0028330455534160137,0.08719032257795334,0.32100701332092285
-0.032193053513765335,0.01604810170829296,-0.04559601843357086,0.0030160543974488974,0.08759627491235733,0.3202817440032959
-0.031578920781612396,0.015838513150811195,-0.045398812741041183,0.003117967862635851,0.08799073100090027,0.31939974427223206
-0.03183084726333618,0.016053596511483192,-0.04515797272324562,0.0024532354436814785,0.08758063614368439,0.31859567761421204
-0.03207296133041382,0.016303811222314835,-0.04488455504179001,0.0017118382966145873,0.08713044226169586,0.31771013140678406
-0.031705379486083984,0.016118811443448067,-0.044674430042505264,0.0017024721018970013,0.08739466220140457,0.3170527517795563
-0.0318828821182251,0.016192326322197914,-0.044435855001211166,0.0012012895895168185,0.0871424451470375,0.3161493241786957
-0.031144866719841957,0.015690503641963005,-0.04414592683315277,0.0015078302239999175,0.08785809576511383,0.3154160678386688
-0.03058849833905697,0.015311461873352528,-0.04329272732138634,0.0007793426630087197,0.08813975751399994,0.31268322467803955
-0.030985640361905098,0.015497623942792416,-0.04371367394924164,0.0011082508135586977,0.08794353902339935,0.31411343812942505
-0.031323209404945374,0.01568063348531723,-0.043073225766420364,-0.00012110346142435446,0.08735986053943634,0.31224679946899414
-0.03241761028766632,0.0154360830783844,-0.043695785105228424,0.0006561756017617881,0.08733613789081573,0.31456610560417175
-0.029288817197084427,0.016696380451321602,-0.04120083898305893,-0.0030948042403906584,0.0865548700094223,0.3066554665565491
-0.031488820910453796,0.015676600858569145,-0.04282999783754349,-0.0005240337341092527,0.087181456387043,0.3115342855453491
-0.03517996147274971,0.01693515107035637,-0.04222826659679413,-0.0038238479755818844,0.0839901939034462,0.31050238013267517
-0.03371212258934975,0.015132030472159386,-0.043812088668346405,0.0006528702797368169,0.08641241490840912,0.31530705094337463
-0.03211958706378937,0.01556248776614666,-0.042040493339300156,-0.0017794545274227858,0.08667254447937012,0.30945396423339844
-0.03344253823161125,0.015442408621311188,-0.04223483055830002,-0.0018670809222385287,0.08612344413995743,0.3085486888885498
-0.031503207981586456,0.016035012900829315,-0.04242740198969841,-0.0014471791218966246,0.08676452934741974,0.3118390142917633
-0.036955710500478745,0.01430636178702116,-0.04059679061174393,-0.00423421710729599,0.0846678614616394,0.2996726930141449
-0.033773671835660934,0.015362370759248734,-0.04066237434744835,-0.004093205090612173,0.08540046215057373,0.30670633912086487
-0.031204137951135635,0.01631763204932213,-0.04088333621621132,-0.0038090809248387814,0.0858859270811081,0.30612871050834656
-0.03418764844536781,0.01500213798135519,-0.04173176735639572,-0.0024633281864225864,0.08615578711032867,0.3099345564842224
-0.034001853317022324,0.01516011729836464,-0.04072112217545509,-0.003888981882482767,0.08555297553539276,0.305888831615448
-0.03349495679140091,0.015407969243824482,-0.04045763984322548,-0.004293912090361118,0.08543341606855392,0.3049905300140381
-0.03256193548440933,0.01563665270805359,-0.0401630699634552,-0.0046696653589606285,0.08554519712924957,0.3037629723548889
-0.03341555595397949,0.015391306020319462,-0.04045915603637695,-0.004287823103368282,0.08548132330179214,0.30457568168640137
-0.033889226615428925,0.015131588093936443,-0.04022440314292908,-0.004441405180841684,0.08540502190589905,0.30511990189552307
-0.03409477323293686,0.015225428156554699,-0.04058022052049637,-0.004205206409096718,0.08535057306289673,0.3050915002822876
-0.034151285886764526,0.014977003447711468,-0.04001267999410629,-0.004755389876663685,0.08530262112617493,0.3041546046733856
-0.03335856273770332,0.015185042284429073,-0.040146227926015854,-0.004506049212068319,0.08554700016975403,0.30339494347572327
-0.03588246554136276,0.013834224082529545,-0.03863650932908058,-0.0062263645231723785,0.08491688221693039,0.302730917930603
-0.03402099758386612,0.013729681260883808,-0.03799937292933464,-0.006519664078950882,0.08535460382699966,0.3003585636615753
-0.03497994691133499,0.01427406631410122,-0.03930541127920151,-0.005415482446551323,0.08523894846439362,0.3029715120792389
-0.03432006388902664,0.01451530959457159,-0.03979402035474777,-0.00476128188893199,0.0855330228805542,0.3030160963535309
-0.035657256841659546,0.014247904531657696,-0.03962060064077377,-0.005226326175034046,0.0850861594080925,0.30423980951309204
-0.03411245346069336,0.014259230345487595,-0.03918641433119774,-0.005350419785827398,0.08559909462928772,0.30110520124435425
-0.036910731345415115,0.012883337214589119,-0.03841459006071091,-0.006550985854119062,0.08524350821971893,0.3005093038082123
-0.02899659425020218,0.016862202435731888,-0.039850011467933655,-0.003512017196044326,0.08680614084005356,0.29829490184783936
-0.03511209040880203,0.013986035250127316,-0.0392666831612587,-0.00544658862054348,0.08542709797620773,0.30202391743659973
-0.029243890196084976,0.016132380813360214,-0.039734840393066406,-0.00400923565030098,0.08634917438030243,0.2997662425041199
-0.036650314927101135,0.014454799704253674,-0.04038519784808159,-0.005003734026104212,0.08482081443071365,0.306614488363266
-0.03852197527885437,0.011240367777645588,-0.03755611926317215,-0.007662006188184023,0.08566231280565262,0.2983956038951874
-0.03627338260412216,0.013990108855068684,-0.03992560878396034,-0.005460476502776146,0.08524239808320999,0.30334925651550293
-0.031661197543144226,0.016888167709112167,-0.041556645184755325,-0.003456244245171547,0.08543495088815689,0.30283117294311523
-0.03130491450428963,0.014345538802444935,-0.038224343210458755,-0.00598473846912384,0.08641069382429123,0.29708132147789
-0.03422919288277626,0.012617578729987144,-0.03735148161649704,-0.007225553970783949,0.08626925200223923,0.2932600975036621
-0.03505991771817207,0.01200487744063139,-0.036901701241731644,-0.007667422294616699,0.08623618632555008,0.2914048433303833
-0.03713145852088928,0.012165769003331661,-0.0384930782020092,-0.007182787172496319,0.08594566583633423,0.2979150116443634
-0.03702813386917114,0.012421900406479836,-0.038048725575208664,-0.007349277380853891,0.08550061285495758,0.29882726073265076
-0.037785157561302185,0.011399016715586185,-0.03904682397842407,-0.007439685054123402,0.08673825860023499,0.29572901129722595
-0.03574792295694351,0.012435746379196644,-0.03651967644691467,-0.007931184954941273,0.08527803421020508,0.2951875329017639
-0.03660810366272926,0.011248594149947166,-0.038132939487695694,-0.007837429642677307,0.08696231245994568,0.29212257266044617
-0.03567469120025635,0.010390003211796284,-0.03731098026037216,-0.00891871191561222,0.08784543722867966,0.28873512148857117
-0.035944629460573196,0.011507394723594189,-0.036028001457452774,-0.009239920414984226,0.08589243143796921,0.2937549352645874
-0.03776809945702553,0.011630859225988388,-0.03786217421293259,-0.00834878534078598,0.08591139316558838,0.29596179723739624
-0.036871057003736496,0.01143238227814436,-0.03638583794236183,-0.009639924392104149,0.08576016873121262,0.295068621635437
-0.0363336056470871,0.01131757628172636,-0.03729426488280296,-0.008095038123428822,0.08658703416585922,0.29191914200782776
-0.03583843633532524,0.00873521901667118,-0.03582073748111725,-0.011718858033418655,0.08877917379140854,0.2802705466747284
-0.03648765757679939,0.010596700944006443,-0.03698945790529251,-0.009209035895764828,0.08713033050298691,0.2891782224178314
-0.03655693307518959,0.010790801607072353,-0.037092678248882294,-0.00897067692130804,0.08694817870855331,0.2901870608329773
-0.048110201954841614,0.009825498796999454,-0.04362083226442337,-0.013051161542534828,0.08642797917127609,0.3029620945453644
-0.03866619989275932,0.01014785561710596,-0.03781554475426674,-0.010501332581043243,0.08710412681102753,0.2901870608329773
-0.03774258866906166,0.010012469254434109,-0.03707719221711159,-0.010575761087238789,0.08726322650909424,0.28844210505485535
-0.033521801233291626,0.009074295870959759,-0.03291604295372963,-0.011957613751292229,0.08822001516819,0.2853486239910126
-0.04211968928575516,0.01082213781774044,-0.042314909398555756,-0.009405500255525112,0.08620811253786087,0.28931838274002075
-0.03742464259266853,0.00970113929361105,-0.036531008780002594,-0.011076758615672588,0.087470643222332,0.28735652565956116
-0.03872033953666687,0.01083582267165184,-0.03928326442837715,-0.00892530009150505,0.0869813784956932,0.2881373465061188
-0.038766343146562576,0.007732016034424305,-0.03518848493695259,-0.014374728314578533,0.08811771869659424,0.28560879826545715
-0.035854995250701904,0.00699034845456481,-0.03235922381281853,-0.015327289700508118,0.08885640650987625,0.281277596950531
-0.0382237508893013,0.008711489848792553,-0.03633604571223259,-0.012445610016584396,0.08791830390691757,0.282315194606781
-0.03413673862814903,0.011115813627839088,-0.03519914671778679,-0.007464712485671043,0.08645374327898026,0.27706512808799744
-0.04038968309760094,0.01034667156636715,-0.04029496759176254,-0.009808406233787537,0.08725158125162125,0.2843500077724457
-0.030433036386966705,0.005775355733931065,-0.024345191195607185,-0.015777576714754105,0.08870227634906769,0.2711024284362793
-0.04046816751360893,0.008755575865507126,-0.03817717358469963,-0.012148252688348293,0.08777356892824173,0.2906284034252167
-0.03989647701382637,0.008681443519890308,-0.03810862824320793,-0.012258979491889477,0.08807619661092758,0.2832232117652893
-0.04023400694131851,0.0091938441619277,-0.036272481083869934,-0.010664045810699463,0.08597730845212936,0.28457239270210266
-0.03604521229863167,0.007488441187888384,-0.03236384689807892,-0.013500398024916649,0.08824897557497025,0.28132250905036926
-0.03262526914477348,0.005973362363874912,-0.029841169714927673,-0.016131065785884857,0.09046191722154617,0.2768729329109192
-0.042540695518255234,0.00999439600855112,-0.04045146331191063,-0.007793133612722158,0.08484197407960892,0.26882869005203247
-0.03650616481900215,0.007556921802461147,-0.033379945904016495,-0.01304711028933525,0.0880439281463623,0.27608853578567505
-0.03402799367904663,0.006540745962411165,-0.030618365854024887,-0.015266993083059788,0.08934913575649261,0.2787235677242279
-0.038870565593242645,0.00657406821846962,-0.03492850065231323,-0.014196915552020073,0.08880544453859329,0.27782654762268066
-0.04270127788186073,0.006945169996470213,-0.038192298263311386,-0.012696654535830021,0.08776036649942398,0.27558860182762146
-0.03644632175564766,0.007963606156408787,-0.03244959935545921,-0.011632947251200676,0.08654368668794632,0.2709319293498993
-0.041186921298503876,0.0025784927420318127,-0.0358438603579998,-0.02019328996539116,0.09293149411678314,0.2723163366317749
-0.027544204145669937,0.012567779049277306,-0.024668080732226372,-0.0031536344904452562,0.08068987727165222,0.2633984386920929
-0.0375506617128849,0.006576872430741787,-0.03295007348060608,-0.0135699063539505,0.08818677812814713,0.272733598947525
-0.033912286162376404,0.008712136186659336,-0.03011394664645195,-0.01032148115336895,0.0855497345328331,0.26906704902648926
-0.04017249494791031,0.006590082310140133,-0.03283670172095299,-0.013002227060496807,0.08790794759988785,0.27004700899124146
-0.027149975299835205,0.005642409902065992,-0.026167379692196846,-0.015454443171620369,0.08794156461954117,0.26747336983680725
-0.03734710067510605,0.0062682307325303555,-0.03249158710241318,-0.013419301249086857,0.08817453682422638,0.2733996510505676
-0.04098698869347572,0.005720104090869427,-0.033914025872945786,-0.013372211717069149,0.08885221928358078,0.26984894275665283
-0.035913899540901184,0.00688792672008276,-0.03105851449072361,-0.013283754698932171,0.08652771264314651,0.2739688456058502
-0.03709975257515907,0.0027948273345828056,-0.02984980307519436,-0.016228891909122467,0.092308908700943,0.26153209805488586
-0.036608874797821045,0.004746144637465477,-0.030422070994973183,-0.014803715981543064,0.08935359120368958,0.26559123396873474
-0.035065680742263794,0.00379998330026865,-0.02911960519850254,-0.015365030616521835,0.0910695418715477,0.26024752855300903
-0.04005453735589981,0.004094633739441633,-0.031752072274684906,-0.015042527578771114,0.08977987617254257,0.2692035436630249
-0.028134888038039207,0.0065171015448868275,-0.027405371889472008,-0.013531762175261974,0.08618194609880447,0.2633044719696045
-0.0371093675494194,0.005324620753526688,-0.03033057413995266,-0.014075127430260181,0.08766911923885345,0.26938697695732117
-0.0339430533349514,0.005011359695345163,-0.028230827301740646,-0.014598121866583824,0.08805287629365921,0.2653047740459442
-0.03684908524155617,0.005435200873762369,-0.030424492433667183,-0.013941126875579357,0.08755725622177124,0.26949357986450195
-0.030601859092712402,0.003992758225649595,-0.025308458134531975,-0.015634072944521904,0.08920182287693024,0.26109567284584045
-0.03596021607518196,0.00716392882168293,-0.03110429458320141,-0.013076866045594215,0.08556906133890152,0.27139830589294434
-0.034181416034698486,0.002664185594767332,-0.026422636583447456,-0.015906142070889473,0.09040899574756622,0.25340041518211365
-0.03707639500498772,0.005922265816479921,-0.030258122831583023,-0.013160760514438152,0.0863821730017662,0.2706025242805481
-0.03340984880924225,0.00380728580057621,-0.026918454095721245,-0.015495543368160725,0.08913645893335342,0.26008152961730957
-0.042181242257356644,0.0063598561100661755,-0.03295240178704262,-0.011391706764698029,0.08457570523023605,0.27309876680374146
-0.033002037554979324,0.0037612388841807842,-0.026451250538229942,-0.015494951978325844,0.08905351907014847,0.26008152961730957
-0.03528393432497978,0.004571034573018551,-0.028352780267596245,-0.014322580769658089,0.08778083324432373,0.26425305008888245
-0.03256399184465408,0.002897798316553235,-0.025359246879816055,-0.016028033569455147,0.08953831344842911,0.25773411989212036
-0.04076375439763069,0.006518953945487738,-0.031896840780973434,-0.01154238823801279,0.08460491895675659,0.2686730921268463
-0.03327186033129692,0.003283743280917406,-0.025904221460223198,-0.015550201758742332,0.08897674083709717,0.2563404440879822
-0.03468117490410805,0.003814935917034745,-0.026756171137094498,-0.014484759420156479,0.08797746896743774,0.26033252477645874
-0.03510566055774689,0.003935085143893957,-0.026976829394698143,-0.014117402024567127,0.08767006546258926,0.25976672768592834
-0.03445496782660484,0.003411366604268551,-0.026379220187664032,-0.014418518170714378,0.08820411562919617,0.2544647455215454
-0.032316312193870544,0.0025759637355804443,-0.025126799941062927,-0.015751080587506294,0.08970377594232559,0.25560346245765686
-0.03347669169306755,0.0031698737293481827,-0.025071527808904648,-0.015398253686726093,0.08826746791601181,0.25552377104759216
-0.031902968883514404,0.0024502475280314684,-0.025012770667672157,-0.015793396160006523,0.09000757336616516,0.25758910179138184
-0.03240886330604553,0.003122247289866209,-0.02366780862212181,-0.01639324426651001,0.08813070505857468,0.25277823209762573
-0.034902386367321014,0.004056020174175501,-0.026079095900058746,-0.012456701137125492,0.08661138266324997,0.25601863861083984
-0.02677842415869236,0.0005722090718336403,-0.02155229076743126,-0.01935121789574623,0.09306171536445618,0.2514990568161011
-0.04425445944070816,0.007951284758746624,-0.031247902661561966,-0.003995809704065323,0.07985015958547592,0.2659488916397095
-0.027767498046159744,0.00027006000163964927,-0.021541139110922813,-0.01948443055152893,0.09290456026792526,0.2456474006175995
-0.028470776975154877,0.0013206721050664783,-0.02214921824634075,-0.01770947128534317,0.0914643406867981,0.2537938356399536
-0.03143983334302902,0.0018690461292862892,-0.023649193346500397,-0.015433598309755325,0.08975418657064438,0.25137123465538025
-0.027066700160503387,-0.005227583926171064,-0.01903916522860527,-0.026258205994963646,0.09867872297763824,0.24303315579891205
-0.031200360506772995,0.003200704464688897,-0.02381221391260624,-0.013505928218364716,0.08818770200014114,0.2540104389190674
-0.030383802950382233,0.0025728088803589344,-0.02319706603884697,-0.015686994418501854,0.0893150120973587,0.2535071074962616
-0.03001006506383419,0.004342060536146164,-0.023653974756598473,-0.013195646926760674,0.08740095049142838,0.25756001472473145
-0.03027583844959736,0.00433426583185792,-0.023733315989375114,-0.010714254342019558,0.08678938448429108,0.25486889481544495
-0.03116704151034355,0.0016022573690861464,-0.02290651760995388,-0.01203120220452547,0.0889577642083168,0.2504964768886566
-0.03060753457248211,0.002460282761603594,-0.02291872911155224,-0.011831426993012428,0.08829128742218018,0.24919065833091736
-0.029352368786931038,0.0032404495868831873,-0.02238970622420311,-0.013695763424038887,0.08814205229282379,0.24961507320404053
-0.02923152595758438,0.003011218272149563,-0.02263035997748375,-0.013672647066414356,0.08859743922948837,0.25102367997169495
-0.029601432383060455,0.0033195086289197206,-0.02242816984653473,-0.012717687524855137,0.08777512609958649,0.24931533634662628
-0.02762484923005104,0.0028086870443075895,-0.022124033421278,-0.014835000038146973,0.08950947225093842,0.2507197856903076
-0.028506575152277946,0.0009380765841342509,-0.0224708691239357,-0.012904604896903038,0.09086728096008301,0.2519357204437256
-0.029246820136904716,0.007562888786196709,-0.021740693598985672,-0.013109786435961723,0.08315134793519974,0.24191394448280334
-0.028350669890642166,0.00236358935944736,-0.021601494401693344,-0.012384755536913872,0.091253861784935,0.24758662283420563
-0.027733854949474335,0.0018905089236795902,-0.021125296130776405,-0.013475225307047367,0.089420847594738,0.24685139954090118
-0.029237408190965652,0.002568746916949749,-0.023459918797016144,-0.010431158356368542,0.08903197944164276,0.25104019045829773
-0.03314243257045746,0.003270684042945504,-0.028570212423801422,-0.005143568851053715,0.08897893875837326,0.2572705149650574
-0.0229839775711298,0.0017244875198230147,-0.016056407243013382,-0.016972579061985016,0.08899464458227158,0.24110083281993866
-0.027204366400837898,0.001922638388350606,-0.02079824171960354,-0.012810254469513893,0.08931880444288254,0.24543462693691254
-0.02607732079923153,0.001168275368399918,-0.01863505132496357,-0.0154260927811265,0.08968193084001541,0.24091507494449615
-0.026940852403640747,0.003271982539445162,-0.022637372836470604,-0.010711190290749073,0.08861174434423447,0.24597078561782837
-0.026167716830968857,-0.00013086592662148178,-0.018636459484696388,-0.011117829009890556,0.09080982953310013,0.25617897510528564
-0.026424016803503036,0.004477064590901136,-0.023756032809615135,-0.009449977427721024,0.08790481090545654,0.24792294204235077
-0.02716340497136116,0.0011477458756417036,-0.020873013883829117,-0.01101539097726345,0.0900399461388588,0.24755296111106873
-0.021500637754797935,0.0029094440396875143,-0.017124665901064873,-0.016811780631542206,0.08897976577281952,0.23490020632743835
-0.027193143963813782,0.0011865482665598392,-0.021266311407089233,-0.010171359404921532,0.09003334492444992,0.24784746766090393
-0.019811900332570076,0.0036213481798768044,-0.016800925135612488,-0.01614086702466011,0.08858180791139603,0.23519472777843475
-0.02573162131011486,0.0034606882836669683,-0.022935757413506508,-0.007509690709412098,0.08879513293504715,0.2483547180891037
-0.03271450474858284,0.010475048795342445,-0.03897819668054581,0.013738613575696945,0.08492139726877213,0.27210551500320435
-0.026588542386889458,0.004634573124349117,-0.025522151961922646,-0.004097322002053261,0.08820091187953949,0.24785633385181427
-0.0241434033960104,0.0021836194209754467,-0.019999470561742783,-0.0113918362185359,0.08957646787166595,0.24416592717170715
-0.02597770467400551,-0.00020482169929891825,-0.017704609781503677,-0.017656216397881508,0.09105043858289719,0.24208487570285797
-0.030604662373661995,-0.011498688720166683,-0.0038696585688740015,-0.029067721217870712,0.09784908592700958,0.23013629019260406
-0.021921833977103233,0.005701598711311817,-0.024586476385593414,-0.002079225378111005,0.08756087720394135,0.24864007532596588
-0.02221519500017166,0.0033034421503543854,-0.021273009479045868,-0.010290729813277721,0.08920564502477646,0.24576765298843384
-0.021659988909959793,0.004256889224052429,-0.021995393559336662,-0.007384381256997585,0.08927109092473984,0.24850738048553467
-0.023993365466594696,0.0012129107490181923,-0.01919710636138916,-0.010951844975352287,0.09020552039146423,0.24431860446929932
-0.023961246013641357,0.000735810084734112,-0.018604997545480728,-0.01142432726919651,0.09038310497999191,0.2423560917377472
-0.02472156099975109,0.0007386612123809755,-0.01883668452501297,-0.011947656981647015,0.09036809951066971,0.24095739424228668
-0.019322630017995834,0.0025122128427028656,-0.019406316801905632,-0.0066649653017520905,0.08989640325307846,0.24246548116207123
-0.02233233116567135,0.0026493053883314133,-0.01967933215200901,-0.012217960320413113,0.09024111926555634,0.23778697848320007
-0.019155843183398247,0.0009722752147354186,-0.018796749413013458,-0.002103472827002406,0.08986639231443405,0.25391310453414917
-0.023000825196504593,0.0021810855250805616,-0.01998334564268589,-0.009466116316616535,0.08980696648359299,0.24624226987361908
-0.02231406792998314,0.0018448906484991312,-0.019697509706020355,-0.007868491113185883,0.08976522088050842,0.2477847933769226
-0.021592626348137856,0.0012898030690848827,-0.017903609201312065,-0.011740275658667088,0.09037826210260391,0.24263282120227814
-0.02122371271252632,0.0008960085106082261,-0.016650505363941193,-0.014652824960649014,0.09078684449195862,0.23928415775299072
-0.0209890715777874,0.001121815643273294,-0.01790270023047924,-0.010632508434355259,0.09070894122123718,0.23720738291740417
-0.02091090939939022,0.0017337173921987414,-0.018568826839327812,-0.009825978428125381,0.09035377949476242,0.24284343421459198
-0.019903214648365974,0.0036867531016469,-0.021619809791445732,-0.0028226920403540134,0.08944365382194519,0.2542674243450165
-0.02095211111009121,0.002446564845740795,-0.019841227680444717,-0.007193982135504484,0.08990810811519623,0.24818605184555054
-0.019981948658823967,0.0019110349239781499,-0.018867041915655136,-0.007725321222096682,0.09037672728300095,0.2420629858970642
-0.01964976079761982,0.0002535050152800977,-0.016228841617703438,-0.011768106371164322,0.09130950272083282,0.23691071569919586
-0.022670535370707512,0.0020695349667221308,-0.01927051693201065,-0.010172417387366295,0.08971837908029556,0.23602259159088135
-0.018872909247875214,-0.0010933182202279568,-0.01404920406639576,-0.014375487342476845,0.09213989228010178,0.24146820604801178
-0.01798788271844387,0.0018035370158031583,-0.018433261662721634,-0.005789820104837418,0.09073209017515182,0.24895963072776794
-0.023079294711351395,0.0038304890040308237,-0.02258893847465515,-0.0032114607747644186,0.08868026733398438,0.2466912716627121
-0.014881426468491554,0.002111844951286912,-0.017366142943501472,-0.006771680898964405,0.09115301817655563,0.24996910989284515
-0.024191780015826225,0.00245108874514699,-0.021089401096105576,-0.00602535717189312,0.08914517611265182,0.24170953035354614
-0.019659332931041718,0.0022151379380375147,-0.019401876255869865,-0.005666282959282398,0.09018172323703766,0.2448977828025818
-0.019378071650862694,0.001742697088047862,-0.017989013344049454,-0.0088790412992239,0.0904066264629364,0.2395193725824356
-0.018808113411068916,-0.00047138589434325695,-0.016072921454906464,-0.007923624478280544,0.0917278602719307,0.23738139867782593
-0.018707361072301865,-0.000608421687502414,-0.01639881171286106,-0.005932592321187258,0.09181202203035355,0.24002712965011597
-0.018761228770017624,0.0072291214019060135,-0.02313227578997612,-0.004828362725675106,0.08737963438034058,0.2531719207763672
-0.01877518929541111,0.002714411122724414,-0.019460754469037056,-0.004548334050923586,0.08985849469900131,0.24842187762260437
-0.01876833103597164,-0.0011040904792025685,-0.016765225678682327,-0.002624006476253271,0.0920393168926239,0.2468608021736145
-0.01774471625685692,-0.00019609862647484988,-0.014226787723600864,-0.013429038226604462,0.0917283222079277,0.23853793740272522
-0.01823515258729458,0.0002870510797947645,-0.01624036580324173,-0.008493393659591675,0.09130285680294037,0.23946630954742432
-0.018279138952493668,0.0014937336090952158,-0.016757536679506302,-0.010400998406112194,0.09046768397092819,0.2408752739429474
-0.015448647551238537,0.006791329476982355,-0.024314744397997856,0.00803790520876646,0.08820664137601852,0.2508617043495178
-0.018971076235175133,-0.00025750152417458594,-0.015206451527774334,-0.012113464996218681,0.09127184748649597,0.24560779333114624
-0.017634470015764236,0.001265466446056962,-0.017052991315722466,-0.0030842868145555258,0.09073227643966675,0.24536944925785065
-0.022512128576636314,-0.0032859297934919596,-0.012478937394917011,-0.016349714249372482,0.09218107163906097,0.2370675504207611
-0.016375083476305008,0.0016928642289713025,-0.01711536943912506,-0.005549553316086531,0.09072941541671753,0.24221695959568024
-0.01753031276166439,0.001772897900082171,-0.017796818166971207,-0.005361937452107668,0.09037810564041138,0.24244177341461182
-0.011738243512809277,0.005108832847326994,-0.019486354663968086,0.003388871205970645,0.08951625227928162,0.2549970746040344
-0.019216293469071388,0.000837578671053052,-0.01739099621772766,-0.006659886334091425,0.09052705764770508,0.24195238947868347
-0.011499700136482716,0.004241242539137602,-0.01828351803123951,0.0016446164809167385,0.08986103534698486,0.2502135634422302
-0.018010379746556282,0.0007053520530462265,-0.01643667370080948,-0.007986802607774734,0.09085582941770554,0.24123261868953705
-0.018218355253338814,0.0007424810901284218,-0.01664659008383751,-0.004484496545046568,0.0906914472579956,0.2415531575679779
-0.015743473544716835,0.002497580833733082,-0.01795724593102932,-0.0021056844852864742,0.09002380818128586,0.2419639378786087
-0.016132721677422523,0.0022259685210883617,-0.01746838539838791,-0.0046111843548715115,0.09026234596967697,0.24758867919445038
-0.017354950308799744,0.0018585227662697434,-0.017580166459083557,-0.0030305658001452684,0.08982182294130325,0.25203511118888855
-0.01576211489737034,0.0027487953193485737,-0.018440086394548416,-0.001919921487569809,0.09002456814050674,0.24016347527503967
-0.015988651663064957,0.0015658962074667215,-0.01666323095560074,-0.004560947418212891,0.09041030704975128,0.24358294904232025
-0.015668701380491257,-0.0008849136647768319,-0.013126814737915993,-0.011094608344137669,0.09185205399990082,0.23109638690948486
-0.01655570976436138,0.0023573897778987885,-0.017951175570487976,-0.0027284680400043726,0.08968575298786163,0.24358294904232025
-0.0159757100045681,0.0032462982926517725,-0.018704738467931747,5.211644747760147e-06,0.08916671574115753,0.2537442445755005
-0.017929358407855034,0.008090443909168243,-0.025820795446634293,0.005215616896748543,0.08618681877851486,0.24150556325912476
-0.01617032289505005,0.0019960375502705574,-0.017220916226506233,-0.0026587338652461767,0.08981864154338837,0.24754978716373444
-0.014747819863259792,-0.0030001970008015633,-0.010085996240377426,-0.011294093914330006,0.09292227029800415,0.24394699931144714
-0.016960982233285904,0.0007463463116437197,-0.01629396714270115,-0.00025288810138590634,0.09028361737728119,0.2429971843957901
-0.015714749693870544,0.0024064655881375074,-0.017305225133895874,-0.00401158444583416,0.08955835551023483,0.2433408796787262
-0.016637135297060013,0.005198253784328699,-0.021670026704669,0.0020376015454530716,0.08778402954339981,0.2559036314487457
-0.016384348273277283,0.0022772608790546656,-0.01749861240386963,-0.00232705008238554,0.08932780474424362,0.24846158921718597
-0.015917139127850533,0.003261395264416933,-0.01871878281235695,-0.0005995656247250736,0.08893381804227829,0.25038447976112366
-0.015959657728672028,-0.00013150082668289542,-0.014126325026154518,-0.006907766684889793,0.09090469777584076,0.24394342303276062
-0.015442078933119774,0.001560815260745585,-0.016100019216537476,-0.004119125194847584,0.08981284499168396,0.24105899035930634
-0.015692345798015594,0.0012723547406494617,-0.01587909273803234,-0.004766134079545736,0.08996783196926117,0.2391865998506546
-0.015258134342730045,0.003971329424530268,-0.019056782126426697,0.00014382143854163587,0.08826644718647003,0.24549533426761627
-0.015769481658935547,0.0034058899618685246,-0.018586385995149612,-0.00027714474708773196,0.08852364122867584,0.24908670783042908
-0.015208324417471886,0.003923039883375168,-0.018977509811520576,6.832235158071853e-06,0.08830440044403076,0.2486610859632492
-0.01609157770872116,0.0017427632119506598,-0.016649529337882996,-0.002564712194725871,0.08938653767108917,0.2522209882736206
-0.015386050567030907,0.0021442065481096506,-0.016740525141358376,-0.003148220479488373,0.08927411586046219,0.24489791691303253
-0.01621510647237301,0.00022351762163452804,-0.014744541607797146,-0.004834313411265612,0.09011618793010712,0.24375979602336884
-0.01661796122789383,-0.0015916897682473063,-0.012612425722181797,-0.007258600555360317,0.09098547697067261,0.24195054173469543
-0.016362573951482773,0.0023714632261544466,-0.017095226794481277,-0.0005927773891016841,0.08873836696147919,0.24911534786224365
-0.017459914088249207,-1.6120358850457706e-05,-0.015235534869134426,-0.0021090309601277113,0.08986974507570267,0.2479875683784485
-0.012847638688981533,0.00813243817538023,-0.02250409498810768,-0.0009086433565244079,0.08598040789365768,0.26059967279434204
-0.015455071814358234,0.0017038359073922038,-0.016106342896819115,-0.004141387529671192,0.08925125747919083,0.24835826456546783
-0.015688829123973846,0.0014812962617725134,-0.015902293846011162,-0.0042395866475999355,0.0892615020275116,0.2453537881374359
-0.013476674444973469,-0.00025636854115873575,-0.012783645652234554,-0.009762427769601345,0.0912458673119545,0.23866941034793854
-0.009933678433299065,-0.003137218998745084,-0.007576222065836191,-0.017280349507927895,0.09443187713623047,0.23268231749534607
-0.01565641351044178,0.002809345256537199,-0.017605509608983994,-0.0020169541239738464,0.08833402395248413,0.24899360537528992
-0.0172264464199543,0.006417257711291313,-0.02331707812845707,0.0070365541614592075,0.08579172194004059,0.2607640326023102
-0.013288258574903011,0.003928402438759804,-0.018672849982976913,-0.0037376133259385824,0.08939981460571289,0.25013449788093567
-0.016328925266861916,0.0015125072095543146,-0.017487183213233948,0.0011750190751627088,0.08830567449331284,0.2557033896446228
-0.014628422446548939,-0.0003656213521026075,-0.012985157780349255,-0.0053237867541611195,0.09039220213890076,0.24899360537528992
-0.013744975440204144,0.0025200978852808475,-0.015411913394927979,-0.008183315396308899,0.08938263356685638,0.23978419601917267
-0.015228384174406528,-9.53647613641806e-05,-0.013563946820795536,-0.007145359646528959,0.0897834450006485,0.24306906759738922
-0.013468547724187374,0.003906849306076765,-0.017155533656477928,-0.0047879586927592754,0.08888516575098038,0.2441239058971405
-0.015052421018481255,0.004803570918738842,-0.020078200846910477,0.0006056972779333591,0.0874093696475029,0.2490961104631424
-0.01457508560270071,0.0031496684532612562,-0.017154768109321594,-0.00403785053640604,0.08846940100193024,0.2531906068325043
-0.01527384016662836,0.0027174234855920076,-0.01765386201441288,-0.0018465585308149457,0.0881800651550293,0.25281623005867004
-0.015594597905874252,0.0029494292102754116,-0.018732720986008644,0.0005135633982717991,0.08776994794607162,0.24788889288902283
-0.014465386979281902,0.00206690258346498,-0.016067128628492355,-0.0058623370714485645,0.08877939730882645,0.24551905691623688
-0.01394529826939106,0.0014788052067160606,-0.014537966810166836,-0.009263409301638603,0.08931130170822144,0.2425730675458908
-0.015118810348212719,0.0023531801998615265,-0.016783129423856735,-0.003918781876564026,0.08826896548271179,0.2473326325416565
-0.01608741283416748,0.0030483766458928585,-0.018592212349176407,0.00040296567021869123,0.08741112798452377,0.250834196805954
-0.01612698845565319,0.002560501918196678,-0.01778680831193924,-0.0008657631115056574,0.08769560605287552,0.24988070130348206
-0.014891685917973518,0.0024395030923187733,-0.016939302906394005,-0.004014714155346155,0.08808670938014984,0.2502698004245758
-0.014003819786012173,0.004053024109452963,-0.018815143033862114,-0.0021304453257471323,0.08782196789979935,0.26196399331092834
-0.015098754316568375,0.00140751909930259,-0.015468553639948368,-0.006353429984301329,0.08843093365430832,0.23525816202163696
-0.014743312261998653,0.0020967426244169474,-0.016379134729504585,-0.005311222281306982,0.08821738511323929,0.2469523549079895
-0.015009992755949497,0.004100830294191837,-0.019621962681412697,-8.693334530107677e-05,0.08712496608495712,0.2535700798034668
-0.01462369505316019,0.0030700471252202988,-0.01725342497229576,-0.0064888931810855865,0.08782517164945602,0.2457740306854248
-0.01416423823684454,0.0019198139198124409,-0.018085723742842674,0.005757180508226156,0.08807919919490814,0.26352307200431824
-0.014139672741293907,0.002145814010873437,-0.016195029020309448,-0.006504440680146217,0.08831646293401718,0.24516381323337555
-0.014430337585508823,0.0026815098244696856,-0.017377255484461784,-0.003474633442237973,0.08786531537771225,0.2493526041507721
-0.013905923813581467,0.0018342037219554186,-0.015528026036918163,-0.007267051842063665,0.08856186270713806,0.24516381323337555
-0.014629501849412918,0.003073860192671418,-0.018085645511746407,-0.0032483707182109356,0.08754757046699524,0.2493526041507721
-0.015180082991719246,0.004157015588134527,-0.02016487903892994,-4.557222200674005e-05,0.08666624128818512,0.2503494322299957
-0.014647895470261574,0.003879112657159567,-0.019196363165974617,-0.002943760948255658,0.08677931129932404,0.24690699577331543
-0.014075014740228653,0.002863076748326421,-0.017333583906292915,-0.005287217907607555,0.08767130225896835,0.24722403287887573
-0.014652655459940434,0.004033604636788368,-0.01939118653535843,-0.003107431810349226,0.0866222009062767,0.24438221752643585
-0.013032437302172184,0.0013112520100548863,-0.014776869677007198,-0.007053598295897245,0.08916737139225006,0.2566080689430237
-0.014038825407624245,0.003261740319430828,-0.01807231828570366,-0.004417999181896448,0.08738050609827042,0.24887648224830627
-0.014594056643545628,0.004206688143312931,-0.01973302848637104,-0.0018676266772672534,0.08649030327796936,0.2506815493106842
-0.013288210146129131,0.0028587961569428444,-0.01708819903433323,-0.007756080478429794,0.08777540922164917,0.24527549743652344
-0.013617326505482197,0.003199057187885046,-0.017826521769165993,-0.00557356234639883,0.08741460740566254,0.2468530535697937
-0.013196139596402645,0.0026951434556394815,-0.0166228748857975,-0.009284676052629948,0.08774304389953613,0.2369496375322342
-0.014013725332915783,0.004117593169212341,-0.019592201337218285,-0.002091792644932866,0.0867304801940918,0.25177037715911865
-0.013742831535637379,0.0037086973898112774,-0.01872491091489792,-0.004314128775149584,0.08701053261756897,0.24899664521217346
-0.01496180146932602,0.005414098501205444,-0.0221880916506052,0.0037067041266709566,0.08573993295431137,0.2565170228481293
-0.013287638314068317,0.0033085134346038103,-0.01789136603474617,-0.004632056690752506,0.08733707666397095,0.24899664521217346
-0.013820324093103409,0.004417343530803919,-0.02000310644507408,-0.005323632154613733,0.08640492707490921,0.2464386373758316
-0.01257533859461546,0.002502208109945059,-0.016166657209396362,-0.010205873288214207,0.08796092122793198,0.2426925003528595
-0.01298100221902132,0.0035047167912125587,-0.018109722062945366,-0.006149484775960445,0.08714306354522705,0.24599424004554749
-0.013081231154501438,0.0034660950768738985,-0.018110176548361778,-0.006367807742208242,0.08711878210306168,0.24818015098571777
-0.013563206419348717,0.004840923007577658,-0.020637240260839462,-0.002761521842330694,0.08615265786647797,0.2543191611766815
-0.013238521292805672,0.004124089609831572,-0.01931021921336651,-0.005174819380044937,0.08657665550708771,0.24993017315864563
-0.013248158618807793,0.004728309344500303,-0.0203937329351902,-0.004047506023198366,0.0862046331167221,0.2457198202610016
-0.012287578545510769,0.0035899952054023743,-0.018122384324669838,-0.009239907376468182,0.08707661181688309,0.24028420448303223
-0.012937469407916069,0.004475150723010302,-0.019884517416357994,-0.005363364703953266,0.08636359870433807,0.24525979161262512
-0.013305643573403358,0.003959945868700743,-0.018954405561089516,-0.004818214103579521,0.08647847920656204,0.2581576704978943
-0.01334194652736187,0.004766999743878841,-0.020465942099690437,-0.0032380816992372274,0.08602899312973022,0.25339317321777344
-0.012781382538378239,0.0038709398359060287,-0.018714211881160736,-0.0070058186538517475,0.0866033285856247,0.24990679323673248
-0.011902921833097935,0.0033106752671301365,-0.01759352535009384,-0.009318388998508453,0.08717042952775955,0.24571800231933594
-0.013149323873221874,0.004413483198732138,-0.019733939319849014,-0.0074721286073327065,0.08606685698032379,0.2384878396987915
-0.012678905390202999,0.004318190272897482,-0.019553005695343018,-0.007314234506338835,0.08620163053274155,0.24614369869232178
-0.012493214569985867,0.004396275617182255,-0.0196858961135149,-0.00607030326500535,0.08621717244386673,0.2496701329946518
-0.0115862637758255,0.0033448950853198767,-0.017686722800135612,-0.010335966944694519,0.08710671961307526,0.24531395733356476
-0.01273943018168211,0.004537466913461685,-0.019984856247901917,-0.0054184673354029655,0.08600255101919174,0.2496701329946518
-0.012379972264170647,0.004281999077647924,-0.01943020522594452,-0.007516301702708006,0.0861729308962822,0.24570898711681366
-0.012685535475611687,0.004975506570190191,-0.020678795874118805,-0.00474707642570138,0.08558770269155502,0.2498977780342102
-0.012782040052115917,0.00521488580852747,-0.02111327461898327,-0.0038277178537100554,0.0853571966290474,0.24880126118659973
-0.012298435904085636,0.004266082774847746,-0.01940908282995224,-0.007006806321442127,0.08601169288158417,0.2498977780342102
-0.012275180779397488,0.004481281619518995,-0.0197462048381567,-0.007975379936397076,0.085883729159832,0.245561882853508
-0.012370651587843895,0.003807055065408349,-0.018696384504437447,-0.008914337493479252,0.08642610162496567,0.24659213423728943
-0.011543809436261654,0.007787973619997501,-0.024902906268835068,0.0012624504743143916,0.08275127410888672,0.24841557443141937
-0.012359065935015678,0.0050333039835095406,-0.02068696916103363,-0.004797081463038921,0.08531209826469421,0.2502022981643677
-0.012022974900901318,0.004883110523223877,-0.020505983382463455,-0.005020414013415575,0.08496774733066559,0.24989984929561615
-0.01231754943728447,0.00567152863368392,-0.02144085243344307,-0.004535823594778776,0.08515293896198273,0.24749216437339783
-0.011778418906033039,0.004180308897048235,-0.019449327141046524,-0.006863719318062067,0.08526907116174698,0.24743056297302246
-0.011824210174381733,0.004589822143316269,-0.020092200487852097,-0.005718424450606108,0.08505457639694214,0.24811460077762604
-0.012292098253965378,0.005093720275908709,-0.020616281777620316,-0.005370250437408686,0.08524048328399658,0.24912232160568237
-0.011926582083106041,0.004738855175673962,-0.020363254472613335,-0.004467981401830912,0.08463073521852493,0.25073862075805664
-0.013200503773987293,0.006043578498065472,-0.021335454657673836,-0.005742278415709734,0.08561905473470688,0.24990659952163696
-0.012712317518889904,0.005512402858585119,-0.021153945475816727,-0.0033420093823224306,0.08456004410982132,0.2524990141391754
-0.01202854048460722,0.004851063713431358,-0.02008874900639057,-0.006800284143537283,0.08521932363510132,0.24587643146514893
-0.012761706486344337,0.006146632134914398,-0.021398350596427917,-0.00628977594897151,0.08609763532876968,0.2470187395811081
-0.009861704893410206,0.0004593063786160201,-0.015008848160505295,-0.011603489518165588,0.08252785354852676,0.23721279203891754
-0.012628030963242054,0.005871764849871397,-0.021505383774638176,-0.003840499324724078,0.08497315645217896,0.2489861100912094
-0.0069459229707717896,-0.0006356094963848591,-0.014341927133500576,-0.010921293869614601,0.08234291523694992,0.2501019239425659
-0.006489017978310585,-0.0002588390780147165,-0.015659624710679054,-0.0032480251975357533,0.08108901977539062,0.25962182879447937
-0.014191139489412308,0.007821356877684593,-0.024235639721155167,0.0006227992125786841,0.08437666296958923,0.25044363737106323
-0.020951250568032265,0.014926434494554996,-0.031217128038406372,0.0035969121381640434,0.09003296494483948,0.23971815407276154
-0.011502728797495365,0.0042482465505599976,-0.019190965220332146,-0.005970417056232691,0.08349331468343735,0.25207579135894775
-0.013370536267757416,0.0066612642258405685,-0.02213558368384838,-0.003682697657495737,0.08548108488321304,0.24591316282749176
-0.010937375016510487,0.004498336464166641,-0.020191960036754608,-0.004653605166822672,0.0843600258231163,0.24956870079040527
-0.011893639340996742,0.005248280707746744,-0.020769303664565086,-0.004259415436536074,0.08454052358865738,0.2492925375699997
-0.01181706041097641,0.005384536925703287,-0.021175924688577652,-0.0029823307413607836,0.08402875810861588,0.25224176049232483
-0.011918550357222557,0.005421622656285763,-0.021082477644085884,-0.00335977366194129,0.08400402963161469,0.2516831159591675
-0.011797169223427773,0.005338157061487436,-0.02103133127093315,-0.003346539568156004,0.08392255753278732,0.2512204945087433
-0.011724344454705715,0.0051666488870978355,-0.020561451092362404,-0.004710782784968615,0.08380456268787384,0.24826334416866302
-0.011732852086424828,0.005205880850553513,-0.02068236842751503,-0.004256418906152248,0.08354923129081726,0.24892470240592957
-0.011735042557120323,0.005229651927947998,-0.02081192471086979,-0.0038433431182056665,0.08360552042722702,0.24976153671741486
-0.011978124268352985,0.005636256188154221,-0.02138204127550125,-0.002394221955910325,0.08362621068954468,0.2532462775707245
-0.011936730705201626,0.005541965365409851,-0.02126655913889408,-0.002848026342689991,0.08408655226230621,0.2527382969856262
-0.011882866732776165,0.0054623037576675415,-0.021151475608348846,-0.003077044151723385,0.08391011506319046,0.25196823477745056
-0.011606691405177116,0.005156388971954584,-0.02057424560189247,-0.00464043440297246,0.0838196650147438,0.2479763627052307
-0.011327845975756645,0.005542015191167593,-0.021141918376088142,-0.0024208216927945614,0.08108700811862946,0.2486455738544464
-0.011281417682766914,0.004850937053561211,-0.019973021000623703,-0.006155821960419416,0.08333517611026764,0.24351564049720764
-0.011757404543459415,0.006054528523236513,-0.02204800210893154,4.958937643095851e-05,0.0811125859618187,0.2539837658405304
-0.012295032851397991,0.0060347882099449635,-0.02204032428562641,-0.00031556622707284987,0.0828913003206253,0.2571552097797394
-0.012129003182053566,0.006630619056522846,-0.023116201162338257,0.002873978577554226,0.0811285600066185,0.25898870825767517
-0.011712527833878994,0.005256307777017355,-0.020715078338980675,-0.0027287674602121115,0.08316997438669205,0.2548631727695465
-0.010466685518622398,0.003473615972325206,-0.017824439331889153,-0.013814370147883892,0.0847325548529625,0.24079257249832153
-0.01246854942291975,0.006384503562003374,-0.022464098408818245,0.004767084494233131,0.08177302777767181,0.2545182406902313
-0.010326708666980267,0.0035886296536773443,-0.018260199576616287,-0.015409457497298717,0.0845833569765091,0.23947687447071075
-0.011927042156457901,0.006073952652513981,-0.022346733137965202,-0.00019069168774876744,0.08242064714431763,0.24900862574577332
-0.011897405609488487,0.005339214578270912,-0.020856216549873352,-0.004171925596892834,0.08262495696544647,0.24953502416610718
-0.012547825463116169,0.007053089793771505,-0.024010272696614265,0.00037200035876594484,0.08137952536344528,0.252603143453598
-0.01191346812993288,0.005651802755892277,-0.02187151275575161,0.00033949193311855197,0.0822991132736206,0.25889667868614197
-0.012838385999202728,0.007803919725120068,-0.02538687363266945,0.0020078779198229313,0.08083075284957886,0.25453829765319824
-0.011521306820213795,0.005022961180657148,-0.020508205518126488,-0.002588682109490037,0.0826851949095726,0.2525678873062134
-0.010988241992890835,0.003962443210184574,-0.018636954948306084,-0.006230009254068136,0.08324980735778809,0.24616076052188873
-0.011378856375813484,0.004859382752329111,-0.020275546237826347,-0.003659798065200448,0.08270496129989624,0.24840089678764343
-0.012239255011081696,0.0065264045260846615,-0.023221798241138458,0.0005623518954962492,0.08138298243284225,0.2511650621891022
-0.01287128310650587,0.007288679014891386,-0.024432538077235222,0.003659825539216399,0.08046814054250717,0.2553538382053375
-0.010826513171195984,0.003234526375308633,-0.01739211194217205,-0.004675602540373802,0.08349274098873138,0.2629965543746948
-0.01259884238243103,0.006988930515944958,-0.024026423692703247,0.0012217669282108545,0.08069237321615219,0.24703194200992584
-0.011536190286278725,0.004951933864504099,-0.020511502400040627,-0.0033408997114747763,0.08218315988779068,0.24997738003730774
-0.011327050626277924,0.004368683323264122,-0.019458848983049393,-0.0062606255523860455,0.08220472931861877,0.24468187987804413
-0.012551117688417435,0.006409202702343464,-0.023042308166623116,-0.001365956966765225,0.08071166276931763,0.2467573583126068
-0.011750620789825916,0.005000103730708361,-0.02055293694138527,-0.004828796721994877,0.08158154040575027,0.24659904837608337
-0.013275268487632275,0.007630364503711462,-0.02519962191581726,0.010839071124792099,0.07972944527864456,0.26903101801872253
-0.012369249016046524,0.0060971761122345924,-0.022597355768084526,0.0018955932464450598,0.08082041144371033,0.25765135884284973
-0.012520521879196167,0.006217543035745621,-0.022770773619413376,0.0022782639134675264,0.08043261617422104,0.25932252407073975
-0.009793282486498356,0.0025065739173442125,-0.017326176166534424,-0.0023553825449198484,0.08441659063100815,0.2551337480545044
-0.013177969492971897,0.006757586728781462,-0.02332901954650879,-0.003811425296589732,0.07933052629232407,0.25094497203826904
-0.010188612155616283,0.0027797333896160126,-0.017693040892481804,-0.005419299006462097,0.08385928720235825,0.24551351368427277
-0.012702558189630508,0.005787057802081108,-0.021670565009117126,-0.0014939585234969854,0.08007540553808212,0.25085559487342834
-0.013360172510147095,0.006535754539072514,-0.022937068715691566,-0.0008586018229834735,0.07911217957735062,0.25177159905433655
-0.012460104189813137,0.006799784954637289,-0.024819012731313705,0.01336941123008728,0.08038249611854553,0.2621661424636841
-0.012478708289563656,0.005525542888790369,-0.021967604756355286,-0.0008586017065681517,0.08048739284276962,0.2515406906604767
-0.01239144615828991,0.005690241232514381,-0.02250334806740284,0.0019537303596735,0.08058911561965942,0.25019165873527527
-0.011297798715531826,0.0035627081524580717,-0.01885620690882206,-0.008067027665674686,0.08249257504940033,0.23958539962768555
-0.012500690296292305,0.005362068302929401,-0.021970929577946663,-0.001746174762956798,0.08045602589845657,0.24822139739990234
-0.012966862879693508,0.005021259188652039,-0.02100377343595028,-0.007102734409272671,0.0802888423204422,0.2495967000722885
-0.013265090063214302,0.007890019565820694,-0.02703564055263996,0.010950173251330853,0.07848481833934784,0.2519441843032837
-0.012867030687630177,0.004938854370266199,-0.021052056923508644,-0.006196918897330761,0.08022315800189972,0.25108271837234497
