Der-mark/objtrans/data/sim/qvel_trajectory.csv
q0,q1,q2,q3,q4,q5
0.0,0.0,0.0,0.0,0.0,0.0
-3.9473285141866654e-05,-3.8265203329501674e-05,3.58771976607386e-05,3.985924195148982e-05,-4.015365630039014e-05,3.9998962165554985e-05
-3.959147579735145e-05,-3.840741192107089e-05,4.061894287588075e-05,3.95087554352358e-05,-0.00011940552212763578,0.00011959011317230761
1.520711521152407e-07,1.925600372487679e-06,7.093760359566659e-06,-7.915332389529794e-07,-0.00023768645769450814,0.0002383803075645119
7.938859926071018e-05,8.198455179808661e-05,-6.561676127603278e-05,-8.064453868428245e-05,-0.0003947060904465616,0.00039597804425284266
0.0001911804429255426,0.00020047559519298375,-0.0001783904735930264,-0.0001996553037315607,-0.0005476635415107012,0.0005919977556914091
0.0003166337264701724,0.0003571794950403273,-0.0003305483260191977,-0.0003574853762984276,-0.0006869619828648865,0.000826055184006691
0.00045283741201274097,0.0005521306302398443,-0.0005212677060626447,-0.0005537137622013688,-0.0008154941024258733,0.0010977699421346188
0.000598629645537585,0.0007850205292925239,-0.0007500846404582262,-0.0007879536133259535,-0.0009336198563687503,0.0014067650772631168
0.0007537981728091836,0.0010555260814726353,-0.0010165477870032191,-0.0010598234366625547,-0.0010437228484079242,0.001752668060362339
0.0009191390126943588,0.001363313989713788,-0.0013202241389080882,-0.0013689438346773386,-0.0011496137594804168,0.0021351093892008066
0.001096102176234126,0.0016818277072161436,-0.00165786303114146,-0.0017150071216747165,-0.001260356162674725,0.0025537204928696156
0.0012822379358112812,0.001992739737033844,-0.0020293889101594687,-0.0020976588129997253,-0.0013840985484421253,0.003008140018209815
0.0014754056464880705,0.0022956901229918003,-0.002436514478176832,-0.0025164952967315912,-0.0015231810975819826,0.0034980117343366146
0.001676337793469429,0.002590513788163662,-0.0028793734963983297,-0.0029711383394896984,-0.0016778211575001478,0.004022981505841017
0.0018856922397390008,0.002876297105103731,-0.0033576141577214003,-0.003461228683590889,-0.0018491032533347607,0.0045826975256204605
0.002103842096403241,0.003151628188788891,-0.0038708150386810303,-0.003986409865319729,-0.0020388434641063213,0.005171508528292179
0.0023330524563789368,0.003414308186620474,-0.004418501164764166,-0.00454632006585598,-0.0022496755700558424,0.005741606466472149
0.0025835037231445312,0.0036563044413924217,-0.004999504424631596,-0.005140588618814945,-0.0024885309394448996,0.006287590600550175
0.0028531583957374096,0.003873184323310852,-0.005613815039396286,-0.005768881179392338,-0.0027597174048423767,0.006807700265198946
0.003139401087537408,0.004064080771058798,-0.006261639297008514,-0.0064308238215744495,-0.0030626803636550903,0.007300183642655611
0.00344105320982635,0.004228717647492886,-0.0069427890703082085,-0.0071260519325733185,-0.003397037973627448,0.007762717083096504
0.003756830235943198,0.0043680607341229916,-0.007657084614038467,-0.00785420835018158,-0.003762052860110998,0.008195548318326473
0.004085025750100613,0.004484700504690409,-0.008404419757425785,-0.008614946156740189,-0.004155674949288368,0.008602820336818695
0.004423224832862616,0.004580861423164606,-0.009184439666569233,-0.009407931938767433,-0.004577180836349726,0.008990326896309853
0.004768987651914358,0.004658704157918692,-0.009996804408729076,-0.010232833214104176,-0.005025662016123533,0.0093624796718359
0.005120784509927034,0.004720153287053108,-0.010841128416359425,-0.011089322157204151,-0.005501167383044958,0.009721888229250908
0.005477513186633587,0.004766829311847687,-0.011717045679688454,-0.011977075599133968,-0.006003480404615402,0.010070505551993847
0.005838350392878056,0.004800127819180489,-0.012624211609363556,-0.01289577316492796,-0.006531811319291592,0.010409929789602757
0.006202750839293003,0.0048210169188678265,-0.013562244363129139,-0.01384509913623333,-0.007085888180881739,0.010741292499005795
0.006570109166204929,0.004830031655728817,-0.014530758373439312,-0.014824741519987583,-0.007665811572223902,0.011065784841775894
0.006939677521586418,0.004827351309359074,-0.015529382973909378,-0.015834389254450798,-0.008271867409348488,0.011384855955839157
0.007311058696359396,0.004813564009964466,-0.01655787229537964,-0.016873732209205627,-0.00890293251723051,0.011698690243065357
0.0076842340640723705,0.00478914100676775,-0.017615938559174538,-0.017942465841770172,-0.009556950069963932,0.012007415294647217
0.008058539591729641,0.004754418507218361,-0.01870327815413475,-0.019040290266275406,-0.010231674648821354,0.012311535887420177
0.00843337643891573,0.004709945060312748,-0.019819607958197594,-0.0201669093221426,-0.010925162583589554,0.012611020356416702
0.00880871806293726,0.004659885074943304,-0.020955294370651245,-0.021321993321180344,-0.011636337265372276,0.01290565263479948
0.009182494133710861,0.004600260406732559,-0.02208208478987217,-0.022505350410938263,-0.012363051995635033,0.013194700703024864
0.009550381451845169,0.004535506945103407,-0.023195194080471992,-0.023716816678643227,-0.0131029998883605,0.013473454862833023
0.009912153705954552,0.004467116203159094,-0.02429366670548916,-0.02495614066720009,-0.013853812590241432,0.013742309994995594
0.010267609730362892,0.004395273048430681,-0.025377323850989342,-0.026223057880997658,-0.014612755738198757,0.01400306448340416
0.010616671293973923,0.004320127889513969,-0.026446370407938957,-0.02751729264855385,-0.015377745032310486,0.014256665483117104
0.010959343053400517,0.004241790622472763,-0.027501104399561882,-0.02883857488632202,-0.016147196292877197,0.014503703452646732
0.011295643635094166,0.004160386975854635,-0.02854182757437229,-0.03018663078546524,-0.016919750720262527,0.014744454063475132
0.011625588871538639,0.004076066426932812,-0.029568742960691452,-0.031561195850372314,-0.017694080248475075,0.01497897133231163
0.011949111707508564,0.003989016637206078,-0.030581770464777946,-0.032962001860141754,-0.018468566238880157,0.015207255259156227
0.012265999801456928,0.0038994522765278816,-0.0315801240503788,-0.034388791769742966,-0.019240818917751312,0.01542938593775034
0.01257571205496788,0.0038076259661465883,-0.03256135806441307,-0.035841312259435654,-0.020006533712148666,0.01564573310315609
0.01287707220762968,0.0037139260675758123,-0.03351977467536926,-0.03731931746006012,-0.0207574013620615,0.01585739105939865
0.01316941436380148,0.003619470400735736,-0.03445250913500786,-0.038822587579488754,-0.02148982137441635,0.016064317896962166
0.013452688232064247,0.0035252016969025135,-0.03535972908139229,-0.040350887924432755,-0.022203614935278893,0.01626592129468918
0.013726934790611267,0.003431585617363453,-0.03624173253774643,-0.041903965175151825,-0.022897843271493912,0.01646195538341999
0.013992228545248508,0.0033389946911484003,-0.03709873929619789,-0.04348157346248627,-0.023571394383907318,0.016652263700962067
0.014248877763748169,0.0032477001659572124,-0.03793101757764816,-0.04508346691727638,-0.024222902953624725,0.016837002709507942
0.014497194439172745,0.0031578694470226765,-0.03873893618583679,-0.04670940339565277,-0.024851270020008087,0.01701636053621769
0.01473734900355339,0.0030695577152073383,-0.03952328860759735,-0.04835914447903633,-0.025456398725509644,0.017190251499414444
0.014969450421631336,0.0029827922116965055,-0.0402849018573761,-0.050032444298267365,-0.026038166135549545,0.017358528450131416
0.015193573199212551,0.0028975994791835546,-0.041024573147296906,-0.05172906070947647,-0.026596492156386375,0.01752101629972458
0.015409746207296848,0.002814017701894045,-0.04174308106303215,-0.053448766469955444,-0.02713135816156864,0.017677513882517815
0.015617991797626019,0.002732059685513377,-0.042441122233867645,-0.05519132316112518,-0.027642732486128807,0.017827898263931274
0.015818310901522636,0.0026517219375818968,-0.04311932995915413,-0.056956496089696884,-0.02813057228922844,0.017972106114029884
0.01601066067814827,0.0025730205234140158,-0.04377831146121025,-0.05874406173825264,-0.028594886884093285,0.018110014498233795
0.01619497500360012,0.002495999215170741,-0.04441867768764496,-0.060553789138793945,-0.02903575450181961,0.01824137754738331
0.01637113094329834,0.002420698991045356,-0.04504099488258362,-0.06238545477390289,-0.029453221708536148,0.018365954980254173
0.01653893291950226,0.002347162924706936,-0.045645762234926224,-0.06423884630203247,-0.02984730154275894,0.018483519554138184
0.01669807732105255,0.0022754352539777756,-0.04623338580131531,-0.06611373275518417,-0.030217930674552917,0.018593864515423775
0.016848113387823105,0.0022055478766560555,-0.04680413007736206,-0.06800991296768188,-0.03056490048766136,0.0186968594789505
0.016988443210721016,0.0021375350188463926,-0.04735814407467842,-0.0699271634221077,-0.030887871980667114,0.0187924113124609
0.01711881347000599,0.0020716877188533545,-0.04789598286151886,-0.0718652680516243,-0.03118710033595562,0.018879907205700874
0.017239104956388474,0.0020082297269254923,-0.04841827228665352,-0.07382402569055557,-0.0314628928899765,0.018958844244480133
0.01734917424619198,0.001947366283275187,-0.04892561212182045,-0.0758032277226448,-0.0317155160009861,0.01902877166867256
0.01744898222386837,0.0018891884246841073,-0.04941852018237114,-0.07780266553163528,-0.0319451168179512,0.01908947341144085
0.01753847301006317,0.0018335049971938133,-0.04989736154675484,-0.0798221305012703,-0.03215149790048599,0.019141294062137604
0.017617342993617058,0.0017799505731090903,-0.050362396985292435,-0.08186142891645432,-0.03233390301465988,0.019185444340109825
0.017684565857052803,0.0017276967409998178,-0.05081392452120781,-0.08392036706209183,-0.03249060735106468,0.01922493614256382
0.017738068476319313,0.0016748226480558515,-0.0512518435716629,-0.08599874377250671,-0.03261732682585716,0.019266001880168915
0.01777692884206772,0.0016222601989284158,-0.05167713016271591,-0.08809636533260345,-0.03271389380097389,0.01930704154074192
0.01780078187584877,0.0015704859979450703,-0.05209045857191086,-0.09021302312612534,-0.03278044983744621,0.019347524270415306
0.01780904456973076,0.0015199970221146941,-0.0524924099445343,-0.09234853833913803,-0.032816994935274124,0.019386619329452515
0.01780090667307377,0.0014713420532643795,-0.05288349837064743,-0.09450272470712662,-0.03282329440116882,0.01942334696650505
0.017775343731045723,0.001425108639523387,-0.05326422303915024,-0.09667539596557617,-0.032798901200294495,0.019456759095191956
0.0177316777408123,0.0013819111045449972,-0.05363498628139496,-0.09884639829397202,-0.03274354711174965,0.019486721605062485
0.017672168090939522,0.0013421602779999375,-0.053995758295059204,-0.1009957417845726,-0.032658446580171585,0.0195145383477211
0.01759917102754116,0.001305644866079092,-0.054346129298210144,-0.10312362015247345,-0.03254473954439163,0.019541721791028976
0.017512153834104538,0.0012719425139948726,-0.05468573421239853,-0.10523025691509247,-0.032402653247117996,0.019569087773561478
0.01741080731153488,0.001240672543644905,-0.05501426011323929,-0.10731586813926697,-0.03223314508795738,0.019597750157117844
0.017295386642217636,0.0012117178412154317,-0.05533166974782944,-0.10938066244125366,-0.03203733637928963,0.01962808519601822
0.017167700454592705,0.0011851226445287466,-0.055638402700424194,-0.11142484098672867,-0.03181702271103859,0.01966043934226036
0.01702980510890484,0.0011605536565184593,-0.05593488737940788,-0.1134485974907875,-0.031573712825775146,0.019695335999131203
0.016883527860045433,0.0011376201873645186,-0.056221503764390945,-0.11545213311910629,-0.031308576464653015,0.019733155146241188
0.01673046499490738,0.00111595808994025,-0.05649861320853233,-0.11743564903736115,-0.031022584065794945,0.01977415196597576
0.016571994870901108,0.001095262006856501,-0.05676649883389473,-0.11939935386180878,-0.0307175125926733,0.019818473607301712
0.01640930026769638,0.0010753169190138578,-0.05702541023492813,-0.12134343385696411,-0.030396446585655212,0.019866159185767174
0.01624513976275921,0.0010559563525021076,-0.057275719940662384,-0.12326806038618088,-0.03005659207701683,0.01991702802479267
0.016080206260085106,0.001036071334965527,-0.057517312467098236,-0.12517346441745758,-0.02969825454056263,0.019972816109657288
0.01591365598142147,0.0010156730422750115,-0.05775046348571777,-0.12705983221530914,-0.029321853071451187,0.02003314718604088
0.01574595458805561,0.0009948665974661708,-0.05797548219561577,-0.12892736494541168,-0.028928076848387718,0.02009803056716919
0.015577644109725952,0.00097347964765504,-0.05819253250956535,-0.13077621161937714,-0.028517361730337143,0.02016759105026722
0.015409188345074654,0.0009513395489193499,-0.05840173363685608,-0.1326065957546234,-0.02808995358645916,0.020241890102624893
0.0152409877628088,0.0009282794198952615,-0.05860317125916481,-0.13441868126392365,-0.027646057307720184,0.02032100223004818
0.015073384158313274,0.0009041527519002557,-0.05879692733287811,-0.13621264696121216,-0.02718585543334484,0.020404981449246407
0.01490667276084423,0.0008788237464614213,-0.05898306518793106,-0.13798868656158447,-0.02670949138700962,0.020493876188993454
0.014741107821464539,0.0008521716226823628,-0.05916164070367813,-0.13974697887897491,-0.026217108592391014,0.020587719976902008
0.014576909132301807,0.0008241102332249284,-0.0593327134847641,-0.14148768782615662,-0.02570892870426178,0.020686501637101173
0.014414269477128983,0.0007945715333335102,-0.05949633941054344,-0.1432110071182251,-0.025185182690620422,0.020790189504623413
0.01425344217568636,0.0007637823582626879,-0.059652604162693024,-0.1449171006679535,-0.02464696764945984,0.020898588001728058
0.0140947001054883,0.0007321097073145211,-0.05980159714818001,-0.14660614728927612,-0.024095728993415833,0.021011296659708023
0.01393828820437193,0.0006998698227107525,-0.059943392872810364,-0.14827829599380493,-0.023532748222351074,0.021127931773662567
0.013784412294626236,0.0006673363968729973,-0.060078054666519165,-0.14993374049663544,-0.022959137335419655,0.021248167380690575
0.013633222319185734,0.0006347690359689295,-0.06020565330982208,-0.15157262980937958,-0.022375857457518578,0.021371789276599884
0.013484839349985123,0.0006024062167853117,-0.06032625958323479,-0.15319514274597168,-0.021783746778964996,0.02149861678481102
0.013339360244572163,0.0005704604554921389,-0.060439933091402054,-0.15480145812034607,-0.021183518692851067,0.02162850648164749
0.013196856714785099,0.0005391042213886976,-0.06054673716425896,-0.1563917100429535,-0.02057582139968872,0.02176130935549736
0.013057372532784939,0.0005084497388452291,-0.06064676493406296,-0.15796606242656708,-0.01996128261089325,0.021896833553910255
0.012920940294861794,0.00047858155448921025,-0.06074010953307152,-0.15952469408512115,-0.01934044249355793,0.02203492633998394
0.01278757955878973,0.0004495713219512254,-0.0608268640935421,-0.16106773912906647,-0.018713777884840965,0.02217544987797737
0.012657299637794495,0.000421477627241984,-0.06090712547302246,-0.16259536147117615,-0.018081707879900932,0.022318275645375252
0.01253005862236023,0.00039434456266462803,-0.060980986803770065,-0.16410771012306213,-0.01744462177157402,0.02246329002082348
0.012404760345816612,0.00036818618536926806,-0.06104855239391327,-0.16560496389865875,-0.016802944242954254,0.022610386833548546
0.012281166389584541,0.0003432138473726809,-0.061110079288482666,-0.16708725690841675,-0.016157079488039017,0.022759221494197845
0.012160471640527248,0.000319434329867363,-0.0611657053232193,-0.16855473816394806,-0.015507398173213005,0.022909803315997124
0.012042788788676262,0.00029663939494639635,-0.06121540814638138,-0.17000754177570343,-0.01485425978899002,0.02306235395371914
0.011927875690162182,0.00027493597008287907,-0.06125938519835472,-0.171445831656456,-0.014198499731719494,0.02321678027510643
0.01181544829159975,0.0002544552553445101,-0.06129790097475052,-0.1728697568178177,-0.013541022315621376,0.023373015224933624
0.011705242097377777,0.000235314728342928,-0.061331216245889664,-0.17427945137023926,-0.012882642447948456,0.0235309898853302
0.01159701868891716,0.00021760744857601821,-0.06135955825448036,-0.17567504942417145,-0.012224087491631508,0.02369065023958683
0.011490563862025738,0.00020140841661486775,-0.06138315051794052,-0.1770567148923874,-0.01156600471585989,0.023851945996284485
0.011385686695575714,0.00018677592743188143,-0.06140218675136566,-0.17842456698417664,-0.010908975265920162,0.024014830589294434
0.01128221396356821,0.0001737545244395733,-0.06141684576869011,-0.17977875471115112,-0.010253519751131535,0.024179253727197647
0.01117999292910099,0.00016237581439781934,-0.0614272803068161,-0.1811194121837616,-0.009600099176168442,0.024345174431800842
0.01107888761907816,0.00015265989350154996,-0.06143363192677498,-0.1824466735124588,-0.008949129842221737,0.024512547999620438
0.010978777892887592,0.00014461744285654277,-0.06143602356314659,-0.1837606579065323,-0.008300978690385818,0.024681326001882553
0.010879560373723507,0.00013824881170876324,-0.0614345520734787,-0.185061514377594,-0.0076559754088521,0.024851467460393906
0.01078114565461874,0.0001335463166469708,-0.06142931059002876,-0.18634937703609467,-0.00701441103592515,0.025022923946380615
0.010683456435799599,0.00013049320841673762,-0.061420369893312454,-0.18762436509132385,-0.006376543547958136,0.0251956507563591
0.010586430318653584,0.00012906563642900437,-0.06140778213739395,-0.1888866275548935,-0.005742599721997976,0.02536960132420063
0.010489982552826405,0.00012790004257112741,-0.06139135733246803,-0.19013625383377075,-0.005112732760608196,0.025544727221131325
0.010394010692834854,0.00012806805898435414,-0.06137148663401604,-0.19137340784072876,-0.004487108439207077,0.025721019133925438
0.010298552922904491,0.00012978872109670192,-0.0613480880856514,-0.19259819388389587,-0.0038659244310110807,0.025898493826389313
0.010203623212873936,0.0001330117811448872,-0.06132110208272934,-0.19381074607372284,-0.0032493076287209988,0.026076994836330414
0.010109221562743187,0.00013767539348918945,-0.06129048392176628,-0.195011168718338,-0.0026373625732958317,0.026256468147039413
0.010015354491770267,0.00014371627185028046,-0.06125617027282715,-0.19619959592819214,-0.002030167728662491,0.026436850428581238
0.009922042489051819,0.0001510625152150169,-0.06121808663010597,-0.19737614691257477,-0.0014277833979576826,0.02661808207631111
0.009829272516071796,0.00015969283413141966,-0.06117618829011917,-0.19854094088077545,-0.0008302640053443611,0.02680007740855217
0.009737009182572365,0.00016962457448244095,-0.06113045662641525,-0.19969409704208374,-0.00023766187950968742,0.0269827488809824
0.009645223617553711,0.00018087176431436092,-0.06108085811138153,-0.20083573460578918,0.0003499849117361009,0.02716601826250553
0.009553886950016022,0.0001934421161422506,-0.06102738529443741,-0.20196595788002014,0.0009326368453912437,0.027349768206477165
0.009462964721024036,0.00020731464610435069,-0.060970112681388855,-0.20308488607406616,0.001510231290012598,0.027533836662769318
0.009372420608997345,0.00022245344007387757,-0.06090911477804184,-0.2041926234960556,0.0020827094558626413,0.02771812304854393
0.00928222294896841,0.00023882293317001313,-0.06084446981549263,-0.2052893042564392,0.0026500255335122347,0.0279025100171566
0.009192346595227718,0.0002563855960033834,-0.060776256024837494,-0.20637501776218414,0.0032121404074132442,0.02808687835931778
0.009102785028517246,0.0002751206629909575,-0.060704559087753296,-0.20744988322257996,0.0037690147291868925,0.02827107347548008
0.009013542905449867,0.00029500023811124265,-0.0606294684112072,-0.208514004945755,0.004320611245930195,0.028454959392547607
0.008924629539251328,0.00031599358771927655,-0.060551054775714874,-0.20956750214099884,0.004866902716457844,0.028638388961553574
0.008836056105792522,0.0003380700945854187,-0.06046939641237259,-0.21061046421527863,0.0054078660905361176,0.02882120944559574
0.008747919462621212,0.0003612313012126833,-0.060384612530469894,-0.21164299547672272,0.005943473894149065,0.029003286734223366
0.008660528808832169,0.00038545444840565324,-0.06029681861400604,-0.21266520023345947,0.006473689340054989,0.029184555634856224
0.008573879487812519,0.00041068680002354085,-0.060206104069948196,-0.21367719769477844,0.006998470518738031,0.029364999383687973
0.008487962186336517,0.00043693516636267304,-0.0601125992834568,-0.2146790772676468,0.007517809513956308,0.029544439166784286
0.008402646519243717,0.00046414273674599826,-0.06001637876033783,-0.21567092835903168,0.008031698875129223,0.02972281165421009
0.008317730389535427,0.0004922359948977828,-0.05991750955581665,-0.21665288507938385,0.008540166541934013,0.02989993989467621
0.008233264088630676,0.0005211594398133457,-0.05981606990098953,-0.21762503683567047,0.00904324371367693,0.03007563389837742
0.008149255998432636,0.0005508133326657116,-0.05971209704875946,-0.2185874581336975,0.009540943428874016,0.030249811708927155
0.008065740577876568,0.0005811206065118313,-0.05960563197731972,-0.2195402830839157,0.01003329362720251,0.030422303825616837
0.007982791401445866,0.0006119428435340524,-0.05949663743376732,-0.22048357129096985,0.010520308278501034,0.030593112111091614
0.007900496013462543,0.0006431470974348485,-0.05938507989048958,-0.22141742706298828,0.01100202277302742,0.030762137845158577
0.007818955928087234,0.0006745686987414956,-0.05927090346813202,-0.22234195470809937,0.011478467844426632,0.030929341912269592
0.007738289423286915,0.0007060330826789141,-0.05915403366088867,-0.22325724363327026,0.011949680745601654,0.0310946274548769
0.0076586343348026276,0.0007373367552645504,-0.05903435871005058,-0.22416338324546814,0.01241570059210062,0.03125789016485214
0.007580076809972525,0.0007683578878641129,-0.058911845088005066,-0.22506046295166016,0.012876558117568493,0.03141901642084122
0.007502626162022352,0.000799081870354712,-0.058786578476428986,-0.22594857215881348,0.013332266360521317,0.03157797455787659
0.007426290772855282,0.0008294875733554363,-0.05865863710641861,-0.22682781517505646,0.013782854191958904,0.031734779477119446
0.007351062726229429,0.000859560735989362,-0.0585281103849411,-0.22769826650619507,0.014228351414203644,0.03188943862915039
0.007276902440935373,0.0008892874466255307,-0.058395080268383026,-0.22856000065803528,0.014668788760900497,0.032041966915130615
0.007203844375908375,0.0009186571696773171,-0.05825962871313095,-0.22941312193870544,0.01510420348495245,0.03219236433506012
0.0071316552348434925,0.000947643828112632,-0.058121826499700546,-0.23025773465633392,0.01553462166339159,0.03234067186713219
0.007060278672724962,0.000976275303401053,-0.05798178166151047,-0.2310938984155655,0.015960106626152992,0.03248678520321846
0.006989709567278624,0.001004525227472186,-0.05783955380320549,-0.2319217026233673,0.016380691900849342,0.032630790024995804
0.006919940002262592,0.0010323897004127502,-0.05769522488117218,-0.23274122178554535,0.016796421259641647,0.032772671431303024
0.0068510062992572784,0.0010598516091704369,-0.05754886567592621,-0.23355256021022797,0.017207330092787743,0.032912477850914
0.006783161778002977,0.0010869030375033617,-0.057400550693273544,-0.23435579240322113,0.01761346310377121,0.03305023908615112
0.0067164357751607895,0.0011134941596537828,-0.05725031718611717,-0.235151007771492,0.018014835193753242,0.03318611904978752
0.006650817114859819,0.0011396282352507114,-0.05709824338555336,-0.23593826591968536,0.01841149851679802,0.033320069313049316
0.0065862941555678844,0.0011652862885966897,-0.05694439262151718,-0.23671765625476837,0.018803492188453674,0.033452171832323074
0.006522852927446365,0.0011904637794941664,-0.05678883194923401,-0.237489253282547,0.019190872088074684,0.03358244150876999
0.006460477598011494,0.0012151472037658095,-0.056631624698638916,-0.2382531464099884,0.01957368664443493,0.03371093422174454
0.006399151403456926,0.0012393275974318385,-0.05647283419966698,-0.23900939524173737,0.019951989874243736,0.033837683498859406
0.006338866893202066,0.0012629958800971508,-0.05631250515580177,-0.23975808918476105,0.02032586932182312,0.033962734043598175
0.00627963338047266,0.0012861463474109769,-0.05615066736936569,-0.24049928784370422,0.020695457234978676,0.03408609703183174
0.006221457850188017,0.001308768754824996,-0.05598734691739082,-0.24123309552669525,0.021060878410935402,0.03420780971646309
0.006164340768009424,0.001330855069682002,-0.05582255870103836,-0.2419595569372177,0.021422253921628,0.034327901899814606
0.0061082784086465836,0.0013523957459256053,-0.05565633252263069,-0.24267876148223877,0.021779701113700867,0.034446414560079575
0.006053263321518898,0.0013733861269429326,-0.0554887019097805,-0.2433907687664032,0.022133326157927513,0.03456335887312889
0.005999295972287655,0.0013938385527580976,-0.05531971529126167,-0.24409565329551697,0.02248321659862995,0.03467864915728569
0.005946379154920578,0.0014137562830001116,-0.05514940991997719,-0.24479350447654724,0.0228294488042593,0.034792229533195496
0.00589451240375638,0.001433150377124548,-0.054977841675281525,-0.2454843819141388,0.02317209355533123,0.03490401804447174
0.005843692924827337,0.0014520289842039347,-0.054805055260658264,-0.2461683452129364,0.023511221632361412,0.03501394763588905
0.005793916527181864,0.0014704063069075346,-0.05463111028075218,-0.24684546887874603,0.023846890777349472,0.035121917724609375
0.00574517622590065,0.0014882968971505761,-0.05445607006549835,-0.24751582741737366,0.024179160594940186,0.035227835178375244
0.005697464104741812,0.001505719730630517,-0.05427999421954155,-0.24817949533462524,0.024508081376552582,0.035331591963768005
0.005650770850479603,0.0015226969262585044,-0.054102953523397446,-0.24883653223514557,0.024833697825670242,0.03543306514620781
0.005605084355920553,0.001539256307296455,-0.05392502248287201,-0.2494869977235794,0.0251560527831316,0.03553211688995361
0.005560391582548618,0.0015554303536191583,-0.05374627560377121,-0.25013095140457153,0.025475183501839638,0.03562859445810318
0.005516678094863892,0.0015712578315287828,-0.05356679856777191,-0.2507684826850891,0.025791116058826447,0.03572233021259308
0.005473926663398743,0.0015867846086621284,-0.05338667705655098,-0.2513996362686157,0.026103876531124115,0.035813137888908386
0.005432120058685541,0.0016020640032365918,-0.053206004202365875,-0.25202447175979614,0.026413485407829285,0.03590080514550209
0.005391240119934082,0.0016171520110219717,-0.05302487313747406,-0.25264307856559753,0.02671995759010315,0.03598511591553688
0.00535128777846694,0.00163203664124012,-0.05284334346652031,-0.2532554864883423,0.027023326605558395,0.036066021770238876
0.0053122639656066895,0.0016467098612338305,-0.05266149714589119,-0.25386178493499756,0.027323629707098007,0.036143384873867035
0.005274173803627491,0.0016611547907814384,-0.05247940123081207,-0.25446200370788574,0.027620891109108925,0.03621711581945419
0.005237022414803505,0.001675351639278233,-0.05229711905121803,-0.255056232213974,0.027915140613913536,0.036287158727645874
0.00520081864669919,0.0016892551211640239,-0.05211465060710907,-0.2556445300579071,0.028206409886479378,0.03635360673069954
0.0051655517891049385,0.0017028448637574911,-0.051932062953710556,-0.25622695684432983,0.02849474735558033,0.03641646355390549
0.005131189711391926,0.001716083032079041,-0.05174941569566727,-0.25680357217788696,0.028780216351151466,0.03647589683532715
0.0050976951606571674,0.0017289513489231467,-0.05156679451465607,-0.2573744058609009,0.029062870889902115,0.0365319699048996
0.005065038334578276,0.0017414175672456622,-0.05138425901532173,-0.25793954730033875,0.029342757537961006,0.03658481314778328
0.005033195484429598,0.001753461081534624,-0.051201868802309036,-0.25849902629852295,0.029619919136166573,0.03663446754217148
0.005002137273550034,0.0017650682711973786,-0.05101967230439186,-0.25905290246009827,0.029894398525357246,0.036681029945611954
0.004971831105649471,0.0017762448405846953,-0.050837721675634384,-0.2596012353897095,0.030166232958436012,0.036724530160427094
0.0049422490410506725,0.0017869904404506087,-0.05065605416893959,-0.26014408469200134,0.030435455963015556,0.03676503151655197
0.004913366865366697,0.0017973111243918538,-0.050474707037210464,-0.26068153977394104,0.030702104791998863,0.03680256009101868
0.004885162692517042,0.0018072082893922925,-0.05029371380805969,-0.26121363043785095,0.03096621111035347,0.036837149411439896
0.004857618361711502,0.0018166872905567288,-0.05011310800909996,-0.26174038648605347,0.031227808445692062,0.03686881437897682
0.004830717574805021,0.001825751387514174,-0.049932919442653656,-0.26226189732551575,0.03148692473769188,0.03689756989479065
0.004804445430636406,0.001834405935369432,-0.04975317418575287,-0.2627781927585602,0.03174359351396561,0.036923423409461975
0.0047787888906896114,0.0018426555907353759,-0.049573902040719986,-0.26328930258750916,0.03199784457683563,0.0369463749229908
0.004753737710416317,0.0018505062907934189,-0.049395132809877396,-0.26379531621932983,0.032249707728624344,0.036966413259506226
0.0047292825765907764,0.0018579632742330432,-0.04921689257025719,-0.2642962634563446,0.03249920904636383,0.03698353096842766
0.0047054169699549675,0.0018650332931429148,-0.04903921112418175,-0.26479220390319824,0.03274638578295708,0.036997705698013306
0.004682133439928293,0.0018717204220592976,-0.04886210337281227,-0.2652832269668579,0.032991260290145874,0.03700893744826317
0.0046594212763011456,0.0018780239624902606,-0.048685573041439056,-0.2657693326473236,0.033233869820833206,0.037017274647951126
0.004637271165847778,0.0018839507829397917,-0.0485096201300621,-0.2662505805492401,0.03347424417734146,0.03702271357178688
0.004615673329681158,0.0018895022803917527,-0.048334237188100815,-0.2667270004749298,0.03371240571141243,0.03702528774738312
0.004594618920236826,0.0018946854397654533,-0.04815943166613579,-0.2671986520290375,0.0339483916759491,0.03702499344944954
0.004574099089950323,0.0018995030550286174,-0.04798519238829613,-0.2676655948162079,0.03418223187327385,0.037021853029727936
0.004554105922579765,0.0019039629260078073,-0.04781152307987213,-0.2681278586387634,0.03441395238041878,0.03701585903763771
0.004534630570560694,0.0019080693600699306,-0.0476384162902832,-0.2685855031013489,0.03464358299970627,0.03700702637434006
0.0045156655833125114,0.001911830622702837,-0.04746587201952934,-0.269038587808609,0.03487115353345871,0.03699534758925438
0.004497203044593334,0.0019152521854266524,-0.04729388654232025,-0.2694871425628662,0.035096701234579086,0.03698081895709038
0.004479235969483852,0.0019183424301445484,-0.04712245613336563,-0.26993119716644287,0.03532024845480919,0.036963433027267456
0.004461756907403469,0.0019211090402677655,-0.04695157706737518,-0.27037084102630615,0.035541828721761703,0.03694318234920502
0.004444763530045748,0.0019235593499615788,-0.046781234443187714,-0.27080610394477844,0.03576146811246872,0.036920055747032166
0.004428256768733263,0.001925686956383288,-0.04661140590906143,-0.27123701572418213,0.035979196429252625,0.03689410910010338
0.00441223569214344,0.0019275021040812135,-0.046442095190286636,-0.2716636061668396,0.03619503229856491,0.03686530143022537
0.004396708216518164,0.0019290028139948845,-0.04627331718802452,-0.27208593487739563,0.03640901297330856,0.036833614110946655
0.004381684586405754,0.0019301846623420715,-0.04610509052872658,-0.2725040316581726,0.03662116825580597,0.036799028515815735
0.004367172718048096,0.0019310427596792579,-0.045937430113554,-0.2729179561138153,0.036831535398960114,0.036761533468961716
0.004353182390332222,0.0019315724493935704,-0.04577034339308739,-0.2733277380466461,0.03704015165567398,0.0367211177945137
0.004339723382145166,0.001931748236529529,-0.04560382664203644,-0.2737334370613098,0.03724704682826996,0.036678023636341095
0.0043268101289868355,0.0019314944511279464,-0.045437853783369064,-0.2741350531578064,0.03745223581790924,0.0366332083940506
0.004314450081437826,0.00193081796169281,-0.04527251422405243,-0.2745327055454254,0.037655774503946304,0.03658713027834892
0.00430265674367547,0.0019296311074867845,-0.045107822865247726,-0.2749263644218445,0.03785780817270279,0.036540430039167404
0.004291457589715719,0.0019278806867077947,-0.044943854212760925,-0.2753160893917084,0.03805851563811302,0.036493416875600815
0.004280880093574524,0.0019254967337474227,-0.044780608266592026,-0.2757019102573395,0.038258083164691925,0.0364464595913887
0.004270961973816156,0.0019224517745897174,-0.04461809992790222,-0.27608388662338257,0.03845670819282532,0.03639969229698181
0.004261747468262911,0.0019187191501259804,-0.04445628821849823,-0.27646204829216003,0.03865461423993111,0.036353256553411484
0.004253284074366093,0.0019142929231747985,-0.044295135885477066,-0.27683642506599426,0.03885200619697571,0.036307189613580704
0.004245593678206205,0.0019091551657766104,-0.04413462430238724,-0.27720704674720764,0.03904896229505539,0.03626156970858574
0.00423868652433157,0.0019033036660403013,-0.043974775820970535,-0.27757397294044495,0.03924553468823433,0.03621638938784599
0.004232568666338921,0.0018967300420626998,-0.04381559044122696,-0.27793723344802856,0.03944176807999611,0.036171674728393555
0.00422723637893796,0.0018894434906542301,-0.043657079339027405,-0.27829688787460327,0.03963770344853401,0.03612743318080902
0.004222682677209377,0.0018814548384398222,-0.04349923133850098,-0.27865293622016907,0.039833370596170425,0.03608367592096329
0.004218901041895151,0.0018727796850726008,-0.043342046439647675,-0.2790054380893707,0.040028803050518036,0.036040402948856354
0.004215886350721121,0.001863432233221829,-0.0431855134665966,-0.27935439348220825,0.04022403061389923,0.03599761426448822
0.004213633481413126,0.0018534284317865968,-0.043029624968767166,-0.2796998620033264,0.0404190793633461,0.03595530614256859
0.004212138708680868,0.0018427843460813165,-0.04287436604499817,-0.2800418734550476,0.04061397910118103,0.03591347113251686
0.004211400169879198,0.0018315166234970093,-0.042719725519418716,-0.2803804874420166,0.04080876335501671,0.03587211295962334
0.004211417865008116,0.0018196436576545238,-0.04256567731499672,-0.2807157039642334,0.04100346937775612,0.03583122789859772
0.00421219551935792,0.0018071831436827779,-0.04241219535470009,-0.2810475826263428,0.04119814559817314,0.03579081594944
0.004213741049170494,0.0017941542901098728,-0.04225923866033554,-0.2813761234283447,0.04139285534620285,0.035750892013311386
0.0042160674929618835,0.0017805775860324502,-0.042106762528419495,-0.28170138597488403,0.041587673127651215,0.03571145981550217
0.004219195805490017,0.0017664760816842318,-0.041954703629016876,-0.2820234000682831,0.04178269952535629,0.03567253798246384
0.004223156254738569,0.001751875039190054,-0.04180297628045082,-0.28234219551086426,0.04197806864976883,0.035634156316518784
0.0042279744520783424,0.0017367771361023188,-0.04165150225162506,-0.28265780210494995,0.042173877358436584,0.03559637442231178
0.0042336611077189445,0.0017211498925462365,-0.04150025174021721,-0.28297024965286255,0.04237017035484314,0.03555925562977791
0.004240222275257111,0.001704944297671318,-0.041349198669195175,-0.2832795977592468,0.04256701096892357,0.03552286699414253
0.004247669130563736,0.001688085962086916,-0.04119831323623657,-0.2835858464241028,0.04276447370648384,0.035487331449985504
0.0042560347355902195,0.001671168371103704,-0.041047677397727966,-0.2838890254497528,0.04296265169978142,0.035452790558338165
0.004265398718416691,0.0016532838344573975,-0.04089684039354324,-0.2841891944408417,0.043161701411008835,0.03542003035545349
0.004275779239833355,0.0016343839233741164,-0.040746092796325684,-0.2844863533973694,0.04336187615990639,0.035388361662626266
0.004287205636501312,0.001614064909517765,-0.04059518873691559,-0.2847805321216583,0.04356332868337631,0.0353587381541729
0.004299687687307596,0.0015923897735774517,-0.04044433310627937,-0.28507179021835327,0.043766189366579056,0.03533061966300011
0.00431319372728467,0.0015693043824285269,-0.04029344394803047,-0.2853601276874542,0.043970368802547455,0.03530431538820267
0.004327717702835798,0.0015448796330019832,-0.040142618119716644,-0.28564560413360596,0.044175885617733,0.03527954965829849
0.0043432442471385,0.0015191002748906612,-0.039991822093725204,-0.28592821955680847,0.04438268393278122,0.035256434231996536
0.004359768237918615,0.0014920101966708899,-0.03984111174941063,-0.28620803356170654,0.04459076002240181,0.035234808921813965
0.004377281293272972,0.0014636123087257147,-0.03969047591090202,-0.28648504614830017,0.04480007663369179,0.03521469607949257
0.004395781084895134,0.0014339371118694544,-0.03953996300697327,-0.28675928711891174,0.045010607689619064,0.0351959764957428
0.004415263421833515,0.0014029958983883262,-0.03938957676291466,-0.28703078627586365,0.045222315937280655,0.03517862409353256
0.004435746464878321,0.0013708536280319095,-0.039239343255758286,-0.28729957342147827,0.045435164123773575,0.03516243025660515
0.004457259550690651,0.0013375759590417147,-0.03908924385905266,-0.2875656485557556,0.045649103820323944,0.035147249698638916
0.004479838535189629,0.0013032292481511831,-0.03893926739692688,-0.28782907128334045,0.04586409032344818,0.035132888704538345
0.004503518808633089,0.0012678668135777116,-0.03878939896821976,-0.2880898714065552,0.04608006402850151,0.0351191982626915
0.004528336692601442,0.0012315412750467658,-0.03863964602351189,-0.28834807872772217,0.04629697650671005,0.03510599955916405
0.004554316867142916,0.0011942965211346745,-0.03848999738693237,-0.2886037230491638,0.04651477932929993,0.035093165934085846
0.004581454675644636,0.001156180165708065,-0.03834044188261032,-0.2888568043708801,0.046733442693948746,0.03508065268397331
0.004609741270542145,0.0011172427330166101,-0.03819098323583603,-0.2891073524951935,0.046952955424785614,0.03506840020418167
0.004639165010303259,0.0010775293922051787,-0.0380416102707386,-0.28935539722442627,0.047173306345939636,0.03505637124180794
0.004669712856411934,0.0010370851960033178,-0.03789232671260834,-0.2896009683609009,0.047394488006830215,0.03504452854394913
0.004701369907706976,0.000995953450910747,-0.037743132561445236,-0.2898440659046173,0.047616492956876755,0.03503284230828285
0.0047341203317046165,0.000954177463427186,-0.037594024091959,-0.29008474946022034,0.047839317470788956,0.035021282732486725
0.004767946433275938,0.0009118010639213026,-0.037445005029439926,-0.29032301902770996,0.04806295409798622,0.035009827464818954
0.004802829120308161,0.0008688700618222356,-0.03729608282446861,-0.29055890440940857,0.04828741028904915,0.03499844670295715
0.004838748835027218,0.0008254323620349169,-0.03714726120233536,-0.29079243540763855,0.048512689769268036,0.034987132996320724
0.004875684157013893,0.0007815411663614213,-0.036998551338911057,-0.2910236120223999,0.04873879253864288,0.03497586399316788
0.004913613200187683,0.0007372538675554097,-0.03684995695948601,-0.2912525236606598,0.04896572604775429,0.034964628517627716
0.0049525112845003605,0.0006926375208422542,-0.036701496690511703,-0.2914791405200958,0.04919349402189255,0.034953419119119644
0.0049923500046133995,0.0006477715796791017,-0.03655317798256874,-0.2917034924030304,0.04942210391163826,0.03494223207235336
0.005033079534769058,0.0006027764757163823,-0.03640495613217354,-0.2919256091117859,0.04965157434344292,0.03493117541074753
0.005074666813015938,0.0005577669362537563,-0.03625679388642311,-0.2921454906463623,0.049881864339113235,0.034920353442430496
0.0051170773804187775,0.0005128675256855786,-0.036108702421188354,-0.29236316680908203,0.050112899392843246,0.034909870475530624
0.005160273052752018,0.0004682137514464557,-0.03596073016524315,-0.29257866740226746,0.0503445602953434,0.03489985316991806
0.005204209126532078,0.0004239648988004774,-0.03581298142671585,-0.29279202222824097,0.05057668685913086,0.03489042818546295
0.005248832516372204,0.0003803105209954083,-0.035665612667798996,-0.29300323128700256,0.05080904811620712,0.03488176688551903
0.0052940803579986095,0.0003374857478775084,-0.03551885858178139,-0.293212354183197,0.051041338592767715,0.034874070435762405
0.005339876748621464,0.0002957815886475146,-0.03537303954362869,-0.29341939091682434,0.05127313360571861,0.03486759960651398
0.0053861127234995365,0.0002555743558332324,-0.035228561609983444,-0.2936243712902069,0.05150388553738594,0.03486271947622299
0.005432642996311188,0.00021735303744208068,-0.03508595749735832,-0.2938272953033447,0.0517328679561615,0.03485991433262825
0.005479366984218359,0.00018137492588721216,-0.0349455401301384,-0.2940281927585602,0.051959626376628876,0.03485966473817825
0.005526276305317879,0.00014755557640455663,-0.034807272255420685,-0.29422712326049805,0.052184201776981354,0.03486208617687225
0.005573356058448553,0.0001159098683274351,-0.03467116877436638,-0.29442405700683594,0.052406586706638336,0.034867122769355774
0.005620596930384636,8.64054454723373e-05,-0.0345371812582016,-0.29461902379989624,0.05262678489089012,0.03487484157085419
0.00566799147054553,5.904874706175178e-05,-0.034405313432216644,-0.29481202363967896,0.05284479260444641,0.0348852165043354
0.005715531297028065,3.3816235372796655e-05,-0.03427553176879883,-0.29500311613082886,0.05306060612201691,0.0348982997238636
0.005763208027929068,1.0709822163335048e-05,-0.03414783254265785,-0.29519227147102356,0.05327421799302101,0.034914083778858185
0.005811012350022793,-1.028640144795645e-05,-0.034022197127342224,-0.29537954926490784,0.05348561704158783,0.03493261709809303
0.005858936812728643,-2.9173172151786275e-05,-0.033898621797561646,-0.2955649495124817,0.05369480326771736,0.034953922033309937
0.005906977225095034,-4.596928192768246e-05,-0.03377707302570343,-0.2957485020160675,0.0539017915725708,0.03497804328799248
0.005955133121460676,-6.0679318266920745e-05,-0.033657532185316086,-0.2959302067756653,0.05410660058259964,0.03500501066446304
0.006003401707857847,-7.331416418310255e-05,-0.03353997319936752,-0.2961100935935974,0.05430925264954567,0.03503488004207611
0.006051779258996248,-8.38733249111101e-05,-0.03342438489198685,-0.29628822207450867,0.05450977012515068,0.03506769612431526
0.006100261118263006,-9.235822653863579e-05,-0.03331074118614197,-0.29646456241607666,0.05470817908644676,0.03510352596640587
0.006148851942270994,-9.878498531179503e-05,-0.033199019730091095,-0.2966391444206238,0.05490449443459511,0.03514242544770241
0.0061975689604878426,-0.00010319244756828994,-0.033089179545640945,-0.2968119978904724,0.05509871616959572,0.035184428095817566
0.006246429402381182,-0.0001056127148331143,-0.03298119455575943,-0.29698312282562256,0.055290840566158295,0.035229556262493134
0.006295452825725079,-0.00010608410957502201,-0.032875027507543564,-0.2971525192260742,0.05548086017370224,0.035277847200632095
0.0063446443527936935,-0.0001050063656293787,-0.0327705554664135,-0.2973202168941498,0.05566878616809845,0.035329338163137436
0.006394009105861187,-0.00010240673873340711,-0.03266797587275505,-0.29748624563217163,0.05585452914237976,0.03538379818201065
0.006443541496992111,-9.790739568416029e-05,-0.03256724029779434,-0.29765060544013977,0.05603810399770737,0.03544146195054054
0.006493318825960159,-9.164343646261841e-05,-0.03246815502643585,-0.2978133261203766,0.05621956288814545,0.03550257533788681
0.00654338113963604,-8.359068306162953e-05,-0.03237074986100197,-0.29797443747520447,0.056398872286081314,0.0355670340359211
0.0065937587060034275,-7.383921911241487e-05,-0.03227493166923523,-0.2981339395046234,0.056576039642095566,0.035635028034448624
0.006644487380981445,-6.239819776965305e-05,-0.032180704176425934,-0.2982918620109558,0.05675103887915611,0.035706546157598495
0.0066956025548279285,-4.9340502300765365e-05,-0.03208799287676811,-0.29844820499420166,0.056923866271972656,0.03578174486756325
0.006747134029865265,-3.4667871659621596e-05,-0.03199681267142296,-0.29860296845436096,0.05709449574351311,0.03586059436202049
0.006799103692173958,-1.8417516912450083e-05,-0.031907130032777786,-0.2987562119960785,0.057262904942035675,0.035943157970905304
0.006851533893495798,-5.978581611998379e-07,-0.03181895241141319,-0.29890790581703186,0.05742906779050827,0.03602942079305649
0.0069044483825564384,1.876314854598604e-05,-0.03173225745558739,-0.29905807971954346,0.057592958211898804,0.03611942380666733
0.0069578723050653934,3.9653601561440155e-05,-0.03164704516530037,-0.29920676350593567,0.05775454640388489,0.03621317818760872
0.007011835463345051,6.205471436260268e-05,-0.031563322991132736,-0.2993539571762085,0.05791379511356354,0.03631068766117096
0.007066366262733936,8.595359395258129e-05,-0.031481098383665085,-0.2994996905326843,0.05807067081332207,0.03641194850206375
0.007121494505554438,0.00011133528460050002,-0.031400375068187714,-0.29964396357536316,0.05822513625025749,0.03651697188615799
0.007177251856774092,0.0001381868787575513,-0.03132116422057152,-0.2997868061065674,0.05837714672088623,0.036625757813453674
0.007233669050037861,0.00016649605822749436,-0.031243467703461647,-0.299928218126297,0.058526668697595596,0.0367383137345314
0.007290777750313282,0.00019625216373242438,-0.031167292967438698,-0.3000682294368744,0.05867365747690201,0.03685464337468147
0.007348611950874329,0.00022744442685507238,-0.03109264373779297,-0.30020684003829956,0.05881807208061218,0.03697476536035538
0.007407203782349825,0.00026006530970335007,-0.031019525602459908,-0.3003440499305725,0.05895987153053284,0.03709869086742401
0.00746658630669117,0.000294107390800491,-0.030947942286729813,-0.3004798889160156,0.05909901112318039,0.03722642734646797
0.007526791654527187,0.0003295661590527743,-0.030877897515892982,-0.3006143867969513,0.05923544615507126,0.03735799342393875
0.00758785055950284,0.00036643934436142445,-0.030809389427304268,-0.3007475435733795,0.05936913564801216,0.037493400275707245
0.007649790495634079,0.00040472738328389823,-0.03074241802096367,-0.3008793592453003,0.059500038623809814,0.03763266280293465
0.007712609600275755,0.0004444145015440881,-0.030676987022161484,-0.301009863615036,0.059628117829561234,0.03777574375271797
0.007776256185024977,0.00048547881306149065,-0.030613115057349205,-0.30113905668258667,0.059753336012363434,0.03792250528931618
0.007840659469366074,0.0005279247416183352,-0.030550822615623474,-0.30126699805259705,0.05987566336989403,0.03807276487350464
0.007905738428235054,0.000571759301237762,-0.030490104109048843,-0.30139365792274475,0.05999508127570152,0.03822636231780052
0.007971394807100296,0.0006170064443722367,-0.03043094463646412,-0.3015190362930298,0.06011158227920532,0.03838313743472099
0.008037504740059376,0.0006637012702412903,-0.030373306944966316,-0.30164316296577454,0.06022518128156662,0.038542937487363815
0.008103911764919758,0.0007119029178284109,-0.030317142605781555,-0.301766037940979,0.0603359080851078,0.038705602288246155
0.008170410059392452,0.0007616987568326294,-0.030262362211942673,-0.3018876910209656,0.06044382229447365,0.038870979100465775
0.008236721158027649,0.0008132204529829323,-0.030208850279450417,-0.30200812220573425,0.06054901331663132,0.03903890401124954
0.008302460424602032,0.0008666567737236619,-0.030156435444951057,-0.3021273612976074,0.06065159663558006,0.039209213107824326
0.008367082104086876,0.0009222790831699967,-0.030104877427220345,-0.3022453784942627,0.06075174733996391,0.0393817164003849
0.00842982530593872,0.0009804752189666033,-0.03005385398864746,-0.30236220359802246,0.060849688947200775,0.03955620527267456
0.00849035382270813,0.0010414402931928635,-0.030003197491168976,-0.3024778664112091,0.060945555567741394,0.039732497185468674
0.008548629470169544,0.001105165109038353,-0.029952868819236755,-0.30259236693382263,0.061039358377456665,0.03991049528121948
0.008604642935097218,0.0011716020526364446,-0.02990288846194744,-0.3027057349681854,0.0611310638487339,0.040090061724185944
0.008658383972942829,0.0012406939640641212,-0.02985328622162342,-0.3028179705142975,0.06122062727808952,0.040271081030368805
0.008709851652383804,0.0013123824028298259,-0.029804106801748276,-0.3029290735721588,0.06130799651145935,0.040453437715768814
0.00875905156135559,0.0013866052031517029,-0.02975538745522499,-0.3030391037464142,0.0613931268453598,0.040637027472257614
0.008805995807051659,0.0014632991515100002,-0.029707172885537148,-0.3031480312347412,0.0614759661257267,0.040821731090545654
0.00885070487856865,0.0015423980075865984,-0.029659509658813477,-0.3032558560371399,0.06155646964907646,0.041007447987794876
0.008893209509551525,0.001623836113139987,-0.029612449929118156,-0.3033626079559326,0.06163458898663521,0.04119407758116722
0.008933546021580696,0.0017075450159609318,-0.029566042125225067,-0.3034682869911194,0.06171026825904846,0.04138151556253433
0.008971759118139744,0.001793458010070026,-0.029520343989133835,-0.3035729229450226,0.06178346276283264,0.04156965762376785
0.009007901884615421,0.0018815076909959316,-0.029475411400198936,-0.3036765456199646,0.06185412406921387,0.04175841063261032
0.009042033925652504,0.001971628051251173,-0.029431305825710297,-0.30377912521362305,0.06192220374941826,0.04194767400622368
0.009074226021766663,0.0020637530833482742,-0.02938809245824814,-0.3038806915283203,0.061987657099962234,0.042137350887060165
0.009104547090828419,0.002157820388674736,-0.029345836490392685,-0.3039812445640564,0.062050435692071915,0.04232737421989441
0.009133067913353443,0.002253773622214794,-0.029304610565304756,-0.3040807843208313,0.06211048737168312,0.042517680674791336
0.009159869514405727,0.002351560164242983,-0.02926449291408062,-0.3041793704032898,0.06216776371002197,0.04270821809768677
0.00918504223227501,0.0024511271622031927,-0.02922556921839714,-0.3042769432067871,0.06222222000360489,0.04289893060922623
0.009208690375089645,0.00255242339335382,-0.02918793074786663,-0.304373562335968,0.062273815274238586,0.04308976233005524
0.009230898693203926,0.0026554050855338573,-0.02915164642035961,-0.30446919798851013,0.06232248619198799,0.04328065738081932
0.009251709096133709,0.0027600517496466637,-0.02911675162613392,-0.30456387996673584,0.06236814334988594,0.04347151517868042
0.009271166287362576,0.0028663601260632277,-0.029083289206027985,-0.30465763807296753,0.06241069361567497,0.04366220161318779
0.009289315901696682,0.0029743295162916183,-0.0290512852370739,-0.3047504723072052,0.062450047582387924,0.04385257512331009
0.009306208230555058,0.0030839673709124327,-0.029020773246884346,-0.30484238266944885,0.062486112117767334,0.04404246062040329
0.009321886114776134,0.0031952576246112585,-0.02899174951016903,-0.3049333691596985,0.06251884251832962,0.04423169419169426
0.009336343966424465,0.003308116225525737,-0.028964150696992874,-0.3050234317779541,0.06254829466342926,0.04442015662789345
0.009349511936306953,0.0034224658738821745,-0.028937935829162598,-0.3051126003265381,0.06257450580596924,0.04460776224732399
0.009361304342746735,0.0035382325295358896,-0.028913073241710663,-0.30520087480545044,0.06259752064943314,0.04479440301656723
0.009371649473905563,0.003655318170785904,-0.028889508917927742,-0.30528828501701355,0.06261742115020752,0.04497995972633362
0.009380480274558067,0.0037736163940280676,-0.02886718325316906,-0.3053748309612274,0.06263430416584015,0.045164283365011215
0.009387723170220852,0.0038930235896259546,-0.02884603478014469,-0.30546051263809204,0.06264825165271759,0.045347243547439575
0.00939329992979765,0.004013438243418932,-0.028826003894209862,-0.3055453598499298,0.062659353017807,0.045528702437877655
0.00939712580293417,0.004134758375585079,-0.028807029128074646,-0.30562934279441833,0.06266768276691437,0.04570853337645531
0.0093991095200181,0.004256884567439556,-0.02878904715180397,-0.30571249127388,0.06267333030700684,0.04588660970330238
0.009399153292179108,0.004379713907837868,-0.02877199463546276,-0.3057948052883148,0.06267637014389038,0.04606280103325844
0.009397147223353386,0.004503144416958094,-0.028755808249115944,-0.3058762848377228,0.06267687678337097,0.04623698443174362
0.00939298514276743,0.004627084359526634,-0.02874043770134449,-0.30595698952674866,0.06267492473125458,0.0464089959859848
0.009386568330228329,0.004751445725560188,-0.028725845739245415,-0.30603688955307007,0.06267055869102478,0.04657866060733795
0.009377813898026943,0.004876152146607637,-0.028711998835206032,-0.306115984916687,0.06266383081674576,0.04674583673477173
0.009366667829453945,0.005001145415008068,-0.028698870912194252,-0.3061943054199219,0.06265480071306229,0.04691043496131897
0.009353089146316051,0.005126362666487694,-0.02868643030524254,-0.30627182126045227,0.06264351308345795,0.04707237333059311
0.009337037801742554,0.00525174243375659,-0.02867465279996395,-0.3063485622406006,0.06263002753257751,0.047231562435626984
0.00931847095489502,0.00537722185254097,-0.028663506731390953,-0.3064245879650116,0.06261438131332397,0.047387924045324326
0.009297345764935017,0.0055027371272444725,-0.028652967885136604,-0.3064998388290405,0.0625966265797615,0.04754136502742767
0.009273623116314411,0.005628213752061129,-0.028643008321523666,-0.30657434463500977,0.0625767782330513,0.04769180715084076
0.009247265756130219,0.00575357535853982,-0.028633613139390945,-0.3066481053829193,0.06255484372377396,0.04783915355801582
0.00921823550015688,0.005878741387277842,-0.0286247655749321,-0.30672112107276917,0.06253081560134888,0.0479833222925663
0.00918649137020111,0.0060036322101950645,-0.02861645072698593,-0.3067934513092041,0.06250468641519547,0.04812420532107353
0.009151987731456757,0.006128164008259773,-0.02860865741968155,-0.30686503648757935,0.06247644126415253,0.048261720687150955
0.00911468081176281,0.006252255290746689,-0.02860138565301895,-0.3069359064102173,0.06244604289531708,0.04839580878615379
0.009074529632925987,0.006375819910317659,-0.028594642877578735,-0.3070060610771179,0.062413450330495834,0.048526398837566376
0.009031487628817558,0.006498768460005522,-0.028588436543941498,-0.30707553029060364,0.06237860769033432,0.04865342751145363
0.008985502645373344,0.006621009204536676,-0.028582777827978134,-0.3071443438529968,0.06234147027134895,0.048776816576719284
0.008936518803238869,0.006742446683347225,-0.028577683493494987,-0.3072124719619751,0.06230197846889496,0.04889649152755737
0.008884445764124393,0.006862975191324949,-0.02857314422726631,-0.30727991461753845,0.06226012855768204,0.049012258648872375
0.008829156868159771,0.0069824825040996075,-0.02856912836432457,-0.3073466718196869,0.062215931713581085,0.04912389814853668
0.008770514279603958,0.00710085965692997,-0.02856561727821827,-0.3074128031730652,0.0621693879365921,0.049231186509132385
0.00870838575065136,0.007218008860945702,-0.028562603518366814,-0.30747824907302856,0.06212048977613449,0.04933392256498337
0.008642694912850857,0.007333909627050161,-0.028560109436511993,-0.3075430691242218,0.06206931173801422,0.049431946128606796
0.008573400788009167,0.007448531687259674,-0.028558118268847466,-0.3076072335243225,0.06201595813035965,0.04952526465058327
0.008500478230416775,0.007561857346445322,-0.028556646779179573,-0.3076707422733307,0.06196052208542824,0.0496138371527195
0.008423920720815659,0.007673860527575016,-0.02855568751692772,-0.3077336549758911,0.061903104186058044,0.04969765245914459
0.00834375899285078,0.007784518878906965,-0.028555231168866158,-0.3077959418296814,0.06184378266334534,0.04977662116289139
0.00826029758900404,0.007893822155892849,-0.02855527400970459,-0.3078576326370239,0.061782676726579666,0.0498507097363472
0.008174185641109943,0.00800171960145235,-0.028555724769830704,-0.3079186677932739,0.06171979382634163,0.04992006719112396
0.008084746077656746,0.008108187466859818,-0.028556514531373978,-0.30797910690307617,0.061655193567276,0.0499848835170269
0.00799181405454874,0.008213285356760025,-0.02855777181684971,-0.30803894996643066,0.06158895045518875,0.050044625997543335
0.007895326241850853,0.00831694807857275,-0.028559347614645958,-0.3080981969833374,0.06152111664414406,0.050099607557058334
0.007795280311256647,0.008419224992394447,-0.028561338782310486,-0.3081568479537964,0.06145171448588371,0.050149522721767426
0.007691672537475824,0.008520062081515789,-0.028563644737005234,-0.30821493268013,0.061380766332149506,0.05019465833902359
0.007584519684314728,0.008619497530162334,-0.028566347435116768,-0.30827242136001587,0.06130826100707054,0.050234824419021606
0.0074738250114023685,0.008717498742043972,-0.02856939099729061,-0.30832937359809875,0.06123415008187294,0.050270311534404755
0.007359611336141825,0.008814104832708836,-0.028572876006364822,-0.3083857595920563,0.061158325523138046,0.050301071256399155
0.007241899613291025,0.008909300900995731,-0.028576809912919998,-0.3084415793418884,0.06108064204454422,0.05032740533351898
0.007120730355381966,0.009003129787743092,-0.028581328690052032,-0.3084968328475952,0.06100086495280266,0.05034938454627991
0.006996149197220802,0.009095598012208939,-0.02858651429414749,-0.308551549911499,0.06091868877410889,0.05036737024784088
0.006868223659694195,0.009186752140522003,-0.028592554852366447,-0.30860573053359985,0.06083375960588455,0.05038151890039444
0.006737013813108206,0.009276563301682472,-0.028599461540579796,-0.3086593747138977,0.060746096074581146,0.05039190873503685
0.006602535955607891,0.00936502031981945,-0.028607213869690895,-0.3087124824523926,0.06065572053194046,0.05039859190583229
0.006464800331741571,0.00945211760699749,-0.028615789487957954,-0.3087650537490845,0.06056266278028488,0.05040160194039345
0.0063239047303795815,0.009537812322378159,-0.02862517721951008,-0.3088171184062958,0.060467012226581573,0.05040101334452629
0.006180001888424158,0.009622029960155487,-0.02863537147641182,-0.3088686764240265,0.06036890670657158,0.050396960228681564
0.006033238023519516,0.009704701602458954,-0.02864636667072773,-0.3089197278022766,0.06026845797896385,0.050389569252729416
0.0058837453834712505,0.009785765781998634,-0.028658155351877213,-0.30897027254104614,0.06016574800014496,0.0503789559006691
0.005731634795665741,0.009865161031484604,-0.028670720756053925,-0.3090203106403351,0.06006086245179176,0.050365254282951355
0.00557693699374795,0.009942795149981976,-0.028684018179774284,-0.3090698719024658,0.05995388329029083,0.05034879595041275
0.005419667344540358,0.010018599219620228,-0.028698068112134933,-0.30911892652511597,0.05984487384557724,0.05032972991466522
0.005259837955236435,0.010092495009303093,-0.028712844476103783,-0.3091675043106079,0.05973387882113457,0.050308290868997574
0.00509747164323926,0.010164429433643818,-0.028728345409035683,-0.30921560525894165,0.0596209317445755,0.050284575670957565
0.0049325996078550816,0.010234340094029903,-0.028744535520672798,-0.3092632293701172,0.05950604006648064,0.050258737057447433
0.004765266086906195,0.010302186943590641,-0.02876139245927334,-0.3093103766441345,0.05938920006155968,0.05023083835840225
0.0045955246314406395,0.010367922484874725,-0.028778867796063423,-0.30935707688331604,0.059270381927490234,0.05020096153020859
0.00442344369366765,0.010431512258946896,-0.028796914964914322,-0.30940330028533936,0.05914954096078873,0.050169121474027634
0.0042491029016673565,0.010492919944226742,-0.028815463185310364,-0.30944907665252686,0.05902661010622978,0.05013534426689148
0.00407260050997138,0.010552113875746727,-0.028834441676735878,-0.30949437618255615,0.05890149250626564,0.05009959638118744
0.003894051071256399,0.010609063319861889,-0.0288537610322237,-0.30953922867774963,0.05877406895160675,0.050061844289302826
0.003713893936946988,0.01066379901021719,-0.02887323684990406,-0.3095836341381073,0.058644287288188934,0.05002224072813988
0.0035336357541382313,0.01071654912084341,-0.028892366215586662,-0.30962762236595154,0.05851239338517189,0.04998171329498291
0.0033547692000865936,0.01076749712228775,-0.028910597786307335,-0.30967116355895996,0.05837864801287651,0.04994110390543938
0.0031784495804458857,0.010816780850291252,-0.028927484527230263,-0.30971428751945496,0.05824318900704384,0.04990094527602196
0.0030055397655814886,0.010864496231079102,-0.02894265577197075,-0.30975696444511414,0.05810604244470596,0.04986155033111572
0.0028367023915052414,0.010910715907812119,-0.02895580232143402,-0.3097992241382599,0.05796714499592781,0.04982304573059082
0.002672464121133089,0.010955492034554482,-0.02896665222942829,-0.3098410665988922,0.057826366275548935,0.049785446375608444
0.0025132615119218826,0.010998868383467197,-0.028974954038858414,-0.3098824918270111,0.05768352001905441,0.04974866285920143
0.002359468024224043,0.011040878482162952,-0.028980467468500137,-0.3099234998226166,0.05753837153315544,0.049712538719177246
0.0022114154417067766,0.01108155120164156,-0.028982961550354958,-0.3099640905857086,0.05739065259695053,0.04967685788869858
0.0020694048143923283,0.011120917275547981,-0.02898220904171467,-0.31000426411628723,0.057240042835474014,0.04964136704802513
0.0019337187986820936,0.011159030720591545,-0.028978006914258003,-0.3100440502166748,0.05708615854382515,0.04960578680038452
0.0018045388860628009,0.011195960454642773,-0.02897024154663086,-0.31008344888687134,0.056928761303424835,0.04956992715597153
0.0016817970899865031,0.011231785640120506,-0.028958987444639206,-0.31012243032455444,0.05676804855465889,0.04953386262059212
0.0015653792070224881,0.011266526766121387,-0.02894427627325058,-0.3101610243320465,0.05660422146320343,0.04949779063463211
0.0014551818603649735,0.011300214566290379,-0.028926178812980652,-0.31019923090934753,0.056437455117702484,0.04946177080273628
0.0013510879362002015,0.011332856491208076,-0.028904734179377556,-0.3102370798587799,0.05626792833209038,0.04942593723535538
0.0012529944069683552,0.011364461854100227,-0.02887999452650547,-0.31027454137802124,0.05609580874443054,0.049390360713005066
0.0011608052300289273,0.011395018547773361,-0.02885199338197708,-0.31031161546707153,0.055921267718076706,0.049355171620845795
0.0010744290193542838,0.011424521915614605,-0.028820795938372612,-0.3103483319282532,0.055744469165802,0.049320437014102936
0.000993733643554151,0.011452996172010899,-0.028786491602659225,-0.3103846609592438,0.05556555837392807,0.049286194145679474
0.0009185860981233418,0.011480455286800861,-0.028749143704771996,-0.3104206323623657,0.05538468435406685,0.049252502620220184
0.0008488641469739377,0.01150690857321024,-0.028708817437291145,-0.310456246137619,0.05520199239253998,0.049219392240047455
0.0007844523061066866,0.011532359756529331,-0.028665563091635704,-0.31049150228500366,0.0550176203250885,0.049186911433935165
0.0007252432405948639,0.011556806974112988,-0.028619427233934402,-0.31052640080451965,0.05483170226216316,0.049155093729496
0.0006711017340421677,0.011580295860767365,-0.02857052907347679,-0.3105609714984894,0.05464435741305351,0.049123913049697876
0.0006218825001269579,0.011602860875427723,-0.02851898968219757,-0.31059518456459045,0.0544557049870491,0.04909338429570198
0.0005774465971626341,0.011624534614384174,-0.028464937582612038,-0.31062906980514526,0.05426585674285889,0.04906350001692772
0.0005376560147851706,0.011645348742604256,-0.028408488258719444,-0.3106625974178314,0.05407491698861122,0.04903425648808479
0.0005023773992434144,0.011665335856378078,-0.02834976091980934,-0.3106957972049713,0.05388298258185387,0.0490056611597538
0.00047148053999990225,0.011684533208608627,-0.028288869187235832,-0.31072866916656494,0.05369012802839279,0.04897771775722504
0.000444839388364926,0.011702973395586014,-0.028225919231772423,-0.3107611835002899,0.05349643528461456,0.048950422555208206
0.00042233275598846376,0.011720689944922924,-0.02816101722419262,-0.31079337000846863,0.05330197885632515,0.04892377927899361
0.0004038427723571658,0.011737714521586895,-0.02809426374733448,-0.3108252286911011,0.05310682952404022,0.04889778047800064
0.0003892559907399118,0.011754077859222889,-0.028025751933455467,-0.31085675954818726,0.052911050617694855,0.04887242987751961
0.00037846184568479657,0.011769809760153294,-0.02795557677745819,-0.31088799238204956,0.05271470546722412,0.04884772375226021
0.0003713542246259749,0.011784937232732773,-0.027883825823664665,-0.3109188973903656,0.0525178536772728,0.04882366210222244
0.00036760972579941154,0.011799477972090244,-0.02781057357788086,-0.31094950437545776,0.05232054740190506,0.048800233751535416
0.00036656318116001785,0.011813478544354439,-0.027735916897654533,-0.31097981333732605,0.052122823894023895,0.04877738282084465
0.0003689069126266986,0.011826992966234684,-0.027659956365823746,-0.31100982427597046,0.051924675703048706,0.048755016177892685
0.00037454752600751817,0.011839997954666615,-0.027582712471485138,-0.311039537191391,0.051726244390010834,0.04873334988951683
0.0003834151430055499,0.01185255590826273,-0.027504323050379753,-0.31106895208358765,0.05152752250432968,0.04871224984526634
0.0003954225976485759,0.011864759027957916,-0.02742491289973259,-0.3110980689525604,0.051328424364328384,0.048691630363464355
0.0004104927065782249,0.011876706033945084,-0.027344614267349243,-0.3111268877983093,0.051128875464200974,0.048671379685401917
0.0004285484319552779,0.011888486333191395,-0.027263538911938667,-0.31115540862083435,0.050928808748722076,0.04865141585469246
0.00044951759628020227,0.011900189332664013,-0.027181798592209816,-0.3111836612224579,0.05072815343737602,0.04863164201378822
0.00047333032125607133,0.011911900714039803,-0.027099501341581345,-0.31121161580085754,0.05052684247493744,0.04861199110746384
0.0004999210359528661,0.011923703365027905,-0.02701674774289131,-0.3112393021583557,0.05032480135560036,0.04859238117933273
0.0005292303394526243,0.011935672722756863,-0.026933634653687477,-0.3112667202949524,0.05012197047472,0.048572737723588943
0.0005612011882476509,0.011947882361710072,-0.026850255206227303,-0.3112938404083252,0.049918271601200104,0.04855300113558769
0.0005957824178040028,0.011960403062403202,-0.0267667006701231,-0.3113206923007965,0.04971364140510559,0.048533108085393906
0.0006329275784082711,0.011973303742706776,-0.026683053001761436,-0.31134727597236633,0.049507997930049896,0.048513010144233704
0.0006725973216816783,0.011986653320491314,-0.026599392294883728,-0.31137359142303467,0.049301255494356155,0.0484926775097847
0.000714758993126452,0.012000519782304764,-0.026515791192650795,-0.3113996386528015,0.04909331724047661,0.0484720878303051
0.0007593893096782267,0.012014975771307945,-0.02643231861293316,-0.31142544746398926,0.0488840751349926,0.04845124110579491
0.0008064786088652909,0.01203009020537138,-0.026349039748311043,-0.3114509880542755,0.04867340251803398,0.04843015596270561
0.0008560353307984769,0.012045937590301037,-0.026266010478138924,-0.3114762604236603,0.04846113547682762,0.048408884555101395
0.0009080850868485868,0.012062597088515759,-0.02618328668177128,-0.31150129437446594,0.0482470877468586,0.04838750138878822
0.0009626731043681502,0.012080158106982708,-0.026100920513272285,-0.3115260601043701,0.048031024634838104,0.04836612194776535
0.0010198713280260563,0.012098722159862518,-0.026018958538770676,-0.3115505576133728,0.04781265929341316,0.04834490269422531
0.0010797830764204264,0.012118411250412464,-0.02593744918704033,-0.3115748167037964,0.04759163036942482,0.04832405224442482
0.0011425553821027279,0.012139374390244484,-0.025856437161564827,-0.31159883737564087,0.04736747220158577,0.04830385372042656
0.0012083875481039286,0.012161795981228352,-0.02577596716582775,-0.31162261962890625,0.04713960364460945,0.04828465357422829
0.0012773718917742372,0.012185822241008282,-0.025696173310279846,-0.31164616346359253,0.046907756477594376,0.04826638475060463
0.0013494511367753148,0.012211521156132221,-0.02561717852950096,-0.3116694688796997,0.046671926975250244,0.048248812556266785
0.0014245553174987435,0.012238954193890095,-0.025539087131619453,-0.3116925358772278,0.046432070434093475,0.04823174700140953
0.0015026149339973927,0.012268176302313805,-0.02546200156211853,-0.31171536445617676,0.046188194304704666,0.048214975744485855
0.0015835299855098128,0.012299209833145142,-0.025385990738868713,-0.311737984418869,0.045940592885017395,0.04819823056459427
0.0016671952325850725,0.012332065962255001,-0.025311093777418137,-0.3117603659629822,0.045689549297094345,0.04818130284547806
0.0017535147489979863,0.012366763316094875,-0.025237349793314934,-0.3117825388908386,0.045435335487127304,0.048163969069719315
0.0018423941219225526,0.012403309345245361,-0.02516479231417179,-0.31180447340011597,0.04517821967601776,0.04814603552222252
0.0019337405683472753,0.012441711500287056,-0.025093451142311096,-0.3118261992931366,0.04491845890879631,0.04812730476260185
0.0020274564158171415,0.01248196605592966,-0.02502334862947464,-0.3118476867675781,0.044656310230493546,0.04810759425163269
0.0021234501618891954,0.012524071149528027,-0.024954503402113914,-0.31186893582344055,0.04439201578497887,0.048086732625961304
0.0022216313518583775,0.012568020261824131,-0.024886934086680412,-0.31188997626304626,0.04412581026554108,0.04806455224752426
0.0023219138383865356,0.012613804079592228,-0.02482065185904503,-0.31191080808639526,0.043857917189598083,0.04804089665412903
0.0024242133367806673,0.012661413289606571,-0.024755673483014107,-0.31193143129348755,0.0435885526239872,0.04801560938358307
0.0025284478906542063,0.012710836715996265,-0.024692010134458542,-0.3119518458843231,0.043317921459674835,0.04798854887485504
0.002634539967402816,0.012762059457600117,-0.024629665538668633,-0.311972051858902,0.04304621368646622,0.047959599643945694
0.0027424197178333998,0.012815064750611782,-0.024568641558289528,-0.3119920790195465,0.042773596942424774,0.04792867228388786
0.0028520203195512295,0.012869833037257195,-0.024508940055966377,-0.3120118975639343,0.04250022768974304,0.04789568856358528
0.002963275881484151,0.012926341034471989,-0.02445056103169918,-0.31203150749206543,0.04222624748945236,0.04786057770252228
0.003076110268011689,0.012984544038772583,-0.024393495172262192,-0.3120509386062622,0.04195177182555199,0.04782327264547348
0.0031904506031423807,0.013044394552707672,-0.02433774247765541,-0.31207016110420227,0.041676897555589676,0.047783706337213516
0.0033062263391911983,0.013105846010148525,-0.02428329922258854,-0.312089204788208,0.04140172153711319,0.047741807997226715
0.003423369489610195,0.013168854638934135,-0.02423015981912613,-0.31210801005363464,0.041126325726509094,0.0476975291967392
0.0035418143961578608,0.013233374804258347,-0.024178316816687584,-0.31212663650512695,0.040850795805454254,0.04765082523226738
0.003661497263237834,0.013299362733960152,-0.024127764627337456,-0.31214508414268494,0.040575217455625534,0.04760165885090828
0.003782357322052121,0.013366775587201118,-0.02407849207520485,-0.3121633529663086,0.0402996651828289,0.04755000025033951
0.00390434917062521,0.013435573317110538,-0.024030493572354317,-0.31218141317367554,0.04002419859170914,0.04749581962823868
0.004027434624731541,0.013505714014172554,-0.023983756080269814,-0.31219929456710815,0.039748869836330414,0.0474390871822834
0.004151580389589071,0.013577153906226158,-0.023938274011015892,-0.31221699714660645,0.03947373479604721,0.047379784286022186
0.004276757128536701,0.013649849221110344,-0.023894034326076508,-0.3122345209121704,0.039198845624923706,0.04731788858771324
0.004402937367558479,0.013723757117986679,-0.023851027712225914,-0.31225189566612244,0.03892424330115318,0.047253385186195374
0.004530095495283604,0.01379883661866188,-0.023809242993593216,-0.31226909160614014,0.038649968802928925,0.04718626290559769
0.004658208694308996,0.01387504767626524,-0.023768668994307518,-0.3122861087322235,0.03837605565786362,0.047116514295339584
0.004787256941199303,0.013952352106571198,-0.023729292675852776,-0.31230294704437256,0.03810253366827965,0.047044139355421066
0.0049172211438417435,0.014030711725354195,-0.023691102862358093,-0.31231963634490967,0.037829428911209106,0.046969130635261536
0.005048085004091263,0.014110090211033821,-0.023654088377952576,-0.31233614683151245,0.037556760013103485,0.04689149186015129
0.005179833620786667,0.014190450310707092,-0.023618239909410477,-0.3123524785041809,0.03728454187512398,0.04681123048067093
0.005312452558428049,0.014271748252213001,-0.023583542555570602,-0.3123686611652374,0.03701280429959297,0.04672832414507866
0.0054459297098219395,0.014353937469422817,-0.02354998141527176,-0.312384694814682,0.03674157336354256,0.046642765402793884
0.005580254830420017,0.01443697139620781,-0.0235175471752882,-0.31240054965019226,0.036470863968133926,0.04655454307794571
0.005715417675673962,0.014520804397761822,-0.023486226797103882,-0.3124162554740906,0.036200687289237976,0.04646364226937294
0.005851409398019314,0.014605386182665825,-0.023456010967493057,-0.31243181228637695,0.035931069403886795,0.04637005552649498
0.005988217890262604,0.014690645039081573,-0.023426901549100876,-0.312447190284729,0.035662032663822174,0.04627378657460213
0.0061258310452103615,0.014776505529880524,-0.023398905992507935,-0.3124624192714691,0.0353936068713665,0.046174827963113785
0.006264236755669117,0.014862896874547005,-0.02337203174829483,-0.3124774992465973,0.03512580320239067,0.046073175966739655
0.006403426174074411,0.01494975108653307,-0.023346280679106712,-0.3124924302101135,0.03485863283276558,0.04596882313489914
0.006543388590216637,0.01503698993474245,-0.02332165278494358,-0.31250718235969543,0.03459211438894272,0.04586178436875343
0.006684117019176483,0.015124541707336903,-0.023298142477869987,-0.3125217854976654,0.03432626277208328,0.045752059668302536
0.0068256063386797905,0.015212337486445904,-0.023275747895240784,-0.31253623962402344,0.034061070531606674,0.04563964903354645
0.006967850029468536,0.01530031580477953,-0.02325446717441082,-0.31255054473876953,0.033796537667512894,0.04552454873919487
0.007110843900591135,0.01538841798901558,-0.023234298452734947,-0.3125647306442261,0.03353264927864075,0.04540674388408661
0.007254583295434713,0.015476590022444725,-0.02321523427963257,-0.3125787675380707,0.03326939046382904,0.04528621584177017
0.0073990654200315475,0.015564781613647938,-0.023197270929813385,-0.31259265542030334,0.033006735146045685,0.045162949711084366
0.007544288411736488,0.015652943402528763,-0.02318040281534195,-0.3126063942909241,0.03274466097354889,0.0450369194149971
0.007690251339226961,0.015741031616926193,-0.023164622485637665,-0.31262001395225525,0.03248313069343567,0.04490809515118599
0.007836954668164253,0.01582900434732437,-0.023149926215410233,-0.3126334846019745,0.03222210705280304,0.04477645084261894
0.007984398864209652,0.015916820615530014,-0.023136304691433907,-0.3126468360424042,0.03196154534816742,0.044641945511102676
0.008132588118314743,0.01600443199276924,-0.023123741149902344,-0.3126600384712219,0.03170141577720642,0.04450451582670212
0.008281529881060123,0.016091790050268173,-0.02311219833791256,-0.3126731216907501,0.03144170343875885,0.04436405375599861
0.008431232534348965,0.01617884635925293,-0.023101642727851868,-0.3126860558986664,0.031182389706373215,0.0442204549908638
0.008581704460084438,0.01626555249094963,-0.02309204265475273,-0.3126988708972931,0.03092343918979168,0.04407361149787903
0.008732954040169716,0.016351856291294098,-0.023083362728357315,-0.31271156668663025,0.030664797872304916,0.04392345994710922
0.008884983137249947,0.016437705606222153,-0.023075565695762634,-0.31272414326667786,0.030406391248106956,0.0437699593603611
0.009037777781486511,0.01652304083108902,-0.023068612441420555,-0.3127365708351135,0.030148152261972427,0.04361320659518242
0.009191298857331276,0.016607800498604774,-0.023062467575073242,-0.31274887919425964,0.029890025034546852,0.0434534028172493
0.00934547744691372,0.016691943630576134,-0.0230571199208498,-0.3127610683441162,0.02963198535144329,0.04329058527946472
0.009500243701040745,0.016775421798229218,-0.023052552714943886,-0.3127731382846832,0.029374029487371445,0.04312479868531227
0.009655531495809555,0.01685819961130619,-0.02304874360561371,-0.3127850890159607,0.029116151854395866,0.04295608401298523
0.009811281226575375,0.01694023609161377,-0.023045673966407776,-0.3127969205379486,0.02885834313929081,0.04278448596596718
0.009967437945306301,0.017021499574184418,-0.023043325170874596,-0.312808632850647,0.02860059216618538,0.0426100455224514
0.01012395229190588,0.01710195653140545,-0.023041678592562675,-0.3128202259540558,0.02834288962185383,0.04243280366063118
0.010280776768922806,0.017181575298309326,-0.023040715605020523,-0.31283169984817505,0.028085222467780113,0.0422527939081192
0.01043786946684122,0.01726032793521881,-0.023040421307086945,-0.31284305453300476,0.02782757766544819,0.04207005724310875
0.010595191270112991,0.017338186502456665,-0.023040780797600746,-0.3128542900085449,0.027569938451051712,0.041884616017341614
0.010752706788480282,0.01741512306034565,-0.023041777312755585,-0.3128654360771179,0.02731228619813919,0.04169650003314018
0.010910382494330406,0.017491115257143974,-0.023043399676680565,-0.31287646293640137,0.027054598554968834,0.04150572791695595
0.011068187654018402,0.01756613701581955,-0.023045631125569344,-0.31288737058639526,0.02679685689508915,0.0413123220205307
0.011226092465221882,0.017640167847275734,-0.023048462346196175,-0.312898188829422,0.026539035141468048,0.041116293519735336
0.011384071782231331,0.017713183537125587,-0.023051884025335312,-0.3129088878631592,0.02628110535442829,0.04091765359044075
0.011542102321982384,0.017785165458917618,-0.023055877536535263,-0.3129194676876068,0.026023440062999725,0.04071640595793724
0.0117001598700881,0.01785608008503914,-0.02306041307747364,-0.3129299581050873,0.025766076520085335,0.0405125766992569
0.011858227662742138,0.01792590692639351,-0.02306547947227955,-0.3129403293132782,0.025508977472782135,0.040306150913238525
0.012016285210847855,0.017994627356529236,-0.02307107299566269,-0.31295061111450195,0.025252101942896843,0.04009711369872093
0.012174316681921482,0.018062220886349678,-0.023077186197042465,-0.31296077370643616,0.024995407089591026,0.039885446429252625
0.012332305312156677,0.018128668889403343,-0.02308381162583828,-0.3129708468914032,0.024738850072026253,0.03967111557722092
0.012490239925682545,0.01819394901394844,-0.02309095673263073,-0.3129808306694031,0.024481911212205887,0.03945409506559372
0.012648106552660465,0.018258053809404373,-0.023098640143871307,-0.3129906952381134,0.024224484339356422,0.03923431783914566
0.012805894017219543,0.0183209590613842,-0.02310686558485031,-0.31300047039985657,0.023966511711478233,0.039011746644973755
0.012963594868779182,0.018382642418146133,-0.02311563305556774,-0.31301015615463257,0.0237079206854105,0.038786329329013824
0.01312120258808136,0.01844308152794838,-0.023124946281313896,-0.313019722700119,0.023448631167411804,0.038558006286621094
0.013278710655868053,0.01850225031375885,-0.023134812712669373,-0.3130291998386383,0.02318856120109558,0.03832671046257019
0.013436111621558666,0.018560124561190605,-0.023145241662859917,-0.31303858757019043,0.022927625104784966,0.03809236362576485
0.01359337754547596,0.01861668936908245,-0.02315623313188553,-0.3130478858947754,0.022665781900286674,0.0378548726439476
0.013750473968684673,0.018671933561563492,-0.02316777966916561,-0.3130570948123932,0.02240300551056862,0.0376141332089901
0.013907366432249546,0.018725847825407982,-0.02317987009882927,-0.3130662143230438,0.02213926799595356,0.03737004101276398
0.014064017683267593,0.018778419122099876,-0.023192493245005608,-0.3130752444267273,0.021874548867344856,0.037122491747140884
0.014220401644706726,0.01882963441312313,-0.023205609992146492,-0.3130841553211212,0.02160881832242012,0.03687131777405739
0.014376492239534855,0.018879475072026253,-0.02321917936205864,-0.313092976808548,0.021342044696211815,0.03661634773015976
0.014532255940139294,0.018927929922938347,-0.023233162239193916,-0.31310173869132996,0.0210742000490427,0.036357421427965164
0.014687620103359222,0.01897500455379486,-0.023247528821229935,-0.3131104111671448,0.020805345848202705,0.03609451279044151
0.014842502772808075,0.01902071200311184,-0.023262254893779755,-0.31311896443367004,0.02053556591272354,0.0358276404440403
0.014996816404163837,0.01906506158411503,-0.023277318105101585,-0.31312742829322815,0.02026495523750782,0.035556815564632416
0.015150502324104309,0.019108060747385025,-0.02329270727932453,-0.3131358027458191,0.019993577152490616,0.03528213128447533
0.015303516760468483,0.01914971135556698,-0.023308424279093742,-0.31314408779144287,0.01972147263586521,0.03500370308756828
0.015455818735063076,0.019190020859241486,-0.023324480280280113,-0.3131522834300995,0.01944868639111519,0.03472165763378143
0.015607362613081932,0.019228987395763397,-0.02334088645875454,-0.31316041946411133,0.01917525939643383,0.03443610668182373
0.015758102759718895,0.01926661655306816,-0.023357653990387917,-0.313168466091156,0.01890123263001442,0.03414715826511383
0.01590799167752266,0.019302913919091225,-0.02337479591369629,-0.3131764233112335,0.01862664520740509,0.03385492041707039
0.016056984663009644,0.019337883219122887,-0.02339232712984085,-0.31318432092666626,0.018351538106799126,0.033559493720531464
0.016205033287405968,0.019371533766388893,-0.023410264402627945,-0.31319212913513184,0.01807594858109951,0.033260997384786606
0.016352087259292603,0.019403869286179543,-0.023428624495863914,-0.31319984793663025,0.01779991388320923,0.032959528267383575
0.016498100012540817,0.019434897229075432,-0.023447424173355103,-0.3132075071334839,0.017523469403386116,0.032655179500579834
0.016643023118376732,0.019464628770947456,-0.023466682061553,-0.31321507692337036,0.01724664866924286,0.032348040491342545
0.016786806285381317,0.019493069499731064,-0.023486414924263954,-0.31322258710861206,0.016969485208392143,0.03203819319605827
0.016929401084780693,0.019520228728652,-0.023506643250584602,-0.3132300078868866,0.016692012548446655,0.031725723296403885
0.017070753499865532,0.019546115770936012,-0.023527389392256737,-0.31323736906051636,0.016414262354373932,0.03141070902347565
0.017210816964507103,0.019570739939808846,-0.02354866825044155,-0.31324464082717896,0.01613626256585121,0.03109322302043438
0.017349541187286377,0.019594106823205948,-0.023570504039525986,-0.3132518529891968,0.015858041122555733,0.030773339793086052
0.017486872151494026,0.019616229459643364,-0.023592917248606682,-0.31325897574424744,0.015579628758132458,0.030451126396656036
0.01762276329100132,0.01963711716234684,-0.02361593022942543,-0.3132660388946533,0.015301047824323177,0.030126648023724556
0.01775716245174408,0.019656779244542122,-0.023639565333724022,-0.31327301263809204,0.015022323466837406,0.029799966141581535
0.01789001189172268,0.019675225019454956,-0.02366384118795395,-0.313279926776886,0.014743485487997532,0.02947111800312996
0.018021242693066597,0.019692467525601387,-0.023688774555921555,-0.31328678131103516,0.014464572072029114,0.029140088707208633
0.01815078593790531,0.01970851793885231,-0.023714378476142883,-0.31329357624053955,0.014185619540512562,0.028806867077946663
0.0182785764336586,0.01972339116036892,-0.02374066784977913,-0.3133002519607544,0.013906655833125114,0.028471434488892555
0.018404550850391388,0.01973710022866726,-0.023767657577991486,-0.31330686807632446,0.013627707026898861,0.02813379280269146
0.018528645858168602,0.019749658182263374,-0.023795366287231445,-0.31331342458724976,0.013348792679607868,0.027793942019343376
0.01865081861615181,0.01976110227406025,-0.02382381446659565,-0.3133199214935303,0.013069900684058666,0.02745187096297741
0.018771108239889145,0.019771579653024673,-0.023853011429309845,-0.31332632899284363,0.01279088482260704,0.02710750326514244
0.01888956129550934,0.019781259819865227,-0.023882949724793434,-0.3133326768875122,0.012511610984802246,0.02676081284880638
0.01900622993707657,0.019790295511484146,-0.023913616314530373,-0.313338965177536,0.01223195344209671,0.026411769911646843
0.019121162593364716,0.019798830151557922,-0.023944992572069168,-0.31334519386291504,0.011951792053878307,0.02606034465134144
0.01923440583050251,0.019806990399956703,-0.023977063596248627,-0.3133513629436493,0.011671014130115509,0.025706494227051735
0.019346008077263832,0.01981489174067974,-0.024009814485907555,-0.31335747241973877,0.011389510706067085,0.025350170210003853
0.019456012174487114,0.01982264034450054,-0.024043230339884758,-0.31336352229118347,0.011107178404927254,0.024991320446133614
0.01956445910036564,0.01983032561838627,-0.024077298119664192,-0.3133695125579834,0.010823914781212807,0.024629883468151093
0.019671393558382988,0.019838029518723488,-0.02411201037466526,-0.31337544322013855,0.010539618320763111,0.024265795946121216
0.019776854664087296,0.01984582282602787,-0.024147357791662216,-0.3133813142776489,0.010254188440740108,0.023898983374238014
0.019880881533026695,0.01985376887023449,-0.02418333850800991,-0.3133871257305145,0.009967519901692867,0.02352936565876007
0.01998351700603962,0.019861917942762375,-0.024219952523708344,-0.31339287757873535,0.009679500013589859,0.023156853392720222
0.02008480206131935,0.019870318472385406,-0.024257201701402664,-0.3133985698223114,0.00939000491052866,0.022781336680054665
0.02018478326499462,0.019879009574651718,-0.024295099079608917,-0.3134042024612427,0.009098898619413376,0.022402694448828697
0.020283503457903862,0.019888022914528847,-0.024333659559488297,-0.3134097754955292,0.008806025609374046,0.022020787000656128
0.020381009206175804,0.01989738829433918,-0.024372903630137444,-0.3134152889251709,0.008511209860444069,0.021635469049215317
0.02047736942768097,0.019907115027308464,-0.024412861093878746,-0.31342074275016785,0.008214217610657215,0.021246522665023804
0.020572682842612267,0.019917195662856102,-0.024453574791550636,-0.3134261667728424,0.007914754562079906,0.020853647962212563
0.020667051896452904,0.019927609711885452,-0.024495098739862442,-0.3134315311908722,0.007612477522343397,0.020456496626138687
0.020760588347911835,0.019938338547945023,-0.024537505581974983,-0.3134368360042572,0.007306983694434166,0.02005464769899845
0.020853426307439804,0.01994934119284153,-0.02458089031279087,-0.31344208121299744,0.006997770629823208,0.01964758336544037
0.020945707336068153,0.019960563629865646,-0.024625368416309357,-0.3134472370147705,0.006684322375804186,0.01923481933772564
0.021037515252828598,0.01997194066643715,-0.024671047925949097,-0.3134523630142212,0.006366352550685406,0.018816163763403893
0.02112892083823681,0.01998339593410492,-0.024718036875128746,-0.3134574294090271,0.006043579429388046,0.018391411751508713
0.021219991147518158,0.019994845613837242,-0.0247664637863636,-0.31346243619918823,0.005715698003768921,0.017960337921977043
0.021310795098543167,0.020006200298666954,-0.024816475808620453,-0.313467413187027,0.005382373463362455,0.017522696405649185
0.021401401609182358,0.02001735381782055,-0.02486824430525303,-0.31347233057022095,0.005043230019509792,0.01707821525633335
0.02149188332259655,0.020028188824653625,-0.024921970441937447,-0.31347718834877014,0.0046978420577943325,0.016626589000225067
0.021582206711173058,0.020038573071360588,-0.024977797642350197,-0.31348201632499695,0.004345990717411041,0.01616743952035904
0.0216722022742033,0.02004837989807129,-0.02503577247262001,-0.313486784696579,0.003987709525972605,0.015700332820415497
0.021761657670140266,0.02005750872194767,-0.02509591542184353,-0.31349149346351624,0.0036230627447366714,0.015224822796881199
0.02185036428272724,0.02006586827337742,-0.025158211588859558,-0.3134961724281311,0.0032521667890250683,0.01474045030772686
0.021938111633062363,0.02007337659597397,-0.025222603231668472,-0.3135007917881012,0.002875214209780097,0.014246744103729725
0.022024791687726974,0.020080050453543663,-0.025289040058851242,-0.3135053813457489,0.0024923391174525023,0.013743516989052296
0.022110382094979286,0.02008596435189247,-0.02535749413073063,-0.31350991129875183,0.0021036278922110796,0.013230785727500916
0.02219487726688385,0.02009120211005211,-0.025427941232919693,-0.3135144114494324,0.0017091655172407627,0.012708575464785099
0.022278262302279472,0.02009585313498974,-0.02550036460161209,-0.31351882219314575,0.001309035113081336,0.012176916934549809
0.022360527887940407,0.020100006833672523,-0.02557475119829178,-0.31352320313453674,0.0009033193346112967,0.011635837145149708
0.02244166098535061,0.020103758201003075,-0.02565108984708786,-0.31352752447128296,0.0004920960636809468,0.01108536310493946
0.022521650418639183,0.02010720781981945,-0.025729374960064888,-0.3135318160057068,7.543931133113801e-05,0.010525519028306007
0.022600486874580383,0.02011045813560486,-0.025809606537222862,-0.31353604793548584,-0.0003465812769718468,0.009956327266991138
0.022677963599562645,0.02011352963745594,-0.02589157409965992,-0.3135402500629425,-0.0007732511730864644,0.009377865120768547
0.02275349572300911,0.020116319879889488,-0.025974659249186516,-0.3135443925857544,-0.0012026983313262463,0.008790361694991589
0.022826533764600754,0.0201188363134861,-0.026058252900838852,-0.3135485053062439,-0.0016333095263689756,0.008194117806851864
0.022896649315953255,0.020121121779084206,-0.026141827926039696,-0.313552588224411,-0.002063765423372388,0.0075894612818956375
0.0229635126888752,0.020123230293393135,-0.026224948465824127,-0.31355661153793335,-0.0024929773062467575,0.00697672925889492
0.02302686497569084,0.020125223323702812,-0.02630726806819439,-0.3135606050491333,-0.0029200303833931684,0.006356304511427879
0.023086516186594963,0.020127171650528908,-0.026388507336378098,-0.31356456875801086,-0.003344149561598897,0.005728579591959715
0.023142321035265923,0.020129146054387093,-0.026468439027667046,-0.31356847286224365,-0.0037646733690053225,0.005093955900520086
0.023194149136543274,0.020131239667534828,-0.026546867564320564,-0.31357234716415405,-0.004181078169494867,0.004452672321349382
0.023241881281137466,0.020133554935455322,-0.026623615995049477,-0.31357619166374207,-0.004592944402247667,0.0038049311842769384
0.023285457864403725,0.020136168226599693,-0.026698516681790352,-0.3135799765586853,-0.004999902099370956,0.003151041455566883
0.02332484908401966,0.020139146596193314,-0.026771429926156998,-0.31358373165130615,-0.005401645787060261,0.0024913372471928596
0.023360027000308037,0.020142534747719765,-0.02684224210679531,-0.3135874569416046,-0.005797940772026777,0.0018261104123666883
0.023390978574752808,0.02014637365937233,-0.02691086009144783,-0.3135911226272583,-0.006188595667481422,0.0011556557146832347
0.02341771498322487,0.020150693133473396,-0.026977207511663437,-0.3135947287082672,-0.006573454476892948,0.0004802741459570825
0.02344026044011116,0.020155521109700203,-0.027041221037507057,-0.31359830498695374,-0.006952384486794472,-0.00019972570589743555
0.023458657786250114,0.02016088180243969,-0.02710285410284996,-0.31360185146331787,-0.007325275335460901,-0.000884035078343004
0.02347295731306076,0.020166795700788498,-0.02716206945478916,-0.3136053681373596,-0.007692033424973488,-0.0015723435208201408
0.023483222350478172,0.02017327770590782,-0.027218835428357124,-0.313608855009079,-0.008052580989897251,-0.002264342037960887
0.023489519953727722,0.020180346444249153,-0.027273131534457207,-0.31361228227615356,-0.008406851440668106,-0.002959725446999073
0.02349192276597023,0.020188013091683388,-0.027324942871928215,-0.31361567974090576,-0.0087547916918993,-0.0036581913009285927
0.023490509018301964,0.02019628882408142,-0.027374254539608955,-0.3136190176010132,-0.009096355177462101,-0.0043594446033239365
0.02348536252975464,0.02020518109202385,-0.02742106467485428,-0.3136223256587982,-0.0094315055757761,-0.005063195247203112
0.023476561531424522,0.02021469920873642,-0.027465365827083588,-0.31362560391426086,-0.009760208427906036,-0.00576917314901948
0.023464184254407883,0.020224852487444878,-0.027507154271006584,-0.3136288523674011,-0.010082434862852097,-0.006477125454694033
0.023448307067155838,0.02023564837872982,-0.02754642628133297,-0.313632071018219,-0.010398158803582191,-0.007186795584857464
0.023429058492183685,0.020247051492333412,-0.0275831688195467,-0.3136352598667145,-0.010707352310419083,-0.007897931151092052
0.023406613618135452,0.020258992910385132,-0.027617357671260834,-0.3136384189128876,-0.011009987443685532,-0.008610297925770283
0.023381132632493973,0.020271407440304756,-0.027648983523249626,-0.3136415481567383,-0.011306042782962322,-0.00932366494089365
0.023352758958935738,0.020284241065382957,-0.02767804265022278,-0.3136445879936218,-0.01159550342708826,-0.010037804953753948
0.02332163043320179,0.020297445356845856,-0.02770453877747059,-0.313647598028183,-0.011878366582095623,-0.010752483271062374
0.023287933319807053,0.020311007276177406,-0.027728501707315445,-0.31365057826042175,-0.012154713273048401,-0.011467400006949902
0.02325190231204033,0.020324956625699997,-0.027749983593821526,-0.31365352869033813,-0.01242471020668745,-0.012182161211967468
0.023213770240545273,0.020339321345090866,-0.027769045904278755,-0.31365644931793213,-0.01268850639462471,-0.012896371074020863
0.023173756897449493,0.0203541312366724,-0.02778575010597706,-0.31365934014320374,-0.012946246191859245,-0.013609654270112514
0.023132067173719406,0.02036941796541214,-0.027800163254141808,-0.31366220116615295,-0.013198070228099823,-0.014321647584438324
0.023088892921805382,0.02038521319627762,-0.027812344953417778,-0.3136650621891022,-0.013444115407764912,-0.015031998977065086
0.023044418543577194,0.020401548594236374,-0.027822360396385193,-0.313667893409729,-0.013684513047337532,-0.015740374103188515
0.022998811677098274,0.020418457686901093,-0.027830271050333977,-0.31367066502571106,-0.013919390738010406,-0.016446448862552643
0.022952234372496605,0.02043597213923931,-0.027836140245199203,-0.3136734068393707,-0.014148871414363384,-0.017149915918707848
0.022904841229319572,0.020454123616218567,-0.02784002758562565,-0.313676118850708,-0.014373073354363441,-0.0178504828363657
0.022856777533888817,0.020472945645451546,-0.027841994538903236,-0.3136788010597229,-0.014592108316719532,-0.018547868356108665
0.022808179259300232,0.020492466166615486,-0.027842100709676743,-0.3136814534664154,-0.014806087128818035,-0.019241802394390106
0.022759174928069115,0.020512714982032776,-0.027840403839945793,-0.3136840760707855,-0.015015111304819584,-0.019932029768824577
0.022709889337420464,0.020533720031380653,-0.027836961671710014,-0.31368666887283325,-0.015219283290207386,-0.02061830833554268
0.02266043797135353,0.020555511116981506,-0.027831831946969032,-0.3136892318725586,-0.015418696217238903,-0.021300408989191055
0.02261093258857727,0.020578110590577126,-0.027825068682432175,-0.31369176506996155,-0.015613443218171597,-0.021978111937642097
0.02256147935986519,0.0206015445291996,-0.02781672775745392,-0.3136942684650421,-0.015803610906004906,-0.02265121042728424
0.022512177005410194,0.02062583528459072,-0.02780686318874359,-0.3136967420578003,-0.015989281237125397,-0.023319507017731667
0.022463122382760048,0.02065100520849228,-0.027795525267720222,-0.3136991858482361,-0.016170533373951912,-0.02398281916975975
0.02241440862417221,0.020677074790000916,-0.02778276801109314,-0.3137015998363495,-0.01634744368493557,-0.024640968069434166
0.022366123273968697,0.020704064518213272,-0.02776864357292652,-0.3137039840221405,-0.016520081087946892,-0.025293786078691483
0.022318348288536072,0.020731991156935692,-0.02775319665670395,-0.3137063682079315,-0.0166885145008564,-0.025941114872694016
0.022271165624260902,0.020760871469974518,-0.02773648127913475,-0.31370872259140015,-0.016852807253599167,-0.026582807302474976
0.022224653512239456,0.020790720358490944,-0.027718544006347656,-0.3137110471725464,-0.01701301895081997,-0.02721872366964817
0.022178882732987404,0.020821552723646164,-0.027699431404471397,-0.31371334195137024,-0.017169205471873283,-0.027848729863762856
0.022133924067020416,0.020853379741311073,-0.027679191902279854,-0.3137156069278717,-0.017321422696113586,-0.02847270481288433
0.022089846432209015,0.020886212587356567,-0.027657870203256607,-0.31371787190437317,-0.01746971532702446,-0.029090531170368195
0.022046711295843124,0.02092006243765354,-0.02763551101088524,-0.31372007727622986,-0.017614133656024933,-0.02970210462808609
0.022004583850502968,0.020954936742782593,-0.02761215716600418,-0.31372225284576416,-0.01775471866130829,-0.03030732087790966
0.02196352370083332,0.020990844815969467,-0.027587853372097015,-0.3137243986129761,-0.01789151132106781,-0.030906088650226593
0.02192358672618866,0.021027790382504463,-0.027562638744711876,-0.313726544380188,-0.018024548888206482,-0.031498316675424576
0.02188483066856861,0.02106577903032303,-0.027536557987332344,-0.3137286603450775,-0.01815386489033699,-0.03208392858505249
0.021847307682037354,0.02110481634736061,-0.027509652078151703,-0.31373074650764465,-0.018279487267136574,-0.03266284242272377
0.021811069920659065,0.02114490233361721,-0.027481963858008385,-0.3137328326702118,-0.01840144395828247,-0.03323499113321304
0.021776169538497925,0.021186038851737976,-0.027453530579805374,-0.31373488903045654,-0.018519757315516472,-0.033800311386585236
0.021742653101682663,0.021228225901722908,-0.027424396947026253,-0.3137369155883789,-0.01863444782793522,-0.034358736127614975
0.021710572764277458,0.021271463483572006,-0.027394602075219154,-0.3137389123439789,-0.018745530396699905,-0.034910209476947784
0.021679973229765892,0.021315747871994972,-0.027364185079932213,-0.31374090909957886,-0.018853018060326576,-0.035454679280519485
0.021650904789566994,0.021361077204346657,-0.027333194389939308,-0.31374284625053406,-0.01895691640675068,-0.0359920933842659
0.021623406559228897,0.02140744775533676,-0.027301672846078873,-0.31374475359916687,-0.019057219848036766,-0.036522407084703445
0.021597525104880333,0.02145485021173954,-0.027269667014479637,-0.3137466609477997,-0.01915392465889454,-0.03704557195305824
0.021573303267359734,0.021503278985619545,-0.02723722718656063,-0.3137485384941101,-0.01924702152609825,-0.03756155073642731
0.02155078761279583,0.02155272290110588,-0.027204398065805435,-0.31375041604042053,-0.01933649368584156,-0.038070302456617355
0.021530024707317352,0.0216031726449728,-0.02717123180627823,-0.31375226378440857,-0.019422322511672974,-0.038571786135435104
0.02151106484234333,0.021654611453413963,-0.027137774974107742,-0.3137540817260742,-0.019504480063915253,-0.03906596824526787
0.0214939434081316,0.02170703373849392,-0.027104079723358154,-0.31375589966773987,-0.019582945853471756,-0.03955282270908356
0.0214786846190691,0.021760445088148117,-0.027070200070738792,-0.31375768780708313,-0.019657710567116737,-0.04003235697746277
0.021465308964252472,0.0218148585408926,-0.027036186307668686,-0.313759446144104,-0.019728759303689003,-0.0405045747756958
0.021453840658068657,0.021870283409953117,-0.027002088725566864,-0.3137612044811249,-0.019796069711446762,-0.040969476103782654
0.021444300189614296,0.02192673645913601,-0.026967959478497505,-0.313762903213501,-0.019859619438648224,-0.04142707586288452
0.02143670991063118,0.021984228864312172,-0.02693384885787964,-0.3137646019458771,-0.01991938054561615,-0.041877381503582
0.02143109031021595,0.0220427755266428,-0.026899810880422592,-0.3137662708759308,-0.019975319504737854,-0.04232040420174599
0.021427489817142487,0.022102391347289085,-0.026865912601351738,-0.3137679398059845,-0.02002739906311035,-0.04275614395737648
0.021425962448120117,0.022163091227412224,-0.026832226663827896,-0.3137695789337158,-0.020075581967830658,-0.04318459704518318
0.02142655849456787,0.02222488634288311,-0.026798831298947334,-0.31377121806144714,-0.020119817927479744,-0.04360577091574669
0.021429331973195076,0.022287793457508087,-0.02676580287516117,-0.3137728273868561,-0.02016005665063858,-0.0440196730196476
0.021434331312775612,0.022351834923028946,-0.026733221486210823,-0.3137744069099426,-0.02019624412059784,-0.0444263257086277
0.021441612392663956,0.022417042404413223,-0.026701152324676514,-0.3137759864330292,-0.02022835984826088,-0.04482576623558998
0.02145121991634369,0.02248344197869301,-0.02666964940726757,-0.31377753615379333,-0.020256387069821358,-0.045218028128147125
0.021463187411427498,0.022551055997610092,-0.026638759300112724,-0.3137790858745575,-0.020280299708247185,-0.04560314863920212
0.021477539092302322,0.022619908675551414,-0.026608526706695557,-0.3137805759906769,-0.020300069823861122,-0.04598116874694824
0.021494299173355103,0.022690022364258766,-0.026579000055789948,-0.31378206610679626,-0.020315658301115036,-0.04635212942957878
0.02151348441839218,0.022761421278119087,-0.02655022218823433,-0.31378352642059326,-0.020327020436525345,-0.046716079115867615
