Der-mark/objtrans/data/qpos_trajectory.csv
q0,q1,q2,q3,q4,q5
0.0,0.0,0.0,0.0,0.0,0.0
-1.917476083690417e-06,-1.917476083690417e-06,-1.917476083690417e-06,1.917476083690417e-06,-9.58738019107841e-06,-3.834952167380834e-06
-1.917476083690417e-06,-1.917476083690417e-06,-1.917476083690417e-06,1.917476083690417e-06,-9.58738019107841e-06,-3.834952167380834e-06
-1.917476083690417e-06,-1.917476083690417e-06,-1.917476083690417e-06,1.917476083690417e-06,-9.58738019107841e-06,-3.834952167380834e-06
-9.58738019107841e-06,-1.917476083690417e-06,-1.917476083690417e-06,1.917476083690417e-06,-9.58738019107841e-06,3.834952167380834e-06
-2.3009712094790302e-05,-1.3422331903711893e-05,-1.917476083690417e-06,1.917476083690417e-06,-9.58738019107841e-06,1.3422331903711893e-05
-4.6019424189580604e-05,-3.067961733904667e-05,1.917476083690417e-06,1.917476083690417e-06,-3.451456723269075e-05,4.9854374083224684e-05
-8.628641808172688e-05,-6.327670416794717e-05,3.451456723269075e-05,7.669904334761668e-06,-0.00017065535939764231,0.00022242721752263606
-0.00011696603178279474,-7.478156476281583e-05,5.177185084903613e-05,1.7257283616345376e-05,-0.0003393932420294732,0.00037774277734570205
-0.00014572817599400878,-7.478156476281583e-05,5.177185084903613e-05,2.6844663807423785e-05,-0.000534975784830749,0.0005637379363179207
-0.00016298545233439654,-6.327670416794717e-05,5.177185084903613e-05,2.6844663807423785e-05,-0.0008168447529897094,0.0008436894277110696
-0.00016298545233439654,1.5339808669523336e-05,-2.3009712094790302e-05,1.7257283616345376e-05,-0.0010488593252375722,0.0011313108261674643
-0.00016298545233439654,0.0001783252664608881,-0.00020325244986452162,-0.00014381069922819734,-0.0013077185722067952,0.0014726215740665793
-0.0001284708851017058,0.000431432097684592,-0.0004736165574286133,-0.0004045874229632318,-0.00156657793559134,0.001867621554993093
-2.4927187041612342e-05,0.0007650729385204613,-0.0008225971832871437,-0.000707548635546118,-0.0018196847522631288,0.0022875487338751554
0.0001744903129292652,0.001273204106837511,-0.0013479855842888355,-0.0011984225129708648,-0.002113058464601636,0.002937573241069913
0.00039691751589998603,0.0017027186695486307,-0.0018158497987315059,-0.001677791471593082,-0.0023450730368494987,0.0035530829336494207
0.0006442719022743404,0.002187840174883604,-0.0023930100724101067,-0.00222235475666821,-0.0025636653881520033,0.004243374336510897
0.0009453156380914152,0.0026940538082271814,-0.003031529486179352,-0.0028321121353656054,-0.002803349867463112,0.004998859949409962
0.0013518205378204584,0.0033325732219964266,-0.0039020637050271034,-0.0036738840863108635,-0.003110146149992943,0.006005534902215004
0.0017142235301434994,0.0038598792161792517,-0.00466713635250926,-0.004421699792146683,-0.0033766753040254116,0.006874151527881622
0.0020900487434118986,0.0043852673843503,-0.005501238629221916,-0.0051656803116202354,-0.0036681315395981073,0.007712088525295258
0.002498471178114414,0.004855049308389425,-0.006346845533698797,-0.006049636751413345,-0.003996020182967186,0.0086497338488698
0.0028973061125725508,0.005336335860192776,-0.007340098265558481,-0.0070045399479568005,-0.0043296609073877335,0.009610389359295368
0.003359417896717787,0.005796529818326235,-0.008406214416027069,-0.008026554249227047,-0.00472657848149538,0.01056529302150011
0.003852209309116006,0.006224127020686865,-0.009526020847260952,-0.009113763459026814,-0.005167597904801369,0.011499103158712387
0.004469636362046003,0.00672267097979784,-0.010985219851136208,-0.010557622648775578,-0.005769685376435518,0.012643836438655853
0.004998859949409962,0.00709657883271575,-0.012239249423146248,-0.011688933707773685,-0.006314248312264681,0.013510535471141338
0.005553010385483503,0.007418714463710785,-0.013460681773722172,-0.012967890128493309,-0.006904831156134605,0.014430924318730831
0.006093738600611687,0.007737015374004841,-0.014847016893327236,-0.014298618771135807,-0.007491578813642263,0.015318715944886208
0.006707331165671349,0.00802271906286478,-0.0162851233035326,-0.01570221036672592,-0.008168447762727737,0.0161700751632452
0.007487743627279997,0.008327597752213478,-0.018137404695153236,-0.017498886212706566,-0.00905432179570198,0.017199760302901268
0.008147355169057846,0.008540438488125801,-0.019711652770638466,-0.019029032438993454,-0.009821311570703983,0.018033862113952637
0.008824224583804607,0.008730268105864525,-0.021345343440771103,-0.020501652732491493,-0.010634321719408035,0.01881619170308113
0.009514516219496727,0.00888366624712944,-0.022906167432665825,-0.022166023030877113,-0.011516360566020012,0.019652212038636208
0.01016070507466793,0.009027477353811264,-0.02465490624308586,-0.023897502571344376,-0.012394565157592297,0.02046138606965542
0.011033156886696815,0.009178957901895046,-0.026888765394687653,-0.026123693212866783,-0.013646676205098629,0.021408619359135628
0.011754128150641918,0.009270996786653996,-0.028823498636484146,-0.02801048941910267,-0.014726215973496437,0.02214876562356949
0.012488520704209805,0.00934002548456192,-0.030810004100203514,-0.029962480068206787,-0.015844104811549187,0.022881241515278816
0.01324017159640789,0.009395631961524487,-0.03285211697220802,-0.03180517256259918,-0.017008012160658836,0.023567697033286095
0.014003327116370201,0.009428229182958603,-0.03479260206222534,-0.03387413173913956,-0.018240949138998985,0.02432701736688614
0.014952477999031544,0.00945507362484932,-0.037409957498311996,-0.036522164940834045,-0.019836289808154106,0.025256993249058723
0.015675365924835205,0.00946082640439272,-0.039601631462574005,-0.038744520395994186,-0.02105388604104519,0.025993304327130318
0.01646728441119194,0.00946082640439272,-0.04181631654500961,-0.04103590175509453,-0.022403789684176445,0.026700852438807487
0.017257284373044968,0.00946082640439272,-0.044027164578437805,-0.04337139055132866,-0.023795876652002335,0.027379639446735382
0.018047284334897995,0.00946082640439272,-0.04626869410276413,-0.04557265341281891,-0.02522631362080574,0.028006654232740402
0.01902136206626892,0.009451239369809628,-0.04902986064553261,-0.048621438443660736,-0.027022989466786385,0.028859931975603104
0.019817113876342773,0.009420559741556644,-0.051087312400341034,-0.05118510499596596,-0.028514785692095757,0.029590489342808723
0.02055150829255581,0.009370705112814903,-0.053334593772888184,-0.053823549300432205,-0.029906872659921646,0.030315294861793518
0.021330002695322037,0.009295923635363579,-0.055578041821718216,-0.0565195232629776,-0.03145043924450874,0.031026678159832954
0.022096993401646614,0.009205802343785763,-0.05779656022787094,-0.05930369719862938,-0.03302277252078056,0.03170354664325714
0.02286590076982975,0.009108010679483414,-0.06000932678580284,-0.06192680448293686,-0.03460852429270744,0.03230946883559227
0.023803547024726868,0.008977622725069523,-0.0627187192440033,-0.06547988951206207,-0.036545176059007645,0.03310905769467354
0.024551361799240112,0.008874079212546349,-0.0647493302822113,-0.06843855232000351,-0.03812709078192711,0.033751413226127625
0.025233983993530273,0.008760947734117508,-0.0669390857219696,-0.07144707441329956,-0.03960546478629112,0.03440910577774048
0.02596837654709816,0.008647816255688667,-0.06907515227794647,-0.07455338537693024,-0.04116053879261017,0.035074472427368164
0.026865756139159203,0.008498253300786018,-0.07167908549308777,-0.07846695184707642,-0.043047334998846054,0.03590090200304985
0.02758672647178173,0.00837745238095522,-0.07377105206251144,-0.0816902294754982,-0.044587068259716034,0.036568183451890945
0.028307698667049408,0.008264321833848953,-0.07583233714103699,-0.08471409231424332,-0.04611146077513695,0.037162601947784424
0.029015246778726578,0.008162694983184338,-0.07774022966623306,-0.08806200325489044,-0.04760134220123291,0.037787698209285736
0.02965184859931469,0.008051482029259205,-0.07979192584753036,-0.09147319197654724,-0.04896274954080582,0.038405127823352814
0.030489785596728325,0.007917257957160473,-0.08226163685321808,-0.09573957324028015,-0.05077093094587326,0.039156775921583176
0.031158985570073128,0.007809879723936319,-0.08423279970884323,-0.09929457306861877,-0.052205201238393784,0.03976653516292572
0.031822431832551956,0.007706336211413145,-0.08617520332336426,-0.10292627662420273,-0.053595371544361115,0.040378209203481674
0.03247629106044769,0.007598957512527704,-0.08809076249599457,-0.10632787644863129,-0.05496636778116226,0.04093427583575249
0.033124398440122604,0.007505001034587622,-0.08983375132083893,-0.11007654666900635,-0.05632585659623146,0.041528694331645966
0.033716898411512375,0.007409127429127693,-0.09173588454723358,-0.11388848721981049,-0.057562630623579025,0.04210777208209038
0.0344838872551918,0.007294078823179007,-0.0940464437007904,-0.11866108328104019,-0.059173308312892914,0.04279998317360878
0.03510323166847229,0.007198204752057791,-0.09589681029319763,-0.12261108309030533,-0.06043500825762749,0.043354131281375885
0.035703402012586594,0.007110001053661108,-0.09772416204214096,-0.12665696442127228,-0.06166411191225052,0.04390444606542587
0.036418620496988297,0.00700837466865778,-0.09992734342813492,-0.13171334564685822,-0.06314056366682053,0.0445793978869915
0.036990027874708176,0.006918253377079964,-0.10171634703874588,-0.13556364178657532,-0.06431789696216583,0.04508369415998459
0.03754226118326187,0.006843471899628639,-0.10335195809602737,-0.13981276750564575,-0.06545495986938477,0.0456167533993721
0.03803505375981331,0.006764855235815048,-0.10509686172008514,-0.14413666725158691,-0.06646163761615753,0.046136390417814255
0.03856619447469711,0.006684321444481611,-0.10682258754968643,-0.14853344857692719,-0.06751241534948349,0.04663684964179993
0.03908007964491844,0.0066095395013689995,-0.10853297263383865,-0.15299923717975616,-0.06853826344013214,0.04711238667368889
0.039705175906419754,0.0065175010822713375,-0.11061535775661469,-0.15856951475143433,-0.0697731152176857,0.04769529774785042
0.04019029811024666,0.00644080201163888,-0.1122778058052063,-0.1628282219171524,-0.07073760777711868,0.048122894018888474
0.04064857214689255,0.006366020068526268,-0.1137983649969101,-0.16751645505428314,-0.07164840400218964,0.04856966808438301
0.041051242500543594,0.00629507377743721,-0.11544547975063324,-0.1722526252269745,-0.07244416326284409,0.04901451990008354
0.041471172124147415,0.006229879334568977,-0.11708492040634155,-0.17707890272140503,-0.073255255818367,0.04946129396557808
0.041871923953294754,0.006168520078063011,-0.11869560182094574,-0.18196655809879303,-0.07403182983398438,0.049911901354789734
0.04225541651248932,0.006112913601100445,-0.12028902024030685,-0.1865224838256836,-0.07479114830493927,0.05032607540488243
0.0426887683570385,0.006047719158232212,-0.12223909050226212,-0.19268907606601715,-0.07568085938692093,0.05086104944348335
0.04300706833600998,0.0059997825883328915,-0.12369829416275024,-0.19775696098804474,-0.07635197788476944,0.05128097906708717
0.04327934980392456,0.005944175645709038,-0.12527061998844147,-0.20288237929344177,-0.07692146301269531,0.05169323459267616
0.04355546832084656,0.005892403889447451,-0.1268237829208374,-0.20806723833084106,-0.07748136669397354,0.05210357531905174
0.04385842755436897,0.0058310446329414845,-0.12872783839702606,-0.21450228989124298,-0.07809688150882721,0.05259444937109947
0.04407702013850212,0.005786942318081856,-0.13026948273181915,-0.21974274516105652,-0.07853789627552032,0.05298369750380516
0.044266849756240845,0.005748592782765627,-0.13178811967372894,-0.2245997190475464,-0.0789463222026825,0.05334034562110901
0.044447094202041626,0.005719830747693777,-0.13318021595478058,-0.22987660765647888,-0.07932406663894653,0.05373726412653923
0.04459473863244057,0.00569682102650404,-0.1346835196018219,-0.2351592481136322,-0.07963469624519348,0.054143767803907394
0.044721294194459915,0.0056718941777944565,-0.1361849009990692,-0.24045340716838837,-0.07993190735578537,0.0545598603785038
0.04482100158929825,0.005645049270242453,-0.13767285645008087,-0.245759055018425,-0.08018692582845688,0.05497979000210762
0.04489770159125328,0.005625874735414982,-0.13914355635643005,-0.2506697177886963,-0.08039785176515579,0.055372871458530426
0.04496481269598007,0.005612452048808336,-0.14096133410930634,-0.25722557306289673,-0.08058767765760422,0.05591168254613876
0.04499932751059532,0.0056047821417450905,-0.142311230301857,-0.26255422830581665,-0.0806988924741745,0.05635270103812218
0.045018501579761505,0.005597112234681845,-0.14374741911888123,-0.2678905725479126,-0.08076408505439758,0.05679755657911301
0.04503192380070686,0.005591359920799732,-0.14549040794372559,-0.2744598388671875,-0.08080435544252396,0.057334449142217636
0.045039594173431396,0.005589442327618599,-0.1469016671180725,-0.2798057794570923,-0.08081010729074478,0.05776013061404228
0.045043427497148514,0.005587525200098753,-0.14832442998886108,-0.2851344347000122,-0.08081010729074478,0.058180056512355804
0.045043427497148514,0.00558560760691762,-0.1497107744216919,-0.29007384181022644,-0.08081010729074478,0.05856546759605408
0.045043427497148514,0.0055836900137364864,-0.1509820520877838,-0.2954197824001312,-0.08078901469707489,0.05899114906787872
0.045043427497148514,0.0055836900137364864,-0.15236647427082062,-0.300754189491272,-0.08068163692951202,0.05943791940808296
0.045043427497148514,0.0055836900137364864,-0.15407495200634003,-0.3073368966579437,-0.08043236285448074,0.060016997158527374
0.04503575712442398,0.005581772420555353,-0.15544210374355316,-0.31266939640045166,-0.08016583323478699,0.06050978973507881
0.045006997883319855,0.005581772420555353,-0.15679392218589783,-0.31801146268844604,-0.07986670732498169,0.061006415635347366
0.04496672749519348,0.005581772420555353,-0.15813615918159485,-0.3229336440563202,-0.07953882217407227,0.061476197093725204
0.04491879418492317,0.005579855293035507,-0.159369096159935,-0.3282891511917114,-0.07918025553226471,0.06198433041572571
0.044870857149362564,0.005574102513492107,-0.16071133315563202,-0.33364081382751465,-0.07883702218532562,0.06249437853693962
0.04481141269207001,0.005562597885727882,-0.16203247010707855,-0.33899056911468506,-0.07844969630241394,0.06300058960914612
0.04474813863635063,0.005541505757719278,-0.16364122927188873,-0.34558477997779846,-0.07793581485748291,0.06362568587064743
0.0446944460272789,0.0055242483504116535,-0.16494320333003998,-0.35093453526496887,-0.07748904079198837,0.06412806361913681
0.04462733492255211,0.005495486315339804,-0.1665634661912918,-0.3575114905834198,-0.0768946185708046,0.06476083397865295
0.0445793978869915,0.0054686414077878,-0.16785776615142822,-0.36243364214897156,-0.07637498527765274,0.06525745987892151
0.04453529790043831,0.005441796965897083,-0.1690312623977661,-0.36777764558792114,-0.07581700384616852,0.06581544876098633
0.04449119418859482,0.005422621965408325,-0.17027762532234192,-0.3731158971786499,-0.07527051866054535,0.0663849338889122
0.04444517567753792,0.0054111173376441,-0.17153164744377136,-0.3784560561180115,-0.07464158535003662,0.06696976721286774
0.04440490901470184,0.005399612244218588,-0.172781839966774,-0.3837904930114746,-0.07397622615098953,0.06756610423326492
0.044370394200086594,0.005391942337155342,-0.1740051954984665,-0.3887260854244232,-0.07328017801046371,0.0681144967675209
0.044335879385471344,0.0053766025230288506,-0.17548739910125732,-0.3953106701374054,-0.07241923362016678,0.06885464489459991
0.04430520161986351,0.005361262708902359,-0.1765861213207245,-0.400658518075943,-0.07171743363142014,0.06946440041065216
0.044278357177972794,0.005340170580893755,-0.1777864545583725,-0.40602171421051025,-0.07106166332960129,0.07007799297571182
0.04426109790802002,0.005313326139003038,-0.1789868026971817,-0.4113618731498718,-0.07032918184995651,0.07070884108543396
0.04424959421157837,0.0052864812314510345,-0.18017563223838806,-0.4167077839374542,-0.06956411153078079,0.07135503739118576
0.04424000531435013,0.005261553917080164,-0.1813357025384903,-0.42162612080574036,-0.06876835972070694,0.07195904105901718
0.044232334941625595,0.005230874288827181,-0.18275080621242523,-0.42819347977638245,-0.06775593012571335,0.0727682113647461
0.04422658309340477,0.0052078645676374435,-0.1838015764951706,-0.4335259795188904,-0.0669160783290863,0.07342974096536636
0.04422274976968765,0.00518293771892786,-0.18494246900081635,-0.43886423110961914,-0.06613758206367493,0.07408551871776581
0.044220831245183945,0.005163762718439102,-0.18607762455940247,-0.44421592354774475,-0.06528621912002563,0.07474129647016525
0.044220831245183945,0.005144588183611631,-0.1874428689479828,-0.45080626010894775,-0.06422202289104462,0.0755600556731224
0.04421891272068024,0.005135000683367252,-0.18854157626628876,-0.4561483561992645,-0.06333423405885696,0.07624842971563339
0.04421891272068024,0.005127330776304007,-0.18964029848575592,-0.46108394861221313,-0.06242918223142624,0.07688886672258377
0.04421891272068024,0.005123496055603027,-0.19066038727760315,-0.46643179655075073,-0.06151838228106499,0.07759066671133041
0.04421891272068024,0.005119660869240761,-0.19176676869392395,-0.47177770733833313,-0.060665104538202286,0.07828479260206223
0.04421699792146683,0.0051177432760596275,-0.19310133159160614,-0.47835081815719604,-0.05953187867999077,0.07913423329591751
0.04421699792146683,0.005115826148539782,-0.19416554272174835,-0.48370248079299927,-0.05860573425889015,0.07983027398586273
0.04421699792146683,0.005115826148539782,-0.19522781670093536,-0.4890311658382416,-0.057666171342134476,0.08054166287183762
0.04421699792146683,0.005113908555358648,-0.19629010558128357,-0.49395716190338135,-0.056718938052654266,0.08121853321790695
0.04421699792146683,0.005113908555358648,-0.19727568328380585,-0.4992896616458893,-0.05576020106673241,0.08197209984064102
0.04421699792146683,0.005113908555358648,-0.19833795726299286,-0.5046451687812805,-0.05486282333731651,0.0827275812625885
0.04421699792146683,0.005113908555358648,-0.19961117208003998,-0.5112163424491882,-0.05365481227636337,0.08363838493824005
0.04421699792146683,0.005113908555358648,-0.20064085721969604,-0.5165737867355347,-0.05267498269677162,0.08435551822185516
0.04421699792146683,0.005113908555358648,-0.2016705423593521,-0.5219062566757202,-0.051702823489904404,0.08507265895605087
0.04421699792146683,0.005113908555358648,-0.20269638299942017,-0.5268533825874329,-0.05074024945497513,0.08576103299856186
0.04421699792146683,0.005113908555358648,-0.20363786816596985,-0.5322012305259705,-0.049764253199100494,0.08653569221496582
0.04421699792146683,0.005113908555358648,-0.20487655699253082,-0.538774311542511,-0.04854665696620941,0.0875231921672821
0.04421699792146683,0.005127330776304007,-0.20586980879306793,-0.5441259741783142,-0.0476224347949028,0.08832278102636337
0.04421699792146683,0.005154175218194723,-0.2068515568971634,-0.5494661927223206,-0.046629179269075394,0.08909551799297333
0.04421699792146683,0.005194442346692085,-0.20782947540283203,-0.5548005700111389,-0.04565318673849106,0.08984334021806717
0.04421699792146683,0.005236627068370581,-0.20880737900733948,-0.5597265958786011,-0.04467527195811272,0.09052979201078415
0.04421699792146683,0.005273059010505676,-0.2097105085849762,-0.565055251121521,-0.043683938682079315,0.09129486978054047
0.04421699792146683,0.0053344182670116425,-0.2109127640724182,-0.5716341137886047,-0.04243757948279381,0.09229770302772522
0.04421699792146683,0.005388107616454363,-0.21186000108718872,-0.5769704580307007,-0.04149226099252701,0.0931452289223671
0.04421699792146683,0.005443714093416929,-0.21279573440551758,-0.5823336243629456,-0.040493257343769073,0.0939985066652298
0.04421699792146683,0.0055031562224030495,-0.21373529732227325,-0.5876756906509399,-0.03950383886694908,0.09482493996620178
0.04421699792146683,0.005574102513492107,-0.21488003432750702,-0.5942641496658325,-0.03828432410955429,0.09579901397228241
0.04421699792146683,0.005620121955871582,-0.21581000089645386,-0.5991939902305603,-0.03727765008807182,0.09652765840291977
0.044220831245183945,0.005660389084368944,-0.21666519343852997,-0.6045571565628052,-0.036261387169361115,0.09733491390943527
0.04422466456890106,0.005715996026992798,-0.21758174896240234,-0.6098954081535339,-0.03533141314983368,0.09815943241119385
0.04422850161790848,0.005781190004199743,-0.21848487854003906,-0.6152317523956299,-0.03433816134929657,0.09899353235960007
0.044232334941625595,0.00586747657507658,-0.2195778489112854,-0.6218010187149048,-0.03310905769467354,0.10000403970479965
0.0442342534661293,0.005923083517700434,-0.22025471925735474,-0.6254940629005432,-0.03234206885099411,0.10056202858686447
0.04423808678984642,0.00600745202973485,-0.22134575247764587,-0.6320633888244629,-0.031091872602701187,0.10154761373996735
0.044241923838853836,0.006072646472603083,-0.22216260433197021,-0.6373996734619141,-0.030079444870352745,0.10235870629549026
0.04424575716257095,0.006147427950054407,-0.22304464876651764,-0.6427417993545532,-0.029141800478100777,0.10318130254745483
0.04424959421157837,0.006218374706804752,-0.22391709685325623,-0.6480972766876221,-0.028129372745752335,0.1040019765496254
0.04425150901079178,0.006304660812020302,-0.22496595978736877,-0.6546761393547058,-0.026896435767412186,0.1050182431936264
0.044255346059799194,0.006371772848069668,-0.22580772638320923,-0.6600220799446106,-0.025893595069646835,0.10584467649459839
0.0442572645843029,0.006444636732339859,-0.22663606703281403,-0.6649615168571472,-0.024898424744606018,0.106630839407444
0.04426109790802002,0.006511748302727938,-0.22740115225315094,-0.6703208684921265,-0.02390325628221035,0.10750328749418259
0.04426109790802002,0.006575025152415037,-0.22823333740234375,-0.6756552457809448,-0.02298094891011715,0.10839492082595825
0.04426301643252373,0.006647889036685228,-0.22906360030174255,-0.6810050010681152,-0.021981945261359215,0.10927695780992508
0.04426301643252373,0.006720753386616707,-0.2298842817544937,-0.6863375306129456,-0.020979104563593864,0.11010146886110306
0.04426301643252373,0.006824296899139881,-0.23088136315345764,-0.6929087042808533,-0.01975191943347454,0.11106979846954346
0.04426301643252373,0.006904831156134605,-0.23168478906154633,-0.6978404521942139,-0.018754832446575165,0.11178693175315857
0.04426301643252373,0.006971942726522684,-0.2324153482913971,-0.7031959891319275,-0.017750075086951256,0.11258460581302643
0.04426301643252373,0.0070371367037296295,-0.2331976741552353,-0.7085399627685547,-0.01681051217019558,0.11341103166341782
0.04426301643252373,0.007108083460479975,-0.23415066301822662,-0.7151150107383728,-0.015567987225949764,0.11443496495485306
0.04426301643252373,0.007161772809922695,-0.23491573333740234,-0.720466673374176,-0.014588157646358013,0.11523455381393433
0.04426301643252373,0.007225049659609795,-0.23567505180835724,-0.7257934212684631,-0.01361791417002678,0.11600154638290405
0.04426301643252373,0.0072844913229346275,-0.23642286658287048,-0.7307232618331909,-0.01264191884547472,0.11669950932264328
0.04426301643252373,0.0073650251142680645,-0.23732984066009521,-0.7372925281524658,-0.01142240408807993,0.11766207963228226
0.04426109790802002,0.007414879743009806,-0.23783989250659943,-0.7414093613624573,-0.010724443010985851,0.11828717589378357
0.04425150901079178,0.007516505662351847,-0.23875068128108978,-0.7479920387268066,-0.009487670846283436,0.11931877583265305
0.044243842363357544,0.00760087464004755,-0.2394927442073822,-0.7533321976661682,-0.008504006080329418,0.12015288323163986
0.04423808678984642,0.007683326490223408,-0.2402328997850418,-0.758670449256897,-0.007526093162596226,0.1209678053855896
0.044232334941625595,0.00777536490932107,-0.24113795161247253,-0.7652512192726135,-0.006306578405201435,0.12194572389125824
0.04422658309340477,0.00782905425876379,-0.24164798855781555,-0.7689558267593384,-0.005531918257474899,0.12249411642551422
0.04421507939696312,0.007934515364468098,-0.24255496263504028,-0.7755327224731445,-0.0042932284995913506,0.12348929047584534
0.04420549049973488,0.008013132028281689,-0.24326442182064056,-0.7808824777603149,-0.0033766753040254116,0.12433873116970062
0.04419398680329323,0.008080244064331055,-0.24395279586315155,-0.7862265110015869,-0.0023968450259417295,0.12519775331020355
0.044186316430568695,0.008133932948112488,-0.24462774395942688,-0.7915647625923157,-0.0014227671781554818,0.1260395348072052
0.044176727533340454,0.008202962577342987,-0.24546760320663452,-0.7981436252593994,-0.0002109223569277674,0.12703661620616913
0.04417097568511963,0.008266239427030087,-0.2461521476507187,-0.8030811548233032,0.0007727428455837071,0.1277690976858139
0.044165223836898804,0.008327597752213478,-0.24678491055965424,-0.8084174394607544,0.0017564080189913511,0.12856484949588776
0.044163305312395096,0.00839854497462511,-0.24748286604881287,-0.8137499690055847,0.002665291540324688,0.12939128279685974
0.04415947198867798,0.008465656079351902,-0.24817124009132385,-0.8190920352935791,0.0036374519113451242,0.13023880124092102
0.04415755346417427,0.008546190336346626,-0.24900342524051666,-0.8256574869155884,0.0048262872733175755,0.13127808272838593
0.04415755346417427,0.008596044965088367,-0.2495173215866089,-0.8293601274490356,0.005576020106673241,0.1318494826555252
0.04415563866496086,0.00867849588394165,-0.2503284215927124,-0.8359370827674866,0.006774442736059427,0.13285233080387115
0.04415372014045715,0.008734103292226791,-0.2509285807609558,-0.841294527053833,0.007754272781312466,0.13367299735546112
0.04415372014045715,0.008814637549221516,-0.25172242522239685,-0.8478714227676392,0.008966118097305298,0.13469117879867554
0.04415372014045715,0.008866408839821815,-0.25222286581993103,-0.8519806265830994,0.009648739360272884,0.1353258639574051
0.04415372014045715,0.008945025503635406,-0.2530282139778137,-0.8585652112960815,0.010847161523997784,0.13632486760616302
0.04415372014045715,0.009002549573779106,-0.2536744177341461,-0.8639034628868103,0.011809734627604485,0.13711871206760406
0.04415372014045715,0.009067744016647339,-0.2543109953403473,-0.8688275218009949,0.012781894765794277,0.13784159719944
0.04415372014045715,0.009129103273153305,-0.2548919916152954,-0.8741677403450012,0.01376556046307087,0.1386507749557495
0.04415372014045715,0.00919813197106123,-0.25564172863960266,-0.8807542324066162,0.014988909475505352,0.13965170085430145
0.04415372014045715,0.009255656972527504,-0.2562323212623596,-0.8860963582992554,0.015895875170826912,0.14045703411102295
0.04415372014045715,0.009315098635852337,-0.2568267285823822,-0.8914307355880737,0.016864201053977013,0.14124320447444916
0.04415372014045715,0.00937454029917717,-0.2574326694011688,-0.896782398223877,0.01782293990254402,0.14202170073986053
0.04415372014045715,0.00943781714886427,-0.2581823766231537,-0.9033670425415039,0.01902327872812748,0.14297659695148468
0.04415372014045715,0.00947616621851921,-0.2586003839969635,-0.9070658683776855,0.01978643424808979,0.14351923763751984
0.04415755346417427,0.009550947695970535,-0.2593463063240051,-0.9136389493942261,0.021025124937295914,0.14450865983963013
0.04417289420962334,0.009604637511074543,-0.25994646549224854,-0.9189906120300293,0.021935924887657166,0.1453101634979248
0.044197820127010345,0.009662161581218243,-0.2605428099632263,-0.9243288636207581,0.022906167432665825,0.1460905820131302
0.04422850161790848,0.009715850464999676,-0.26112380623817444,-0.929665207862854,0.023872576653957367,0.14683839678764343
0.04426109790802002,0.009763787500560284,-0.2616932988166809,-0.9345950484275818,0.02485048957169056,0.14751142263412476
0.04429753124713898,0.009813642129302025,-0.2622167468070984,-0.9399333000183105,0.02584374137222767,0.1482381522655487
0.04433971643447876,0.009878836572170258,-0.26292046904563904,-0.9465217590332031,0.027065172791481018,0.14913935959339142
0.044370394200086594,0.009930607862770557,-0.2634918689727783,-0.9518561959266663,0.027970222756266594,0.1498929262161255
0.044401075690984726,0.009980462491512299,-0.26407286524772644,-0.9572020769119263,0.028942381963133812,0.15065033733844757
0.04443558678030968,0.010043739341199398,-0.2647765874862671,-0.9637924432754517,0.03014080412685871,0.15157455205917358
0.04446626827120781,0.01009359396994114,-0.2653537392616272,-0.9691421985626221,0.031128305941820145,0.15229935944080353
0.044495031237602234,0.010145365260541439,-0.2659328281879425,-0.9740778207778931,0.03212347626686096,0.1529397964477539
0.04452570900321007,0.01018946710973978,-0.2664658725261688,-0.9794256687164307,0.03311672806739807,0.1536300927400589
0.04455447196960449,0.010237404145300388,-0.2670334577560425,-0.984767735004425,0.03403136506676674,0.15433380007743835
0.04459282010793686,0.010275754146277905,-0.2675895392894745,-0.9901021718978882,0.03501502797007561,0.15505670011043549
0.04463500529527664,0.010308350436389446,-0.2681455910205841,-0.9954480528831482,0.03599294275045395,0.1557757556438446
0.0446944460272789,0.010352453216910362,-0.2688320577144623,-1.0020115375518799,0.03719903528690338,0.15664245188236237
0.04474238306283951,0.010392719879746437,-0.2693842947483063,-1.006945252418518,0.038176946341991425,0.15727904438972473
0.04478840529918671,0.010432986542582512,-0.26988473534584045,-1.0122911930084229,0.03916061297059059,0.1579425036907196
0.04483058676123619,0.010479005984961987,-0.2704254686832428,-1.0176390409469604,0.04007524624466896,0.15859252214431763
0.044872771948575974,0.01052119117230177,-0.27096620202064514,-1.0229887962341309,0.04106274992227554,0.15923871099948883
0.044924546033144,0.010574880056083202,-0.2716277241706848,-1.0295675992965698,0.042268842458724976,0.16005171835422516
0.04496864601969719,0.010624734684824944,-0.27216270565986633,-1.0349116325378418,0.0432429201900959,0.1607305109500885
0.045008912682533264,0.010670754127204418,-0.27269768714904785,-1.0398415327072144,0.04422658309340477,0.16136710345745087
0.04505876824259758,0.010716773569583893,-0.2733534574508667,-1.0464146137237549,0.045453768223524094,0.1622031331062317
0.045085612684488297,0.010741700418293476,-0.2737177908420563,-1.050510287284851,0.04614981263875961,0.16270358860492706
0.04512396082282066,0.010780050419270992,-0.27423548698425293,-1.0558485984802246,0.04714881628751755,0.1633344441652298
0.04517573490738869,0.010829904116690159,-0.27486827969551086,-1.0624159574508667,0.04835490882396698,0.1640956699848175
0.04521600157022476,0.010866336524486542,-0.27538982033729553,-1.0677522420883179,0.04932515323162079,0.1646977663040161
0.04525243490934372,0.010897016152739525,-0.2759113609790802,-1.0726993083953857,0.05030306428670883,0.16525383293628693
0.045294616371393204,0.010923860594630241,-0.27638691663742065,-1.0780471563339233,0.051290564239025116,0.16586166620254517
0.04533488303422928,0.010962210595607758,-0.277021586894989,-1.0846279859542847,0.052521586418151855,0.16661332547664642
0.04536748304963112,0.01099289022386074,-0.2775258719921112,-1.0899720191955566,0.053434304893016815,0.16721925139427185
0.0454096645116806,0.011025486513972282,-0.2780378460884094,-1.095321774482727,0.05440646409988403,0.16781750321388245
0.045453768223524094,0.011054249480366707,-0.2785670757293701,-1.1006656885147095,0.055372871458530426,0.16840232908725739
0.045497871935367584,0.011083011515438557,-0.2790943682193756,-1.105605125427246,0.056358452886343,0.1689373105764389
0.04554964229464531,0.01111369114369154,-0.2797386646270752,-1.1121840476989746,0.05759330838918686,0.16965635120868683
0.04558607563376427,0.011138617992401123,-0.28020843863487244,-1.117518424987793,0.0585942305624485,0.17025844752788544
0.045622505247592926,0.011161627247929573,-0.2807108163833618,-1.122862458229065,0.05950694903731346,0.17086820304393768
0.045662771910429,0.011182719841599464,-0.2812170386314392,-1.1281930208206177,0.0604848638176918,0.1714741289615631
0.045704957097768784,0.011205730028450489,-0.2817270755767822,-1.1335370540618896,0.06146085634827614,0.17205895483493805
0.045749060809612274,0.011228739283978939,-0.2822256088256836,-1.138474464416504,0.06244835630059242,0.17258243262767792
0.04580466449260712,0.011257501319050789,-0.282829612493515,-1.145057201385498,0.06367362290620804,0.17328421771526337
0.045852601528167725,0.01127859391272068,-0.28327831625938416,-1.1503955125808716,0.06466495990753174,0.17385946214199066
0.045896705240011215,0.011303520761430264,-0.28376343846321106,-1.1557375192642212,0.06558151543140411,0.17444045841693878
0.04594656080007553,0.011326530948281288,-0.2842600643634796,-1.1610872745513916,0.06657668203115463,0.17502720654010773
0.045998331159353256,0.011355292983353138,-0.284766286611557,-1.1664294004440308,0.06757377088069916,0.17561012506484985
0.04605202004313469,0.011378302238881588,-0.2852648198604584,-1.171372652053833,0.06857852637767792,0.17615468800067902
0.046113379299640656,0.011401312425732613,-0.28585731983184814,-1.177940011024475,0.06981721520423889,0.1768871545791626
0.04616515338420868,0.01142048742622137,-0.28629258275032043,-1.1832821369171143,0.07083731889724731,0.17746815085411072
0.0462150052189827,0.011447331868112087,-0.2867719531059265,-1.1886184215545654,0.07178646326065063,0.17802613973617554
0.04626869410276413,0.011495268903672695,-0.28726667165756226,-1.1939624547958374,0.07282190024852753,0.17855536937713623
0.04634923115372658,0.011543205007910728,-0.2878457307815552,-1.2005374431610107,0.07407017797231674,0.17922072112560272
0.04640292003750801,0.011560462415218353,-0.2881966531276703,-1.2042381763458252,0.0748448371887207,0.1796099692583084
0.046489205211400986,0.011577719822525978,-0.28876230120658875,-1.2108285427093506,0.07609311491250992,0.18032711744308472
0.04655631631612778,0.011583472602069378,-0.28919947147369385,-1.216162919998169,0.07712472230195999,0.1809234470129013
0.04661959409713745,0.011589224450290203,-0.2896730899810791,-1.2215166091918945,0.07809112966060638,0.18151594698429108
0.04669245705008507,0.01159305963665247,-0.2901371121406555,-1.2268586158752441,0.07912656664848328,0.18210844695568085
0.046763405203819275,0.01159305963665247,-0.29058581590652466,-1.2322064638137817,0.0801447406411171,0.1826971173286438
0.046855442225933075,0.01159305963665247,-0.2911246120929718,-1.2387757301330566,0.08140452206134796,0.1834123283624649
0.04692830890417099,0.01159305963665247,-0.2915599048137665,-1.243707537651062,0.08244763314723969,0.18393580615520477
0.04700117185711861,0.01159305963665247,-0.2919587194919586,-1.2490476369857788,0.08351375162601471,0.18449187278747559
0.0470682829618454,0.01159305963665247,-0.2923939824104309,-1.254378318786621,0.08449741452932358,0.18504026532173157
0.04715840518474579,0.01159305963665247,-0.29293280839920044,-1.2609628438949585,0.08578787744045258,0.18572096526622772
0.047231268137693405,0.01159305963665247,-0.29335081577301025,-1.2662973403930664,0.08682331442832947,0.18630771338939667
0.04730796813964844,0.01159305963665247,-0.29376307129859924,-1.271654725074768,0.08787216991186142,0.1869136393070221
0.04738466814160347,0.01159305963665247,-0.2941868305206299,-1.2765884399414062,0.08893828839063644,0.18747355043888092
0.04747287184000015,0.011587307788431644,-0.2945895195007324,-1.2819266319274902,0.09001399576663971,0.18806029856204987
0.0475534051656723,0.011579637415707111,-0.29503628611564636,-1.2872668504714966,0.091001495718956,0.1886221170425415
0.047662701457738876,0.011566215194761753,-0.29558277130126953,-1.2938456535339355,0.09230537712574005,0.18930281698703766
0.047754738479852676,0.011545122601091862,-0.2960141897201538,-1.2991896867752075,0.0933753252029419,0.1898627132177353
0.047846779227256775,0.011524030938744545,-0.2964437007904053,-1.3045356273651123,0.09447021037340164,0.19042454659938812
0.047938816249370575,0.011508691124618053,-0.2968847155570984,-1.3094712495803833,0.09556891769170761,0.19093458354473114
0.04803469032049179,0.011491433717310429,-0.2973027229309082,-1.314801812171936,0.09667722135782242,0.19149065017700195
0.04814973846077919,0.011468423530459404,-0.2978588044643402,-1.3213863372802734,0.09803671389818192,0.1921924501657486
0.0482206866145134,0.01144924946129322,-0.2981981933116913,-1.325493574142456,0.09879986941814423,0.19263538718223572
0.04834340512752533,0.011418569833040237,-0.29872551560401917,-1.3320744037628174,0.10016319155693054,0.193348690867424
0.04844311252236366,0.01139364205300808,-0.29915693402290344,-1.337422251701355,0.10127149522304535,0.1939239352941513
0.04856391251087189,0.011361044831573963,-0.2996823191642761,-1.3439991474151611,0.10265208035707474,0.19461998343467712
0.04864061251282692,0.01134187076240778,-0.2999756932258606,-1.3477057218551636,0.10352261364459991,0.19501113891601562
0.04876333102583885,0.011305438354611397,-0.3005049228668213,-1.3542749881744385,0.10491661727428436,0.1956937611103058
0.04885920509696007,0.011274758726358414,-0.3009248375892639,-1.3596247434616089,0.10595589131116867,0.19625942409038544
0.048964668065309525,0.011236409656703472,-0.3013370931148529,-1.3649572134017944,0.1070929542183876,0.19684042036533356
0.0490739643573761,0.011190390214323997,-0.30173978209495544,-1.3703031539916992,0.10825110971927643,0.19743292033672333
0.0491890124976635,0.011140535585582256,-0.3021385967731476,-1.3752329349517822,0.10942268371582031,0.1980023980140686
0.04933473840355873,0.011071505956351757,-0.3026275634765625,-1.3817964792251587,0.11086079478263855,0.1987636387348175
0.04945745691657066,0.011019734665751457,-0.30300530791282654,-1.387148141860962,0.11200936138629913,0.19936956465244293
0.04961085692048073,0.010973715223371983,-0.30354028940200806,-1.393725037574768,0.11343787610530853,0.20009244978427887
0.0496971420943737,0.010946870781481266,-0.30388158559799194,-1.3978381156921387,0.1142604798078537,0.20053155720233917
0.049854375422000885,0.010897016152739525,-0.3044204115867615,-1.4044150114059448,0.1157350167632103,0.201227605342865
0.04998476430773735,0.010843326337635517,-0.3048345744609833,-1.4097628593444824,0.11690659075975418,0.20178557932376862
0.05012090504169464,0.010785802267491817,-0.305227667093277,-1.4146984815597534,0.11807624995708466,0.20229755342006683
0.05025896430015564,0.010720607824623585,-0.30558815598487854,-1.4200423955917358,0.1192631721496582,0.20284979045391083
0.05039318650960922,0.010663083754479885,-0.30598121881484985,-1.4253902435302734,0.12038873136043549,0.20338475704193115
0.050538916140794754,0.010607477277517319,-0.3063858151435852,-1.4307209253311157,0.12161783128976822,0.20390823483467102
0.05072299391031265,0.010530778206884861,-0.3068920373916626,-1.437295913696289,0.12311729788780212,0.20454291999340057
0.050870638340711594,0.010465583764016628,-0.3073004484176636,-1.4426283836364746,0.1243348941206932,0.20506447553634644
0.05102211982011795,0.010408059693872929,-0.30771464109420776,-1.4475659132003784,0.12557166814804077,0.2055419236421585
0.051177434623241425,0.010348618030548096,-0.3080962002277374,-1.4529080390930176,0.12681227922439575,0.20605963468551636
0.05132316052913666,0.010294928215444088,-0.3085103929042816,-1.458257794380188,0.12796659767627716,0.20658694207668304
0.051520660519599915,0.010225899517536163,-0.3090108335018158,-1.4648385047912598,0.1294948160648346,0.20727340877056122
0.051679812371730804,0.010158787481486797,-0.3094039261341095,-1.4701825380325317,0.13073351979255676,0.20785631239414215
0.051840879023075104,0.010091676376760006,-0.30978357791900635,-1.4751200675964355,0.1319837123155594,0.2084449827671051
0.05200578272342682,0.01003031712025404,-0.3101632595062256,-1.4804506301879883,0.13324733078479767,0.20898379385471344
0.05217643827199936,0.009965122677385807,-0.3105122148990631,-1.485796570777893,0.1345205307006836,0.2095532864332199
0.052387360483407974,0.009892258793115616,-0.31098777055740356,-1.4923677444458008,0.1360909342765808,0.21022823452949524
0.05254267528653145,0.009834734722971916,-0.3113635778427124,-1.4977117776870728,0.13725677132606506,0.21077662706375122
0.0527152493596077,0.009775292128324509,-0.3117298185825348,-1.5030461549758911,0.13851654529571533,0.21135187149047852
0.052889738231897354,0.00971009861677885,-0.3120845556259155,-1.507977843284607,0.13979549705982208,0.21195779740810394
0.05306423082947731,0.009646821767091751,-0.3124277889728546,-1.5133296251296997,0.1410897970199585,0.2125464677810669
0.05323680490255356,0.009575875476002693,-0.3127422630786896,-1.5186735391616821,0.14236684143543243,0.2131926566362381
0.05345156043767929,0.009499176405370235,-0.31316983699798584,-1.525258183479309,0.143929585814476,0.21396923065185547
0.05361071228981018,0.009443568997085094,-0.3135303258895874,-1.530602216720581,0.14511266350746155,0.21455980837345123
0.053787119686603546,0.009410971775650978,-0.3139176666736603,-1.5359538793563843,0.14641079306602478,0.2151043713092804
0.053961608558893204,0.009382209740579128,-0.31432226300239563,-1.5408817529678345,0.1477050930261612,0.2156336009502411
0.05417444929480553,0.009343860670924187,-0.31481119990348816,-1.5474587678909302,0.14926975965499878,0.21629129350185394
0.054347023367881775,0.009307428263127804,-0.31520044803619385,-1.5528007745742798,0.15055254101753235,0.2168090045452118
0.05452151224017143,0.009265244007110596,-0.3155570924282074,-1.5581409931182861,0.15184876322746277,0.2174091786146164
0.05468257889151573,0.009217306971549988,-0.31593483686447144,-1.5634831190109253,0.15304909646511078,0.21805153787136078
0.05485515296459198,0.009167452342808247,-0.31631067395210266,-1.568813681602478,0.15433572232723236,0.21871115267276764
0.055031560361385345,0.009131020866334438,-0.3166903257369995,-1.5737472772598267,0.1556089222431183,0.2193688452243805
0.05525398626923561,0.009085001423954964,-0.3171485960483551,-1.5803242921829224,0.15719659626483917,0.22017034888267517
0.05544573441147804,0.009046651422977448,-0.31750527024269104,-1.585681676864624,0.15849857032299042,0.22076092660427094
0.05563940107822418,0.009000631980597973,-0.31782740354537964,-1.5910199880599976,0.15980052947998047,0.2214013636112213
0.05582539737224579,0.008945025503635406,-0.31815338134765625,-1.5963678359985352,0.16099128127098083,0.222068652510643
0.056024812161922455,0.00888941902667284,-0.3184831738471985,-1.6017117500305176,0.16228750348091125,0.22275510430335999
0.05627024918794632,0.008839564397931099,-0.3189050257205963,-1.6082887649536133,0.1638675034046173,0.22362180054187775
0.05646199733018875,0.008818471804261208,-0.3192750811576843,-1.6132185459136963,0.16515028476715088,0.22431400418281555
0.05665374547243118,0.008810802362859249,-0.31967201828956604,-1.618564486503601,0.16643115878105164,0.22493527829647064
0.05684932693839073,0.008806967176496983,-0.3200535774230957,-1.6239066123962402,0.1677158772945404,0.2255910485982895
0.0570947639644146,0.008803131990134716,-0.3205578923225403,-1.6304720640182495,0.1692805290222168,0.22638680040836334
0.05728267878293991,0.008801214396953583,-0.3209528923034668,-1.63582181930542,0.17046937346458435,0.22705024480819702
0.05748593062162399,0.008799297735095024,-0.32133254408836365,-1.6411561965942383,0.17177516222000122,0.22774054110050201
0.05768534913659096,0.008799297735095024,-0.3217160403728485,-1.6460994482040405,0.17308096587657928,0.22845767438411713
0.057884763926267624,0.008799297735095024,-0.32211679220199585,-1.651449203491211,0.17434458434581757,0.22912496328353882
0.05808418244123459,0.008799297735095024,-0.32248878479003906,-1.656785488128662,0.17561203241348267,0.22985360026359558
0.058270178735256195,0.008799297735095024,-0.32288187742233276,-1.6621372699737549,0.17679128050804138,0.23059183359146118
0.05852328613400459,0.008799297735095024,-0.32334014773368835,-1.6687122583389282,0.17839430272579193,0.2315198928117752
0.05873420834541321,0.008799297735095024,-0.3236948847770691,-1.6740562915802002,0.17966750264167786,0.23229454457759857
0.058943212032318115,0.008799297735095024,-0.3240438401699066,-1.6789803504943848,0.18092727661132812,0.23309221863746643
0.05915796756744385,0.008799297735095024,-0.32439857721328735,-1.6843223571777344,0.18219664692878723,0.23384003341197968
0.05942641571164131,0.008799297735095024,-0.3248511254787445,-1.6908897161483765,0.18379774689674377,0.23481793701648712
0.05964884161949158,0.008799297735095024,-0.32520392537117004,-1.6962299346923828,0.18508437275886536,0.23558877408504486
0.05985017865896225,0.008812719956040382,-0.32559892535209656,-1.7015854120254517,0.18625977635383606,0.2363557666540146
0.06007068604230881,0.008837646804749966,-0.32599392533302307,-1.7069237232208252,0.18751956522464752,0.23713041841983795
0.060289278626441956,0.008874079212546349,-0.32638317346572876,-1.7118592262268066,0.18878893554210663,0.23793192207813263
0.06050978973507881,0.008914345875382423,-0.3267800807952881,-1.7172051668167114,0.1900525540113449,0.23869124054908752
0.060734134167432785,0.00896995235234499,-0.3271540105342865,-1.7225568294525146,0.1913161724805832,0.23951959609985352
0.06100449711084366,0.00905432179570198,-0.32766595482826233,-1.7291300296783447,0.19285014271736145,0.24052242934703827
0.061211585998535156,0.009125268086791039,-0.32808589935302734,-1.7344797849655151,0.19400063157081604,0.2413162738084793
0.06143401190638542,0.009200049564242363,-0.32850775122642517,-1.7398236989974976,0.19524699449539185,0.2421005219221115
0.06165260449051857,0.009269079193472862,-0.3289238214492798,-1.7447478771209717,0.1965029388666153,0.24291352927684784
0.06192488595843315,0.00934577826410532,-0.3294166326522827,-1.7513171434402466,0.19806185364723206,0.24397389590740204
0.062158819288015366,0.009410971775650978,-0.32981929183006287,-1.7566553354263306,0.19931012392044067,0.24480798840522766
0.062398504465818405,0.009483836591243744,-0.33018553256988525,-1.761995553970337,0.20054306089878082,0.24571111798286438
0.06261517852544785,0.009549030102789402,-0.33057478070259094,-1.7673434019088745,0.2016916275024414,0.24658165872097015
0.06290663778781891,0.009616142138838768,-0.33103880286216736,-1.7739222049713135,0.20325054228305817,0.24762284755706787
0.06314248591661453,0.009671748615801334,-0.3314184546470642,-1.7792662382125854,0.20451799035072327,0.24847804009914398
0.06337641924619675,0.009731190279126167,-0.3318019509315491,-1.7842018604278564,0.20575092732906342,0.24936775863170624
0.06361610442399979,0.009782962501049042,-0.33218738436698914,-1.7895554304122925,0.2069934457540512,0.2502133548259735
0.06378483772277832,0.009823229163885117,-0.3324500620365143,-1.793662667274475,0.20787166059017181,0.2509324252605438
0.0641012191772461,0.0098654143512249,-0.3328987658023834,-1.8002511262893677,0.20947274565696716,0.25206947326660156
0.06436008214950562,0.009905681014060974,-0.33327266573905945,-1.805575966835022,0.21076320111751556,0.25296494364738464
0.06461702287197113,0.009963205084204674,-0.3336561620235443,-1.8105076551437378,0.21200956404209137,0.2538565695285797
0.064862459897995,0.010036068968474865,-0.33404541015625,-1.8158459663391113,0.21325017511844635,0.25469258427619934
0.06515391916036606,0.01016070507466793,-0.33453819155693054,-1.8224190473556519,0.21478798985481262,0.25584307312965393
0.06538593024015427,0.010271918959915638,-0.33491018414497375,-1.8277688026428223,0.21601900458335876,0.2567864656448364
0.0656716376543045,0.01041764672845602,-0.33539724349975586,-1.834349513053894,0.21751463413238525,0.2579503655433655
0.0658787190914154,0.01053653098642826,-0.3358018100261688,-1.8396916389465332,0.2186325341463089,0.2589071989059448
0.06610498577356339,0.010666918940842152,-0.3362064063549042,-1.8450356721878052,0.21985012292861938,0.25987550616264343
0.06633124500513077,0.010803059674799442,-0.33661291003227234,-1.8499712944030762,0.22106963396072388,0.26084768772125244
0.06655942648649216,0.010931530967354774,-0.33702516555786133,-1.8553152084350586,0.22228915989398956,0.26174888014793396
0.06677993386983871,0.011083011515438557,-0.33740290999412537,-1.8606630563735962,0.22348949313163757,0.2627038061618805
0.06704838573932648,0.011282429099082947,-0.3379129469394684,-1.867232322692871,0.22496019303798676,0.26386579871177673
0.06724780052900314,0.011445414274930954,-0.3383328914642334,-1.872566819190979,0.22606274485588074,0.26483795046806335
0.0674683079123497,0.011610317043960094,-0.3387547433376312,-1.8779011964797974,0.22725734114646912,0.2658369541168213
0.06768882274627686,0.011767550371587276,-0.33917081356048584,-1.8828214406967163,0.22846342623233795,0.26683980226516724
0.06795535236597061,0.011974637396633625,-0.33968088030815125,-1.8894098997116089,0.22994372248649597,0.26806122064590454
0.06815476715564728,0.012149128131568432,-0.3401046395301819,-1.8947577476501465,0.23111529648303986,0.2689739465713501
0.06835035234689713,0.012348545715212822,-0.3405015468597412,-1.9001094102859497,0.2322792112827301,0.2699882984161377
0.06859003007411957,0.012595899403095245,-0.3410326838493347,-1.906690239906311,0.23372498154640198,0.2712787389755249
0.06872808933258057,0.01273395773023367,-0.3413510024547577,-1.9107993841171265,0.2345571666955948,0.27209559082984924
0.06897544860839844,0.012950632721185684,-0.34184569120407104,-1.9173762798309326,0.23602595925331116,0.27336880564689636
0.06917870044708252,0.013144297525286674,-0.3422560393810272,-1.9223119020462036,0.2371860295534134,0.2743869721889496
0.06937427818775177,0.01333796326071024,-0.3426855504512787,-1.9276654720306396,0.2383403480052948,0.2753399610519409
0.0695660263299942,0.013569977134466171,-0.34309589862823486,-1.932999849319458,0.2394946664571762,0.2763926684856415
0.06973860412836075,0.013807744719088078,-0.3435445725917816,-1.9383362531661987,0.24056845903396606,0.2774280905723572
0.06992076337337494,0.014041676186025143,-0.3439856171607971,-1.9436668157577515,0.2417304515838623,0.27843478322029114
0.07010867446660995,0.014267939142882824,-0.34440362453460693,-1.9486043453216553,0.24287326633930206,0.2794414460659027
0.07034452259540558,0.014542138203978539,-0.34489449858665466,-1.9551812410354614,0.24427492916584015,0.28074342012405396
0.0705324336886406,0.014758812263607979,-0.34530290961265564,-1.9605348110198975,0.24542541801929474,0.281771183013916
0.07071651518344879,0.014998497441411018,-0.34569406509399414,-1.9658769369125366,0.24657973647117615,0.2828737199306488
0.0708814188838005,0.015251603908836842,-0.34614086151123047,-1.9712132215499878,0.24763242900371552,0.28392449021339417
0.07110576331615448,0.015560317784547806,-0.3467026650905609,-1.9778093099594116,0.2490110993385315,0.2851823568344116
0.07128600776195526,0.015811506658792496,-0.3471590280532837,-1.9831457138061523,0.25012707710266113,0.28623121976852417
0.07146432995796204,0.016064614057540894,-0.34761539101600647,-1.9880813360214233,0.2512468695640564,0.28731268644332886
0.07164265215396881,0.016302380710840225,-0.3480391502380371,-1.9934157133102417,0.25236475467681885,0.28830593824386597
0.07181714475154877,0.016566991806030273,-0.3485051095485687,-1.9987597465515137,0.2534807324409485,0.2893528640270233
0.07196862250566483,0.016837356612086296,-0.34897103905677795,-2.004092216491699,0.2545008361339569,0.29038065671920776
0.07216037064790726,0.017184419557452202,-0.34954819083213806,-2.0106635093688965,0.2558392286300659,0.29164808988571167
0.07231185585260391,0.01747012324631214,-0.35000455379486084,-2.01601505279541,0.25693219900131226,0.2926931083202362
0.07245949655771255,0.01775582693517208,-0.3504609167575836,-2.020946741104126,0.25801748037338257,0.2937515676021576
0.07261098176240921,0.018016604706645012,-0.3509134352207184,-2.0262985229492188,0.2591066062450409,0.29473522305488586
0.07276245951652527,0.018298473209142685,-0.3513276278972626,-2.0316405296325684,0.26020148396492004,0.2958224415779114
0.07294654101133347,0.01864553615450859,-0.3518913686275482,-2.0382251739501953,0.26154181361198425,0.2971876859664917
0.07308076322078705,0.018917817622423172,-0.352343887090683,-2.043565273284912,0.26252931356430054,0.29827871918678284
0.07321690022945404,0.019195852801203728,-0.35279449820518494,-2.0489132404327393,0.26358774304389954,0.29934293031692505
0.0733472928404808,0.01947963796555996,-0.35325852036476135,-2.0538487434387207,0.26465004682540894,0.3003956079483032
0.0735083594918251,0.019836289808154106,-0.3538471758365631,-2.0604162216186523,0.2659769356250763,0.30171677470207214
0.07360807061195374,0.020039541646838188,-0.35417890548706055,-2.0645253658294678,0.2668071985244751,0.3024684190750122
0.07376338541507721,0.020398110151290894,-0.3547694981098175,-2.071077346801758,0.26810723543167114,0.30376654863357544
0.07387460023164749,0.020691484212875366,-0.3552277684211731,-2.0764174461364746,0.2690621614456177,0.30478471517562866
0.07398197799921036,0.020990610122680664,-0.35567644238471985,-2.081761598587036,0.2701014280319214,0.3058105707168579
0.07408743351697922,0.021289736032485962,-0.35611364245414734,-2.086702823638916,0.27115029096603394,0.3068728446960449
0.07419098168611526,0.021573523059487343,-0.35655850172042847,-2.092054605484009,0.2722068130970001,0.3078795373439789
0.07430219650268555,0.021957017481327057,-0.35712605714797974,-2.098637104034424,0.27348384261131287,0.30918341875076294
0.07438848167657852,0.022279152646660805,-0.35756707191467285,-2.1039907932281494,0.27449819445610046,0.3101843297481537
0.07446326315402985,0.02260512486100197,-0.35805028676986694,-2.109332799911499,0.27542242407798767,0.3111622631549835
0.07453612983226776,0.022931095212697983,-0.3585277497768402,-2.114680767059326,0.27643099427223206,0.31217658519744873
0.07460515201091766,0.02330883778631687,-0.3590991497039795,-2.1212480068206787,0.2776850461959839,0.3134804666042328
0.07464158535003662,0.023600295186042786,-0.35954785346984863,-2.126175880432129,0.27868595719337463,0.31453317403793335
0.07467226684093475,0.023864906281232834,-0.35996392369270325,-2.1315085887908936,0.2796696126461029,0.31547656655311584
0.0747067853808403,0.024150609970092773,-0.360416442155838,-2.1368582248687744,0.28064560890197754,0.3164794147014618
0.07473938167095184,0.024442065507173538,-0.3608785569667816,-2.142202138900757,0.28154298663139343,0.31748032569885254
0.07477197796106339,0.024745028465986252,-0.3613579273223877,-2.1475443840026855,0.28252092003822327,0.3184870183467865
0.07480457425117493,0.025115100666880608,-0.3619600236415863,-2.1541271209716797,0.2837289273738861,0.31972378492355347
0.07482566684484482,0.02540847472846508,-0.3624489903450012,-2.1590569019317627,0.28471067547798157,0.320632666349411
0.07484100759029388,0.02568267285823822,-0.36289191246032715,-2.1644084453582764,0.2856866717338562,0.32160675525665283
0.07485058903694153,0.025983717292547226,-0.3633693754673004,-2.1697468757629395,0.2865802049636841,0.3225942552089691
0.07485634833574295,0.026282843202352524,-0.3638506531715393,-2.1750946044921875,0.2875466048717499,0.3235798180103302
0.07486210018396378,0.026658669114112854,-0.3644546568393707,-2.181663990020752,0.2887277901172638,0.3247571587562561
0.07486210018396378,0.02696930058300495,-0.3649570345878601,-2.1870059967041016,0.2896807789802551,0.3256717920303345
0.07486210018396378,0.027276095002889633,-0.3654613494873047,-2.191941499710083,0.2906337380409241,0.3265710771083832
0.07486210018396378,0.027556046843528748,-0.3659272789955139,-2.1972761154174805,0.2915886640548706,0.32741668820381165
0.07486210018396378,0.027931872755289078,-0.36653128266334534,-2.203852891921997,0.2927602231502533,0.32857102155685425
0.07485251128673553,0.02816772274672985,-0.3668975234031677,-2.2079639434814453,0.2934083342552185,0.3292939066886902
0.07480073720216751,0.028553135693073273,-0.36747661232948303,-2.214542865753174,0.2945415675640106,0.3304674029350281
0.07474129647016525,0.028871435672044754,-0.36794063448905945,-2.2198848724365234,0.29546964168548584,0.33142614364624023
0.07466842979192734,0.029189737513661385,-0.36840465664863586,-2.2248263359069824,0.2963995933532715,0.3323120176792145
0.07458598166704178,0.029477357864379883,-0.36883801221847534,-2.2301740646362305,0.29734301567077637,0.3332841694355011
0.0744996964931488,0.029782237485051155,-0.3693173825740814,-2.235520124435425,0.2982077896595001,0.33424291014671326
0.0743846446275711,0.030148474499583244,-0.3699137270450592,-2.242098808288574,0.2994023561477661,0.33536654710769653
0.0742906928062439,0.030443767085671425,-0.37040460109710693,-2.247429609298706,0.3002249598503113,0.33624282479286194
0.0741756409406662,0.030727552250027657,-0.370876282453537,-2.252769708633423,0.30111467838287354,0.33714404702186584
0.07405100762844086,0.03100942075252533,-0.37133264541625977,-2.2576918601989746,0.3020043969154358,0.3380126655101776
0.0739225372672081,0.03127019852399826,-0.3717525601387024,-2.2630395889282227,0.3029036819934845,0.33896949887275696
0.0737844780087471,0.03155973553657532,-0.37222811579704285,-2.26838755607605,0.3037377893924713,0.3399032950401306
0.07360231876373291,0.03193172812461853,-0.37284746766090393,-2.2749664783477783,0.30480965971946716,0.3409866690635681
0.07345850765705109,0.03223085403442383,-0.3733709156513214,-2.280308485031128,0.30566102266311646,0.34183037281036377
0.07329551875591278,0.032531898468732834,-0.37388288974761963,-2.2856523990631104,0.3065046966075897,0.34267404675483704
0.07308651506900787,0.032907724380493164,-0.37449073791503906,-2.2922370433807373,0.3075574040412903,0.34375932812690735
0.07291010767221451,0.03321068361401558,-0.3749777674674988,-2.297170639038086,0.30842408537864685,0.3445857763290405
0.07273370027542114,0.03348296508193016,-0.37542837858200073,-2.3025147914886475,0.3092907965183258,0.3454601466655731
0.07254961878061295,0.033774420619010925,-0.3759346008300781,-2.3078529834747314,0.31008464097976685,0.34630000591278076
0.07236554473638535,0.03405629098415375,-0.3764292895793915,-2.31318736076355,0.3109225630760193,0.34710532426834106
0.07216037064790726,0.03434007614850998,-0.3769163489341736,-2.3185276985168457,0.3117375075817108,0.34790492057800293
0.07194753736257553,0.03462386503815651,-0.3774052858352661,-2.323455572128296,0.31255432963371277,0.34866616129875183
0.07171360403299332,0.03495750576257706,-0.378030389547348,-2.330040216445923,0.31358784437179565,0.3498128056526184
0.07156211882829666,0.03519143536686897,-0.37852317094802856,-2.3353803157806396,0.3144584000110626,0.35065650939941406
0.07140105217695236,0.03544454276561737,-0.37907540798187256,-2.3407318592071533,0.31524839997291565,0.351519376039505
0.07116520404815674,0.035770513117313385,-0.3797542154788971,-2.3473012447357178,0.3162704110145569,0.3525087833404541
0.0710175558924675,0.035973768681287766,-0.38016262650489807,-2.35142183303833,0.3168993294239044,0.35311853885650635
0.0707414448261261,0.0363035723567009,-0.38078773021698,-2.357996940612793,0.3178849220275879,0.3541194796562195
0.07050558924674988,0.03656435012817383,-0.3812747597694397,-2.36293625831604,0.3186749219894409,0.354888379573822
0.07026590406894684,0.03680019825696945,-0.3817157745361328,-2.368276596069336,0.31946682929992676,0.3557320535182953
0.07003005594015121,0.037059057503938675,-0.3821989893913269,-2.3736186027526855,0.3201897144317627,0.3565604090690613
0.06981721520423889,0.03731600195169449,-0.3827071189880371,-2.378960609436035,0.32096439599990845,0.3573504090309143
0.06954685598611832,0.03763622045516968,-0.38336098194122314,-2.3855204582214355,0.3219154477119446,0.3582938015460968
0.06938578933477402,0.037833720445632935,-0.38377323746681213,-2.3892250061035156,0.3225041329860687,0.3588249385356903
0.06911925971508026,0.03814626857638359,-0.3844136595726013,-2.3957998752593994,0.32343408465385437,0.35978177189826965
0.06890833377838135,0.03838019818067551,-0.38488537073135376,-2.4011478424072266,0.324176162481308,0.36056411266326904
0.06867440044879913,0.038700416684150696,-0.38551047444343567,-2.4077227115631104,0.3250601291656494,0.3614960014820099
0.06850374490022659,0.03896886482834816,-0.3860205113887787,-2.4130725860595703,0.3257024586200714,0.3622380495071411
0.06835418194532394,0.039235394448041916,-0.38651329278945923,-2.418422222137451,0.3263946771621704,0.3629781901836395
0.06819695234298706,0.039500005543231964,-0.38700035214424133,-2.4237663745880127,0.32709264755249023,0.36372217535972595
0.06801479309797287,0.03982022404670715,-0.38759860396385193,-2.430345296859741,0.32794591784477234,0.364652156829834
0.06791124492883682,0.040000464767217636,-0.3879360854625702,-2.434032440185547,0.32847321033477783,0.36517563462257385
0.06775401532649994,0.040332190692424774,-0.38854584097862244,-2.440613269805908,0.3292977511882782,0.3660902678966522
0.067631296813488,0.04060639068484306,-0.38903671503067017,-2.4459457397460938,0.32990556955337524,0.366818904876709
0.06751816719770432,0.04087291657924652,-0.38951224088668823,-2.451293706893921,0.33055177330970764,0.3675379753112793
0.0673992782831192,0.041129861027002335,-0.389968603849411,-2.4566357135772705,0.331186443567276,0.36828386783599854
0.06728807091712952,0.04138296842575073,-0.3904096186161041,-2.461569309234619,0.3318249583244324,0.36899715662002563
0.06715576350688934,0.04169167950749397,-0.39094650745391846,-2.4681501388549805,0.33262455463409424,0.3699808120727539
0.06706180423498154,0.04192177578806877,-0.3913511037826538,-2.4734902381896973,0.33327457308769226,0.3707938492298126
0.06697743386030197,0.042167212814092636,-0.3917825222015381,-2.47884202003479,0.33387282490730286,0.3715915083885193
0.06690073758363724,0.042406897991895676,-0.3921967148780823,-2.484182119369507,0.3345266878604889,0.37236616015434265
0.06680486351251602,0.04269643872976303,-0.39268758893013,-2.490766763687134,0.3353128731250763,0.3733057379722595
0.0667300820350647,0.04292845353484154,-0.39308640360832214,-2.496101140975952,0.3359302878379822,0.3740765452384949
0.06666871905326843,0.04315663129091263,-0.39348334074020386,-2.5010251998901367,0.3365323841571808,0.37480518221855164
0.06661120057106018,0.04336180165410042,-0.39384573698043823,-2.506371259689331,0.33712488412857056,0.3756066858768463
0.06655558943748474,0.04364175349473953,-0.39431360363960266,-2.5129384994506836,0.3378515839576721,0.3765922784805298
0.06652874499559402,0.0438181608915329,-0.39460697770118713,-2.517057418823242,0.33825811743736267,0.37718671560287476
0.06648080796003342,0.04409236088395119,-0.3950652480125427,-2.523630380630493,0.3389982581138611,0.37813010811805725
0.06644629687070847,0.04431478679180145,-0.3954333961009979,-2.5289783477783203,0.3395984172821045,0.3788855969905853
0.06642520427703857,0.04453529790043831,-0.3957957923412323,-2.533910036087036,0.3401947617530823,0.3795950412750244
0.0664079487323761,0.04474238306283951,-0.39612945914268494,-2.53926157951355,0.34078916907310486,0.38036972284317017
0.06639452278614044,0.04496864601969719,-0.3964937627315521,-2.5446057319641113,0.3413260579109192,0.38115203380584717
0.06638301908969879,0.045248597860336304,-0.3969443738460541,-2.5511865615844727,0.34202978014945984,0.3821127116680145
0.06637726724147797,0.04547677934169769,-0.39730486273765564,-2.5565247535705566,0.3425992727279663,0.3828873634338379
0.06637343019247055,0.045704957097768784,-0.3976480960845947,-2.561857223510742,0.34315726161003113,0.38365817070007324
0.06637343019247055,0.04593313857913017,-0.3979893922805786,-2.566787004470825,0.34371331334114075,0.38437148928642273
0.06637343019247055,0.04621117189526558,-0.3984208405017853,-2.5733602046966553,0.3443940281867981,0.38532447814941406
0.06637343019247055,0.046420175582170486,-0.3987487256526947,-2.5787060260772705,0.3449520170688629,0.38610488176345825
0.06637343019247055,0.04664452001452446,-0.3990881145000458,-2.5840578079223633,0.34546974301338196,0.38689297437667847
0.06637343019247055,0.04686886444687843,-0.3994159996509552,-2.589399814605713,0.34602004289627075,0.3876791298389435
0.06637918204069138,0.04709896445274353,-0.3997400403022766,-2.5947418212890625,0.3465626835823059,0.38846147060394287
0.06640986353158951,0.047321390360593796,-0.4000602662563324,-2.5996737480163574,0.34709957242012024,0.38917091488838196
0.0664539635181427,0.04753423109650612,-0.4003593921661377,-2.6050310134887695,0.34763649106025696,0.3899436593055725
0.06651724129915237,0.04781609773635864,-0.4007486402988434,-2.6116061210632324,0.348286509513855,0.390929251909256
0.06657668203115463,0.04804811254143715,-0.4010535180568695,-2.6169538497924805,0.34876203536987305,0.39174801111221313
0.06664379686117172,0.04827820882201195,-0.40136033296585083,-2.6222827434539795,0.34927016496658325,0.39253416657447815
0.06672433018684387,0.04850639030337334,-0.40168246626853943,-2.6276209354400635,0.34977254271507263,0.39329349994659424
0.06683362275362015,0.04878442361950874,-0.4020870327949524,-2.634190082550049,0.3503861427307129,0.3942292332649231
0.06691991537809372,0.04900876805186272,-0.40240150690078735,-2.6391239166259766,0.35088276863098145,0.3949444591999054
0.06701003015041351,0.049215856939554214,-0.4026833772659302,-2.6444754600524902,0.3513736426830292,0.3957497775554657
0.06710782647132874,0.04944020137190819,-0.4029920995235443,-2.6498234272003174,0.3518165647983551,0.3965551257133484
0.06724013388156891,0.04972206801176071,-0.4033870995044708,-2.6563963890075684,0.3523994982242584,0.39751386642456055
0.0673513412475586,0.04995408281683922,-0.4037245810031891,-2.66174054145813,0.35286736488342285,0.3982597589492798
0.06747789680957794,0.050184182822704315,-0.40406012535095215,-2.6670939922332764,0.3533352315425873,0.3989826440811157
0.06759870052337646,0.050414279103279114,-0.4043765068054199,-2.6720237731933594,0.35380882024765015,0.3996729552745819
0.0677214190363884,0.05062328279018402,-0.4046679735183716,-2.6773717403411865,0.35426902770996094,0.40044376254081726
0.0678824856877327,0.050916656851768494,-0.4050591289997101,-2.6839370727539062,0.3548174202442169,0.4014178514480591
0.0679764375090599,0.0511026531457901,-0.40530073642730713,-2.6880500316619873,0.3551165461540222,0.40203145146369934
0.06815476715564728,0.05140944942831993,-0.4057072401046753,-2.6946194171905518,0.3556266129016876,0.40298059582710266
0.06831391900777817,0.051668308675289154,-0.40603896975517273,-2.6999576091766357,0.3560177683830261,0.40371882915496826
0.0685286745429039,0.051998112350702286,-0.4064435362815857,-2.706538438796997,0.3564779460430145,0.4046008586883545
0.06870508193969727,0.05226656049489975,-0.40676185488700867,-2.7114644050598145,0.3568384349346161,0.40527579188346863
0.06886423379182816,0.052523501217365265,-0.4070398807525635,-2.71681809425354,0.35717400908470154,0.4060504734516144
0.06900229305028915,0.052807290107011795,-0.4073179066181183,-2.722158193588257,0.3574692904949188,0.4068615734577179
0.06919404119253159,0.05315626785159111,-0.4076649844646454,-2.7287447452545166,0.35788729786872864,0.4078720808029175
0.06936852633953094,0.05344005674123764,-0.4079698622226715,-2.734088659286499,0.3582286238670349,0.40866589546203613
0.06955644488334656,0.05373343080282211,-0.40830159187316895,-2.7394309043884277,0.35853350162506104,0.40940988063812256
0.06974627077579498,0.054026804864406586,-0.4086333215236664,-2.744368314743042,0.35883837938308716,0.4100886583328247
0.06993035227060318,0.05429908633232117,-0.40892669558525085,-2.749706506729126,0.3591662645339966,0.41084223985671997
0.0700952485203743,0.054586704820394516,-0.409231573343277,-2.7550430297851562,0.35947880148887634,0.4116303324699402
0.0702812448143959,0.05487624555826187,-0.4095422029495239,-2.7603793144226074,0.3598162829875946,0.41243183612823486
0.07052092999219894,0.05523097887635231,-0.4099276065826416,-2.766956090927124,0.3602285385131836,0.41341549158096313
0.07072610408067703,0.055522434413433075,-0.4102458953857422,-2.7722983360290527,0.360556423664093,0.4141901433467865
0.07093702256679535,0.05581580847501755,-0.410566121339798,-2.777235746383667,0.36088240146636963,0.41489771008491516
0.07114411145448685,0.05608425661921501,-0.4108479917049408,-2.782585620880127,0.3611987829208374,0.4156608581542969
0.0714106410741806,0.056446656584739685,-0.41123533248901367,-2.7891623973846436,0.36155927181243896,0.4165908396244049
0.07162731885910034,0.056753452867269516,-0.4115632176399231,-2.7945122718811035,0.36180853843688965,0.41733288764953613
0.07186699658632278,0.05706024914979935,-0.4118834435939789,-2.799854278564453,0.36207315325737,0.41807878017425537
0.07209710031747818,0.05736513063311577,-0.4121902287006378,-2.805194616317749,0.36233967542648315,0.4188419580459595
0.07232335954904556,0.05767000839114189,-0.4124816954135895,-2.8101186752319336,0.3626100420951843,0.4195437431335449
0.07254386693239212,0.057951875030994415,-0.41273096203804016,-2.815464496612549,0.36289000511169434,0.42030689120292664
0.07281807065010071,0.05832961946725845,-0.4130626618862152,-2.822026014328003,0.36323899030685425,0.42125606536865234
0.07303091138601303,0.05864408612251282,-0.41334646940231323,-2.8273720741271973,0.36349210143089294,0.4220268726348877
0.07327251136302948,0.05896430462598801,-0.4136398434638977,-2.832723617553711,0.3637528717517853,0.4227900207042694
0.07357163727283478,0.059365056455135345,-0.4140118360519409,-2.8393025398254395,0.3640769124031067,0.423710435628891
0.07381132245063782,0.059696778655052185,-0.41431671380996704,-2.844646453857422,0.364337682723999,0.4244428873062134
0.07405675947666168,0.06002083420753479,-0.4146100878715515,-2.8495707511901855,0.3646080493927002,0.42513126134872437
0.07430027425289154,0.06031612306833267,-0.41487085819244385,-2.8549280166625977,0.3648918569087982,0.42588868737220764
0.07453804463148117,0.06065168231725693,-0.4151623249053955,-2.860274076461792,0.3651353716850281,0.4266422390937805
0.07480841130018234,0.06100449711084366,-0.41547295451164246,-2.86562180519104,0.3653769791126251,0.42738622426986694
0.0750960260629654,0.06136690080165863,-0.4158065915107727,-2.870958089828491,0.36560899019241333,0.42812252044677734
0.07545842975378036,0.061807919293642044,-0.4162150025367737,-2.8775293827056885,0.3658851087093353,0.42900457978248596
0.07575372606515884,0.06215498223900795,-0.4165371358394623,-2.8824591636657715,0.3661113679409027,0.4296565055847168
0.07605476677417755,0.06247328594326973,-0.4168381989002228,-2.8877973556518555,0.36632993817329407,0.4303295612335205
0.07633088529109955,0.06281843036413193,-0.417164146900177,-2.893139600753784,0.3665236234664917,0.43100064992904663
0.07670862972736359,0.06325370073318481,-0.41756874322891235,-2.899716377258301,0.36676904559135437,0.4318405091762543
0.07702501118183136,0.06361610442399979,-0.4179004728794098,-2.9050681591033936,0.366955041885376,0.4325384795665741
0.07741617411375046,0.06407245993614197,-0.41830697655677795,-2.911647081375122,0.36717554926872253,0.4333917498588562
0.07773255556821823,0.06445404142141342,-0.4186444580554962,-2.9169909954071045,0.3673500418663025,0.4340667128562927
0.07805661112070084,0.0648413673043251,-0.41897809505462646,-2.921926498413086,0.36752262711524963,0.4346592128276825
0.07838641852140427,0.06520185619592667,-0.4192887246608734,-2.927276372909546,0.3676932752132416,0.4352766275405884
0.07868362963199615,0.06559301912784576,-0.4196357727050781,-2.9326183795928955,0.36784666776657104,0.435874879360199
0.07901342958211899,0.06598993390798569,-0.41998475790023804,-2.937952756881714,0.36800581216812134,0.43647122383117676
0.07934323698282242,0.06639260798692703,-0.42033758759498596,-2.943291187286377,0.368161141872406,0.43706947565078735
0.07976316660642624,0.06689882278442383,-0.42077094316482544,-2.9498584270477295,0.3683509826660156,0.43782880902290344
0.08010639250278473,0.06730148941278458,-0.4211352467536926,-2.9547979831695557,0.3685043752193451,0.43840786814689636
0.08044770359992981,0.06766197830438614,-0.4214803874492645,-2.9601399898529053,0.36865776777267456,0.43902531266212463
0.08076600730419159,0.0680454671382904,-0.4218677282333374,-2.9654839038848877,0.36879581212997437,0.43962547183036804
0.08120319247245789,0.06851717084646225,-0.4223509430885315,-2.972062826156616,0.3689683973789215,0.4403272569179535
0.08156942576169968,0.06890449672937393,-0.42275169491767883,-2.977412700653076,0.3691045343875885,0.44086799025535583
0.0819433331489563,0.06929566711187363,-0.42315244674682617,-2.98276424407959,0.3692387640476227,0.44140106439590454
0.08232299983501434,0.06969066709280014,-0.4235436022281647,-2.9876883029937744,0.36937105655670166,0.4418957531452179
0.08278510719537735,0.07018154114484787,-0.4240095615386963,-2.9942729473114014,0.36953023076057434,0.4425649642944336
0.08317435532808304,0.0705573633313179,-0.4243547022342682,-2.999605417251587,0.36965101957321167,0.4431152641773224
0.08353867381811142,0.07096961885690689,-0.4247228503227234,-3.004943609237671,0.3697564899921417,0.4436675012111664
0.08393367379903793,0.07138379663228989,-0.4250929355621338,-3.0102858543395996,0.3698696196079254,0.4442235827445984
0.08433251082897186,0.0718018040060997,-0.4254591464996338,-3.015622138977051,0.3699789047241211,0.44476622343063354
0.08472751080989838,0.07222364842891693,-0.425831139087677,-3.020561456680298,0.37008437514305115,0.44525134563446045
0.0852164700627327,0.07274904102087021,-0.4262913465499878,-3.0271365642547607,0.3702166676521301,0.44587451219558716
0.08561147004365921,0.07314979285001755,-0.4266364872455597,-3.032482624053955,0.37032023072242737,0.4463730752468109
0.085977703332901,0.07358314096927643,-0.4270123243331909,-3.0378265380859375,0.3704141676425934,0.44686010479927063
0.08637462556362152,0.0740126520395279,-0.42738431692123413,-3.043180227279663,0.3705138862133026,0.4473394751548767
0.08686932921409607,0.07453229278326035,-0.42784833908081055,-3.049755096435547,0.3706231713294983,0.44792813062667847
0.08727966994047165,0.07495030015707016,-0.4282279908657074,-3.055103063583374,0.37070563435554504,0.4484017491340637
0.08769384771585464,0.07536639273166656,-0.42860957980155945,-3.060030937194824,0.3707861602306366,0.4488331973552704
0.08810418844223022,0.07574605196714401,-0.428966224193573,-3.0653634071350098,0.37086477875709534,0.44928956031799316
0.08849343657493591,0.07616214454174042,-0.4293573796749115,-3.0707054138183594,0.37093764543533325,0.4497324824333191
0.08892294764518738,0.07658207416534424,-0.429752379655838,-3.0760457515716553,0.37101051211357117,0.4501715898513794
0.08945409208536148,0.0771036297082901,-0.4302375018596649,-3.0826263427734375,0.3710891306400299,0.45069506764411926
0.08989319205284119,0.07752547413110733,-0.4306305944919586,-3.0879647731781006,0.37115049362182617,0.45110732316970825
0.0903342142701149,0.07794731855392456,-0.43101218342781067,-3.092902183532715,0.3712080121040344,0.45147931575775146
0.09078098088502884,0.07833656668663025,-0.4313611388206482,-3.0982460975646973,0.3712655305862427,0.4518819749355316
0.09132938086986542,0.07886386662721634,-0.4318290054798126,-3.104832649230957,0.37133073806762695,0.45237475633621216
0.0917416363954544,0.0792933851480484,-0.4322144389152527,-3.1101768016815186,0.37137866020202637,0.45276784896850586
0.09218841046094894,0.07972289621829987,-0.4326036870479584,-3.115520715713501,0.37142661213874817,0.45316094160079956
0.0926409363746643,0.08015241473913193,-0.4329986870288849,-3.120868682861328,0.37146687507629395,0.45354825258255005
0.09318741410970688,0.08067779988050461,-0.4334838092327118,-3.1274302005767822,0.37150904536247253,0.4540180563926697
0.09363610297441483,0.08109964430332184,-0.4338788092136383,-3.1323657035827637,0.3715416491031647,0.45435550808906555
0.09408862888813019,0.08148506283760071,-0.4342412054538727,-3.137700080871582,0.3715704083442688,0.4547121822834015
0.09451431035995483,0.08190307021141052,-0.4346400201320648,-3.1430461406707764,0.3715953528881073,0.4550573229789734
0.09498216956853867,0.08231916278600693,-0.435050368309021,-3.148390054702759,0.3716145157814026,0.45539095997810364
0.09556125104427338,0.08283304423093796,-0.435564249753952,-3.1549651622772217,0.37162601947784424,0.4557936191558838
0.09592749178409576,0.08315134793519974,-0.4358863830566406,-3.1586697101593018,0.37163177132606506,0.45601797103881836
0.09651615470647812,0.08366331458091736,-0.43640026450157166,-3.1652448177337646,0.3716375231742859,0.45640337467193604
0.09699360281229019,0.08404681086540222,-0.4367818534374237,-3.170600175857544,0.3716413676738739,0.45671018958091736
0.09743846207857132,0.08446673303842545,-0.4371922016143799,-3.175938367843628,0.3716413676738739,0.45700547099113464
0.09792741388082504,0.08488857746124268,-0.43759870529174805,-3.181286334991455,0.3716413676738739,0.4572969377040863
0.09852566570043564,0.08541779965162277,-0.4380876421928406,-3.1878535747528076,0.3716413676738739,0.45765358209609985
0.09901462495326996,0.08584540337324142,-0.4384845793247223,-3.193190097808838,0.3716413676738739,0.45793354511260986
0.09950549900531769,0.08626916259527206,-0.4388814866542816,-3.198119878768921,0.3716413676738739,0.45818856358528137
0.09999445825815201,0.08665457367897034,-0.439247727394104,-3.2034618854522705,0.3716413676738739,0.45845893025398254
0.10044697672128677,0.08707066625356674,-0.43965038657188416,-3.2088117599487305,0.3716375231742859,0.4587197005748749
0.10105098783969879,0.08757496625185013,-0.44015276432037354,-3.21539044380188,0.3716202676296234,0.459024578332901
0.10155528038740158,0.08797954767942429,-0.44057270884513855,-3.2207326889038086,0.37158000469207764,0.4592565894126892
0.10206340998411179,0.08838222175836563,-0.4410003125667572,-3.226078510284424,0.37148988246917725,0.45947325229644775
0.10258112847805023,0.08877913653850555,-0.4414317309856415,-3.23101806640625,0.3713921010494232,0.4596669375896454
0.10322156548500061,0.08927959948778152,-0.4419648051261902,-3.237591028213501,0.3712674379348755,0.4599008560180664
0.10373928397893906,0.08965350687503815,-0.4423655569553375,-3.2429370880126953,0.3711619973182678,0.4600849449634552
0.10421290248632431,0.0900561735033989,-0.44278931617736816,-3.248286724090576,0.3710622787475586,0.46026134490966797
0.10472486913204193,0.09045884758234024,-0.4432092308998108,-3.2536191940307617,0.3709529936313629,0.4604339301586151
0.10523683577775955,0.0908653512597084,-0.443623423576355,-3.258955717086792,0.37084752321243286,0.4605949819087982
0.10574688017368317,0.09126802533864975,-0.44403567910194397,-3.2638797760009766,0.3707420527935028,0.46073880791664124
0.10637965053319931,0.0917627289891243,-0.44453805685043335,-3.2704622745513916,0.370604008436203,0.4609133005142212
0.10689353197813034,0.0921328067779541,-0.444919615983963,-3.2758007049560547,0.3704889714717865,0.4610494375228882
0.10737098753452301,0.09252588450908661,-0.445339560508728,-3.2811598777770996,0.3703758120536804,0.4611683189868927
0.10789445787668228,0.09291129559278488,-0.44576331973075867,-3.28649640083313,0.3702531158924103,0.46127378940582275
0.10842368006706238,0.09328904002904892,-0.44619283080101013,-3.2918460369110107,0.3701169788837433,0.46136966347694397
0.10906986892223358,0.09373772889375687,-0.44672781229019165,-3.298426866531372,0.36994248628616333,0.461467444896698
0.10947445780038834,0.09399084001779556,-0.44702500104904175,-3.3021256923675537,0.36983126401901245,0.4615173041820526
0.11011873185634613,0.09444335848093033,-0.44755613803863525,-3.308706521987915,0.36964911222457886,0.4615901708602905
0.11060384660959244,0.09482493996620178,-0.44799333810806274,-3.3140389919281006,0.3695014715194702,0.46163618564605713
0.11124620586633682,0.09529280662536621,-0.4485321342945099,-3.3206119537353516,0.36929818987846375,0.46168604493141174
0.11176775395870209,0.09567438066005707,-0.4489693343639374,-3.3259503841400146,0.3691332936286926,0.4617205560207367
0.11227972060441971,0.0960502102971077,-0.44939693808555603,-3.3312981128692627,0.3689664900302887,0.4617454707622528
0.11279552429914474,0.09642411768436432,-0.44982069730758667,-3.336237668991089,0.36879774928092957,0.46176081895828247
0.1134302094578743,0.09688431024551392,-0.45034608244895935,-3.3428220748901367,0.368577241897583,0.46177423000335693
0.1139613538980484,0.09724096208810806,-0.45074108242988586,-3.3481662273406982,0.3683912456035614,0.46177807450294495
0.11444839090108871,0.09763403981924057,-0.45118018984794617,-3.3535025119781494,0.36821290850639343,0.46177807450294495
0.11498145014047623,0.09802137315273285,-0.4516231119632721,-3.358856201171875,0.36800774931907654,0.46177807450294495
0.11551258713006973,0.09840869903564453,-0.4520679712295532,-3.3641905784606934,0.36780256032943726,0.46177807450294495
0.11605139821767807,0.09879028052091599,-0.452524334192276,-3.3691375255584717,0.36759164929389954,0.46177807450294495
0.11658637225627899,0.09913542866706848,-0.452940434217453,-3.3744797706604004,0.3673788011074066,0.46177807450294495
0.1172344833612442,0.09959178417921066,-0.4534945785999298,-3.381047010421753,0.36711612343788147,0.46176081895828247
0.11772343516349792,0.0999465212225914,-0.4539490044116974,-3.386383295059204,0.3669147789478302,0.46173012256622314
0.11825074255466461,0.10030125081539154,-0.45440730452537537,-3.3917198181152344,0.36669427156448364,0.46161699295043945
0.11878571659326553,0.10065406560897827,-0.45485982298851013,-3.3970751762390137,0.36646610498428345,0.4614885449409485
0.11944149434566498,0.10108741372823715,-0.4554063081741333,-3.4036502838134766,0.36616888642311096,0.4613293707370758
0.11997455358505249,0.10143831372261047,-0.45585116744041443,-3.408595323562622,0.3659196197986603,0.46120667457580566
0.12050952762365341,0.10176428407430649,-0.45626533031463623,-3.413945198059082,0.3656684160232544,0.4610743522644043
0.12100040167570114,0.10211709886789322,-0.456717848777771,-3.419294834136963,0.36542874574661255,0.4609382152557373
0.12165426462888718,0.1025504469871521,-0.45727968215942383,-3.4258737564086914,0.3651008605957031,0.46076372265815735
0.1220531016588211,0.10281697660684586,-0.45763441920280457,-3.429990530014038,0.36489760875701904,0.46065443754196167
0.12268202751874924,0.10322923958301544,-0.45820772647857666,-3.4365789890289307,0.36457929015159607,0.4604761004447937
0.12319399416446686,0.1035647988319397,-0.4586755931377411,-3.4415011405944824,0.3643089234828949,0.4603188633918762
0.12370596081018448,0.10387542843818665,-0.4591108560562134,-3.446845293045044,0.3640270531177521,0.4601271152496338
0.12417957931756973,0.10421865433454514,-0.4595787227153778,-3.4521758556365967,0.36376628279685974,0.45993155241012573
0.12468579411506653,0.10457722097635269,-0.46005043387413025,-3.457519769668579,0.36347100138664246,0.459716796875
0.12531280517578125,0.10502015799283981,-0.4606333374977112,-3.464083433151245,0.3630913496017456,0.45942533016204834
0.12582285702228546,0.10537872463464737,-0.46111270785331726,-3.4694292545318604,0.36277687549591064,0.45917031168937683
0.1263367384672165,0.10572962462902069,-0.46159207820892334,-3.4743590354919434,0.36245474219322205,0.45891720056533813
0.12696950137615204,0.10616105794906616,-0.4621769189834595,-3.4809341430664062,0.3620520532131195,0.4585605561733246
0.12759652733802795,0.10659440606832504,-0.4627559781074524,-3.4875032901763916,0.36164554953575134,0.45820772647857666
0.12810465693473816,0.10692037642002106,-0.46318933367729187,-3.492849349975586,0.3613157570362091,0.457923948764801
0.1285782754421234,0.10727319121360779,-0.46366485953330994,-3.4981932640075684,0.36099937558174133,0.45763248205184937
0.12920911610126495,0.10770270973443985,-0.4642554521560669,-3.5047569274902344,0.36056026816368103,0.45725858211517334
0.1297287493944168,0.10805168747901917,-0.4647444188594818,-3.510097026824951,0.36019212007522583,0.45694029331207275
0.13024455308914185,0.10840258747339249,-0.46523529291152954,-3.5154314041137695,0.3598181903362274,0.45661622285842896
0.1307622790336609,0.10875540226697922,-0.46572041511535645,-3.520364999771118,0.3594251275062561,0.4563075006008148
0.13128383457660675,0.10907945781946182,-0.466174840927124,-3.5257091522216797,0.3590147793292999,0.45595279335975647
0.13192617893218994,0.10952047258615494,-0.46680185198783875,-3.532289981842041,0.35849514603614807,0.45549067854881287
0.13241322338581085,0.10988479852676392,-0.46731191873550415,-3.537637710571289,0.35809823870658875,0.45509758591651917
0.1329347789287567,0.11025486886501312,-0.46782004833221436,-3.542985677719116,0.35765528678894043,0.454687237739563
0.13345441222190857,0.11062877625226974,-0.46832433342933655,-3.5483314990997314,0.3572046756744385,0.45426347851753235
0.13397212326526642,0.1110103577375412,-0.4688248038291931,-3.553257465362549,0.3567502498626709,0.4538608193397522
0.13448984920978546,0.11135933548212051,-0.4692830741405487,-3.5586130619049072,0.3562861979007721,0.4534006118774414
0.13511303067207336,0.11182527989149094,-0.4699024260044098,-3.565178394317627,0.35569754242897034,0.45280811190605164
0.1355847269296646,0.11219727247953415,-0.4704086184501648,-3.570526361465454,0.3552296757698059,0.45229998230934143
0.13609477877616882,0.11256926506757736,-0.470920592546463,-3.5758798122406006,0.3547023832798004,0.4517688453197479
0.1365971565246582,0.11293742060661316,-0.47144022583961487,-3.5812201499938965,0.3541501462459564,0.45122620463371277
0.13722224533557892,0.11338227242231369,-0.4720979332923889,-3.5878026485443115,0.35344642400741577,0.4505397379398346
0.13773038983345032,0.11371207982301712,-0.4726482331752777,-3.5927326679229736,0.352857768535614,0.4500066936016083
0.13824042677879333,0.11406489461660385,-0.47316211462020874,-3.5980803966522217,0.3522518575191498,0.44939884543418884
0.1387159675359726,0.11441387236118317,-0.47371435165405273,-3.603416681289673,0.3516766130924225,0.4487660825252533
0.13923752307891846,0.11476285755634308,-0.47427424788475037,-3.6087646484375,0.35104191303253174,0.4480968713760376
0.13976098597049713,0.11510799825191498,-0.47482648491859436,-3.6141085624694824,0.3503918945789337,0.447404682636261
0.14040717482566833,0.11553176492452621,-0.4755033552646637,-3.6206912994384766,0.34957119822502136,0.44653987884521484
0.14093640446662903,0.11585389822721481,-0.4760536849498749,-3.6256210803985596,0.3488962650299072,0.44587644934654236
0.14146561920642853,0.11620287597179413,-0.4765637218952179,-3.630953550338745,0.34820789098739624,0.44513821601867676
0.14195649325847626,0.11654994636774063,-0.4771255552768707,-3.6362898349761963,0.34756553173065186,0.4443693161010742
0.14248189330101013,0.11690276116132736,-0.47770270705223083,-3.641622543334961,0.34684839844703674,0.44356396794319153
0.1431184858083725,0.11734569817781448,-0.47842368483543396,-3.648214817047119,0.34594717621803284,0.44252851605415344
0.14362278580665588,0.11771001666784286,-0.47902578115463257,-3.6535511016845703,0.34520894289016724,0.441686749458313
0.14412899315357208,0.1180398240685463,-0.4796335995197296,-3.658484697341919,0.34444963932037354,0.4409101903438568
0.14463713765144348,0.11839071661233902,-0.48019158840179443,-3.663832664489746,0.34369605779647827,0.44006648659706116
0.14526990056037903,0.11882023513317108,-0.48091065883636475,-3.670419216156006,0.34277376532554626,0.4389927089214325
0.14573776721954346,0.11916729807853699,-0.48148396611213684,-3.675766944885254,0.3420853912830353,0.43806082010269165
0.14624589681625366,0.11951244622468948,-0.4820534586906433,-3.6811089515686035,0.34134140610694885,0.437080979347229
0.14674635231494904,0.11985183507204056,-0.4826267957687378,-3.686464548110962,0.3405897617340088,0.4360858201980591
0.14723530411720276,0.12016821652650833,-0.4832096993923187,-3.691394329071045,0.3398323655128479,0.43518269062042236
0.14771659672260284,0.12051144987344742,-0.48375043272972107,-3.696744203567505,0.33905577659606934,0.43420475721359253
0.14815761148929596,0.12086042761802673,-0.4843314290046692,-3.702080488204956,0.3383309543132782,0.4331808388233185
0.14872710406780243,0.12129761278629303,-0.4850428104400635,-3.708651542663574,0.3373703062534332,0.4318539500236511
0.1491853892803192,0.12164851278066635,-0.4856276512145996,-3.7139880657196045,0.3366090655326843,0.4307437241077423
0.14963598549365997,0.12200707942247391,-0.48621055483818054,-3.719331979751587,0.33585742115974426,0.4296603500843048
0.15008467435836792,0.12233880162239075,-0.4867819547653198,-3.724271535873413,0.335111528635025,0.4286651909351349
0.15063691139221191,0.1227874904870987,-0.4874664843082428,-3.730865716934204,0.3341872990131378,0.4272865056991577
0.15106451511383057,0.1231594830751419,-0.4879803955554962,-3.7362210750579834,0.3334260582923889,0.426114946603775
0.1514614224433899,0.12353530526161194,-0.488530695438385,-3.7415592670440674,0.33271658420562744,0.4249356985092163
0.1518794447183609,0.12390538305044174,-0.489082932472229,-3.7469167709350586,0.3319649398326874,0.4237545132637024
0.1523837298154831,0.12435982376337051,-0.48976171016693115,-3.7534725666046143,0.331054151058197,0.4222780764102936
0.15278640389442444,0.12471839040517807,-0.49031010270118713,-3.758805274963379,0.33034276962280273,0.4210355281829834
0.1531909853219986,0.12503860890865326,-0.4908604323863983,-3.763744592666626,0.3296428918838501,0.4198639690876007
0.15358790755271912,0.12538759410381317,-0.4913666546344757,-3.769090414047241,0.32894301414489746,0.41860610246658325
0.15394264459609985,0.12574231624603271,-0.49190735816955566,-3.7744364738464355,0.3282833993434906,0.4173309803009033
0.1544124186038971,0.12618909776210785,-0.4925669729709625,-3.7810113430023193,0.327401340007782,0.4157413840293884
0.15470004081726074,0.12647096812725067,-0.4929773211479187,-3.7851147651672363,0.3268471956253052,0.4147500693798065
0.15516407787799835,0.12692540884017944,-0.4936292767524719,-3.791693687438965,0.3259747624397278,0.41316622495651245
0.1555418223142624,0.12726862728595734,-0.4941489100456238,-3.7966272830963135,0.32527679204940796,0.4119371175765991
0.1559847593307495,0.12771731615066528,-0.49478551745414734,-3.8031928539276123,0.32444843649864197,0.41025739908218384
0.15623019635677338,0.1279953569173813,-0.4951421618461609,-3.807300090789795,0.3239940106868744,0.4092142879962921
0.15666738152503967,0.12844404578208923,-0.49578067660331726,-3.813873052597046,0.3231867551803589,0.40754225850105286
0.1570163518190384,0.12880836427211761,-0.4962964653968811,-3.819201707839966,0.32253479957580566,0.4061271548271179
0.15735575556755066,0.12918227910995483,-0.49679118394851685,-3.824549674987793,0.3218790292739868,0.40468138456344604
0.15769131481647491,0.12953509390354156,-0.49728015065193176,-3.829477548599243,0.3212270736694336,0.4033851623535156
0.15802878141403198,0.12991474568843842,-0.49773266911506653,-3.8348236083984375,0.32057514786720276,0.4019950032234192
0.15833941102027893,0.13028866052627563,-0.4982369542121887,-3.8401598930358887,0.3199807107448578,0.4005473256111145
0.15874016284942627,0.1307431012392044,-0.498854398727417,-3.8467540740966797,0.3192022144794464,0.3987180292606354
0.15905654430389404,0.1311093419790268,-0.4993433356285095,-3.852097988128662,0.31857138872146606,0.39726459980010986
0.15936718881130219,0.131477490067482,-0.49981889128685,-3.8574440479278564,0.31794819235801697,0.3957957923412323
0.15975259244441986,0.13193385303020477,-0.5003979802131653,-3.864030599594116,0.3171946406364441,0.3939358592033386
0.15999610722064972,0.1321927160024643,-0.5007181763648987,-3.867737054824829,0.31672102212905884,0.39290425181388855
0.16039110720157623,0.13267208635807037,-0.5012896060943604,-3.874323606491089,0.3159674406051636,0.3911190927028656
0.1606864035129547,0.13306516408920288,-0.501751720905304,-3.87965989112854,0.31540369987487793,0.3896407186985016
0.16098935902118683,0.1334639936685562,-0.5022061467170715,-3.8850038051605225,0.31478819251060486,0.3881508409976959
0.16129615902900696,0.13385708630084991,-0.5026605725288391,-3.890338182449341,0.31418418884277344,0.38668203353881836
0.16168732941150665,0.13433261215686798,-0.503239631652832,-3.8969056606292725,0.31344980001449585,0.38486042618751526
0.16200754046440125,0.13469117879867554,-0.5037075281143188,-3.9018449783325195,0.31285154819488525,0.3834875226020813
0.1623200923204422,0.13508810102939606,-0.5041389465332031,-3.9071929454803467,0.31225714087486267,0.38202258944511414
0.16260004043579102,0.1354869306087494,-0.5046029686927795,-3.9125540256500244,0.3117164075374603,0.38052886724472046
0.16291067004203796,0.13589343428611755,-0.5050650835037231,-3.9178829193115234,0.311137318611145,0.3790140450000763
0.1632865071296692,0.13639773428440094,-0.5056250095367432,-3.92448091506958,0.3104431927204132,0.37720203399658203
0.1635204404592514,0.13668152689933777,-0.505966305732727,-3.9281816482543945,0.31001177430152893,0.37618768215179443
0.16390009224414825,0.13717815279960632,-0.5065051317214966,-3.934758424758911,0.30932915210723877,0.37433159351348877
0.1642126441001892,0.1375865787267685,-0.5069001317024231,-3.9400949478149414,0.3087749779224396,0.37280717492103577
0.16449643671512604,0.13799116015434265,-0.5073219537734985,-3.9454426765441895,0.3082534372806549,0.3713364899158478
0.1648108959197998,0.1383957415819168,-0.5077438354492188,-3.950786590576172,0.30768778920173645,0.3698485195636749
0.16520781815052032,0.13889621198177338,-0.5082806944847107,-3.9573445320129395,0.30699941515922546,0.3679713010787964
0.16552802920341492,0.13929887115955353,-0.508727490901947,-3.9626941680908203,0.3064490854740143,0.3664833605289459
0.16585400700569153,0.13967853784561157,-0.509170413017273,-3.967629909515381,0.30591410398483276,0.3651353716850281
0.16617806255817413,0.14009462296962738,-0.5095750093460083,-3.9729700088500977,0.3053925633430481,0.3636243939399719
0.1664714366197586,0.1405145525932312,-0.5100045204162598,-3.97831392288208,0.3049266040325165,0.3620942533016205
0.16679739952087402,0.14094598591327667,-0.5104302167892456,-3.983656167984009,0.3044280707836151,0.36058902740478516
0.16711953282356262,0.14137358963489532,-0.5108558535575867,-3.9890077114105225,0.30392760038375854,0.3590799868106842
0.16751837730407715,0.14190280437469482,-0.5113831758499146,-3.9955923557281494,0.3033005893230438,0.3571855127811432
0.16784241795539856,0.14230355620384216,-0.5118088722229004,-4.0005316734313965,0.30277904868125916,0.35577040910720825
0.16816647350788116,0.14273498952388763,-0.5121961832046509,-4.005867958068848,0.3022536635398865,0.354234516620636
0.16846559941768646,0.1431645154953003,-0.5126065015792847,-4.011212348937988,0.3017704486846924,0.3526909351348877
0.16880308091640472,0.14359402656555176,-0.513018786907196,-4.016539096832275,0.30126041173934937,0.35117998719215393
0.16922493278980255,0.14412899315357208,-0.5135269165039062,-4.023117542266846,0.30065447092056274,0.3493276834487915
0.16957199573516846,0.14456427097320557,-0.5139468312263489,-4.028461933135986,0.3001808524131775,0.3477821946144104
0.16992096602916718,0.1449650228023529,-0.5143744349479675,-4.033393383026123,0.29971301555633545,0.34638819098472595
0.1702699512243271,0.14540603756904602,-0.5147637128829956,-4.038735389709473,0.29925665259361267,0.3449079096317291
0.1705959141254425,0.14584705233573914,-0.515177845954895,-4.044075965881348,0.2988463044166565,0.3434026837348938
0.17104460299015045,0.14640504121780396,-0.5156821608543396,-4.050650596618652,0.298315167427063,0.3415427505970001
0.17142044007778168,0.14685948193073273,-0.5161020755767822,-4.055975437164307,0.2978818118572235,0.34009119868278503
0.17180393636226654,0.1473177671432495,-0.5165296792984009,-4.06133508682251,0.2974427044391632,0.33864352107048035
0.17218168079853058,0.14774535596370697,-0.516928493976593,-4.066264629364014,0.2970016896724701,0.3372706174850464
0.1725575029850006,0.14821897447109222,-0.517352283000946,-4.071610927581787,0.29655301570892334,0.3357922434806824
0.17301002144813538,0.148813396692276,-0.5178527235984802,-4.078185558319092,0.2959950268268585,0.3340396583080292
0.17334558069705963,0.1492985188961029,-0.5182458162307739,-4.083525657653809,0.29558658599853516,0.3325938880443573
0.17371182143688202,0.14977788925170898,-0.5186370015144348,-4.088868141174316,0.29514941573143005,0.3311231732368469
0.1740780621767044,0.15025150775909424,-0.5190339088439941,-4.0942158699035645,0.2947179675102234,0.3296831548213959
0.17452865839004517,0.15083441138267517,-0.5195171236991882,-4.100811958312988,0.29420027136802673,0.3279440104961395
0.17489682137966156,0.1512773483991623,-0.5199025273323059,-4.1057515144348145,0.29379376769065857,0.3266247808933258
0.1752764731645584,0.15175671875476837,-0.5202687382698059,-4.111093521118164,0.29339683055877686,0.3252115845680237
0.17563313245773315,0.15223991870880127,-0.5206695199012756,-4.116431713104248,0.29303252696990967,0.3238060772418976
0.17602813243865967,0.15271738171577454,-0.5210837125778198,-4.121777534484863,0.2926490306854248,0.32239866256713867
0.17653051018714905,0.15331371128559113,-0.52159184217453,-4.128360271453857,0.2921811640262604,0.3206575810909271
0.17684306204319,0.15366077423095703,-0.5218794345855713,-4.132061004638672,0.29189544916152954,0.31969308853149414
0.17733776569366455,0.15428011119365692,-0.5223779678344727,-4.138624668121338,0.29143527150154114,0.3179788887500763
0.17774619162082672,0.15478825569152832,-0.522790253162384,-4.143959045410156,0.29107093811035156,0.31655609607696533
0.17812776565551758,0.15529446303844452,-0.5232101678848267,-4.149301052093506,0.2907373011112213,0.3151640295982361
0.1785457730293274,0.1557987630367279,-0.5236243605613708,-4.154633522033691,0.29037871956825256,0.3138102889060974
0.17905965447425842,0.15642385184764862,-0.5241305828094482,-4.161218166351318,0.2899434566497803,0.3121267557144165
0.17948150634765625,0.1569243222475052,-0.5245389938354492,-4.166573524475098,0.28959447145462036,0.3107231557369232
0.17990143597126007,0.15739409625530243,-0.5249397158622742,-4.171514987945557,0.2892569899559021,0.30946528911590576
0.1803232729434967,0.15790989995002747,-0.5253078937530518,-4.176856994628906,0.2889291048049927,0.3081364631652832
0.1808525025844574,0.15855608880519867,-0.525789201259613,-4.1834282875061035,0.288543701171875,0.30644527077674866
0.18125325441360474,0.159094899892807,-0.526182234287262,-4.188779830932617,0.2882618308067322,0.30505701899528503
0.18169811367988586,0.15963563323020935,-0.5265868306159973,-4.194112300872803,0.2879627048969269,0.30372053384780884
0.1821468025445938,0.1601801961660385,-0.5270010232925415,-4.199462413787842,0.28767508268356323,0.30241090059280396
0.1826031506061554,0.16069023311138153,-0.527388334274292,-4.204386234283447,0.2873893976211548,0.3011817932128906
0.18306909501552582,0.1612578183412552,-0.527812123298645,-4.20973014831543,0.28710752725601196,0.29982995986938477
0.1835024505853653,0.1618157923221588,-0.5282320380210876,-4.215078353881836,0.2868601679801941,0.2985011637210846
0.18408344686031342,0.16249458491802216,-0.5287516713142395,-4.221658706665039,0.2865380346775055,0.29690006375312805
0.18455706536769867,0.1630372256040573,-0.5291792750358582,-4.227006912231445,0.28629258275032043,0.2955770194530487
0.18514573574066162,0.16371218860149384,-0.5297142267227173,-4.233572006225586,0.28599730134010315,0.29394906759262085
0.18552155792713165,0.16409951448440552,-0.5300191044807434,-4.237274646759033,0.2858228087425232,0.29304593801498413
0.18612556159496307,0.16479556262493134,-0.5305637121200562,-4.243844032287598,0.285552442073822,0.2914486825466156
0.18661834299564362,0.1653650403022766,-0.5309951305389404,-4.2491936683654785,0.2853453457355499,0.2901524603366852
0.1870785504579544,0.16592878103256226,-0.5314265489578247,-4.2545342445373535,0.28516319394111633,0.28887733817100525
0.18757133185863495,0.16649827361106873,-0.5318541526794434,-4.259880065917969,0.2849752902984619,0.2876252233982086
0.1881849318742752,0.16721349954605103,-0.5323699712753296,-4.266453266143799,0.28474903106689453,0.2860586643218994
0.1886873096227646,0.1678079068660736,-0.5327937006950378,-4.271791458129883,0.2845745384693146,0.284762442111969
0.1891954392194748,0.16835631430149078,-0.5331829786300659,-4.276734828948975,0.28440770506858826,0.28359854221343994
0.189703568816185,0.16894881427288055,-0.5336028933525085,-4.282071113586426,0.28424665331840515,0.28235599398612976
0.19017143547534943,0.16954131424427032,-0.5340266227722168,-4.287424564361572,0.28410667181015015,0.2810962200164795
0.19079461693763733,0.17027762532234192,-0.5345520377159119,-4.293993949890137,0.2839360237121582,0.27949896454811096
0.19118577241897583,0.17074547708034515,-0.5348818302154541,-4.298102855682373,0.28383055329322815,0.27852296829223633
0.19181470572948456,0.17150671780109406,-0.535401463508606,-4.304689407348633,0.2836790680885315,0.27702924609184265
