Der-mark/objtrans/data/qpos_trajectory.csv
q0,q1,q2,q3,q4,q5
0.0,0.0,0.0,0.0,0.0,0.0
1.917476083690417e-06,-5.7524280236975756e-06,0.0,-7.669904334761668e-06,-5.7524280236975756e-06,-5.7524280236975756e-06
1.917476083690417e-06,-5.7524280236975756e-06,0.0,-7.669904334761668e-06,-5.7524280236975756e-06,-5.7524280236975756e-06
1.917476083690417e-06,-5.7524280236975756e-06,0.0,-7.669904334761668e-06,-5.7524280236975756e-06,-5.7524280236975756e-06
1.917476083690417e-06,-5.7524280236975756e-06,1.917476083690417e-06,-7.669904334761668e-06,-5.7524280236975756e-06,-7.669904334761668e-06
1.917476083690417e-06,-5.7524280236975756e-06,5.7524280236975756e-06,-7.669904334761668e-06,-5.7524280236975756e-06,-1.5339808669523336e-05
-6.90291344653815e-05,-5.7524280236975756e-06,1.1504856047395151e-05,-7.669904334761668e-06,-5.7524280236975756e-06,-2.109223532897886e-05
-0.0003010437358170748,-1.5339808669523336e-05,2.6844663807423785e-05,-7.669904334761668e-06,-5.7524280236975756e-06,-2.876214057323523e-05
-0.0005081311101093888,-1.917476038215682e-05,3.259709046687931e-05,-7.669904334761668e-06,-5.7524280236975756e-06,-2.876214057323523e-05
-0.0007286408799700439,-1.917476038215682e-05,3.451456723269075e-05,-7.669904334761668e-06,-5.7524280236975756e-06,-2.876214057323523e-05
-0.0010680340928956866,-1.1504856047395151e-05,3.451456723269075e-05,-7.669904334761668e-06,-5.7524280236975756e-06,-2.876214057323523e-05
-0.0014591992367058992,9.395632514497265e-05,1.917476038215682e-05,3.067961733904667e-05,2.6844663807423785e-05,-2.3009712094790302e-05
-0.0018158497987315059,0.0002722815843299031,-8.053398778429255e-05,0.00020325244986452162,0.00015723303658887744,1.3422331903711893e-05
-0.0022971362341195345,0.0005829127039760351,-0.0003796602541115135,0.0005100485868752003,0.0005023786798119545,0.0003029612125828862
-0.0027113109827041626,0.000880121486261487,-0.0007458981708623469,0.0008206797065213323,0.0008072573691606522,0.0006461893790401518
-0.0031389081850647926,0.0012578642927110195,-0.001177330268546939,0.0011830826988443732,0.0011792477453127503,0.0010507768020033836
-0.0036642965860664845,0.0018273546593263745,-0.0017832526937127113,0.0017180584836751223,0.0017180584836751223,0.0016145147383213043
-0.004093811381608248,0.0023738353047519922,-0.002312476048246026,0.002187840174883604,0.0022376945707947016,0.0021418207325041294
-0.004484976176172495,0.002997014904394746,-0.002950995462015271,0.002772670239210129,0.0028186896815896034,0.0027458255644887686
-0.004993107635527849,0.0038963111583143473,-0.0038253646343946457,0.003610607236623764,0.003620194736868143,0.003614442190155387
-0.005405365023761988,0.004716990981251001,-0.004603859968483448,0.004381432663649321,0.004331578034907579,0.004412112291902304
-0.00581378722563386,0.005516578443348408,-0.005422621965408325,0.005205947440117598,0.005019952077418566,0.005190607625991106
-0.006227962207049131,0.00643504923209548,-0.006285486277192831,0.006087986286729574,0.005802282132208347,0.006082233972847462
-0.006628714501857758,0.0074225496500730515,-0.007121505681425333,0.006964272819459438,0.0066076223738491535,0.007029466796666384
-0.007117670960724354,0.008732185699045658,-0.008281579241156578,0.008189540356397629,0.007637307047843933,0.008289248682558537
-0.007487743627279997,0.009875001385807991,-0.009246069006621838,0.009228811599314213,0.008496335707604885,0.009407137520611286
-0.007882744073867798,0.011100268922746181,-0.010204806923866272,0.010294928215444088,0.009361118078231812,0.01058830227702856
-0.008281579241156578,0.012281433679163456,-0.011153957806527615,0.011384055018424988,0.010170293040573597,0.011717695742845535
-0.0087705347687006,0.013876773416996002,-0.012329370714724064,0.012751215137541294,0.011240243911743164,0.013284273445606232
-0.009173205122351646,0.0152075020596385,-0.013299613259732723,0.013878691010177135,0.01210502628237009,0.01461500208824873
-0.00957395788282156,0.016578497365117073,-0.014202744700014591,0.014919880777597427,0.012987065128982067,0.015991749241948128
-0.00993827823549509,0.01802043989300728,-0.015190244652330875,0.016060778871178627,0.013882526196539402,0.017399176955223083
-0.010432986542582512,0.019838206470012665,-0.016407841816544533,0.017475876957178116,0.015004249289631844,0.01924954168498516
-0.010829904116690159,0.021343424916267395,-0.01740109547972679,0.018626362085342407,0.015916967764496803,0.02085830457508564
-0.011226821690797806,0.022768110036849976,-0.018392428755760193,0.019773012027144432,0.016747234389185905,0.02236352302134037
-0.011629492044448853,0.02434810996055603,-0.01938759908080101,0.02091582864522934,0.017648449167609215,0.0240413136780262
-0.012028327211737633,0.025937696918845177,-0.020317574962973595,0.021970439702272415,0.018563084304332733,0.025824567303061485
-0.012519200332462788,0.027887770906090736,-0.02156585268676281,0.023381702601909637,0.019715487957000732,0.02803349867463112
-0.012887355871498585,0.029496533796191216,-0.022587867453694344,0.024539858102798462,0.02067422680556774,0.02991262450814247
-0.013286191038787365,0.031109130010008812,-0.023604128509759903,0.025699930265545845,0.02163488231599331,0.03190680220723152
-0.013685026206076145,0.03259709104895592,-0.02462230995297432,0.02685808576643467,0.02251116745173931,0.033762916922569275
-0.014168229885399342,0.034583598375320435,-0.025884008035063744,0.02827318385243416,0.023667406290769577,0.03635534644126892
-0.014475026167929173,0.03584529459476471,-0.026612648740410805,0.02906893566250801,0.024401798844337463,0.0380331352353096
-0.014971652068197727,0.03786247968673706,-0.02791653200984001,0.0304840337485075,0.02559255249798298,0.04077129065990448
-0.015345560386776924,0.03949616849422455,-0.02897689677774906,0.03162876516580582,0.026578133925795555,0.043093353509902954
-0.01575014740228653,0.041131775826215744,-0.03002959117293358,0.03277158364653587,0.027559882029891014,0.04547294229269028
-0.016152817755937576,0.04265041649341583,-0.031080368906259537,0.03390289470553398,0.028461096808314323,0.04772597551345825
-0.016655195504426956,0.044665686786174774,-0.032382335513830185,0.03529881685972214,0.029657600447535515,0.05082078278064728
-0.017055949196219444,0.04629170522093773,-0.03345995768904686,0.03643971309065819,0.030639348551630974,0.05341896414756775
-0.01745861954987049,0.04792347550392151,-0.034457042813301086,0.03749816119670868,0.031640272587537766,0.05607658624649048
-0.017832526937127113,0.04958401247859001,-0.03553658351302147,0.03864864632487297,0.03264310956001282,0.0588473379611969
-0.018239032477140427,0.051234956830739975,-0.036602698266506195,0.039795298129320145,0.03365170210599899,0.06164301931858063
-0.018649371340870857,0.05274593085050583,-0.03767840191721916,0.04094003140926361,0.03457976132631302,0.06429871916770935
-0.019145997241139412,0.05477270111441612,-0.039020635187625885,0.04235704615712166,0.03581077978014946,0.06790933012962341
-0.019540997222065926,0.056425563991069794,-0.040125101804733276,0.043503694236278534,0.036817457526922226,0.07093127071857452
-0.019941750913858414,0.05805925652384758,-0.041150953620672226,0.04456022381782532,0.03782029449939728,0.07402607798576355
-0.020430706441402435,0.06007644161581993,-0.042500853538513184,0.045956145972013474,0.039066657423973083,0.0779319778084755
-0.02080077864229679,0.061750397086143494,-0.04359764978289604,0.047083623707294464,0.04009058699011803,0.08116867393255234
-0.02120153233408928,0.06340709328651428,-0.04470211640000343,0.04821493476629257,0.041118353605270386,0.0845031663775444
-0.021606119349598885,0.06493724137544632,-0.04581425338983536,0.04935583099722862,0.04206175357103348,0.08760181069374084
-0.022110415622591972,0.06697551906108856,-0.04719483479857445,0.05076326057314873,0.04331578314304352,0.09182792156934738
-0.022503498941659927,0.06864755600690842,-0.04832039400935173,0.051907993853092194,0.04435505345463753,0.09536950290203094
-0.022908085957169533,0.0703023374080658,-0.04935583099722862,0.052954934537410736,0.04541542008519173,0.09894559532403946
-0.023281993344426155,0.071964792907238,-0.05047563835978508,0.05408816412091255,0.046489205211400986,0.10259455442428589
-0.02377861924469471,0.07403182983398438,-0.05186580866575241,0.055487919598817825,0.04779692366719246,0.10717348754405975
-0.024183206260204315,0.07570770382881165,-0.053014375269412994,0.05661923065781593,0.048840031027793884,0.11097392439842224
-0.024582041427493095,0.07725127041339874,-0.05416102707386017,0.057746708393096924,0.04980643838644028,0.1145385131239891
-0.024982795119285583,0.07891947776079178,-0.055296171456575394,0.058862678706645966,0.05086488649249077,0.11843865364789963
-0.025473669171333313,0.08098076283931732,-0.05669401213526726,0.06022408604621887,0.05219944939017296,0.12336273491382599
-0.02586675062775612,0.08265088498592377,-0.05773903802037239,0.061257604509592056,0.05328282341361046,0.12746421992778778
-0.02623107098042965,0.08432292193174362,-0.05888952314853668,0.062377411872148514,0.05434510484337807,0.131613627076149
-0.026626070961356163,0.08600647002458572,-0.06004384160041809,0.0635048896074295,0.055407386273145676,0.13580523431301117
-0.027022989466786385,0.0875692144036293,-0.06119241192936897,0.06463044881820679,0.05640255659818649,0.1397111415863037
-0.027515780180692673,0.08964775502681732,-0.06260751187801361,0.06600527465343475,0.057758212089538574,0.145030215382576
-0.02791653200984001,0.09133513271808624,-0.0637579932808876,0.06712699681520462,0.058862678706645966,0.14942507445812225
-0.028321120887994766,0.09304168820381165,-0.06484328210353851,0.06816435605287552,0.059959474951028824,0.15389278531074524
-0.028696944937109947,0.09473865479230881,-0.06602445244789124,0.06928032636642456,0.06104860082268715,0.15842953324317932
-0.02910345047712326,0.09642411768436432,-0.0671921968460083,0.07038479298353195,0.06214539706707001,0.16302572190761566
-0.029601994901895523,0.09852566570043564,-0.06862454861402512,0.07173661142587662,0.06351255625486374,0.1687743216753006
-0.030002746731042862,0.10011141747236252,-0.06980379670858383,0.07282957434654236,0.06453840434551239,0.1731557548046112
-0.030497455969452858,0.10221872478723526,-0.07126874476671219,0.07418714463710785,0.06590940058231354,0.17906349897384644
-0.030800417065620422,0.10353795439004898,-0.07209710031747818,0.07495413720607758,0.06676651537418365,0.18278339505195618
-0.03128553926944733,0.10565292835235596,-0.07356588542461395,0.07630787789821625,0.06814517825841904,0.18884454667568207
-0.03164602443575859,0.10735756158828735,-0.07476238906383514,0.07741233706474304,0.0692669004201889,0.19384148716926575
-0.03203143551945686,0.10906603187322617,-0.07595697790384293,0.07850722223520279,0.07040780037641525,0.19891512393951416
-0.03251080587506294,0.11117909103631973,-0.07746986299753189,0.07985712587833405,0.0718248188495636,0.20523129403591156
-0.03288854658603668,0.11278785765171051,-0.07871047407388687,0.08094816654920578,0.07289668172597885,0.21002498269081116
-0.03327012434601784,0.11452125012874603,-0.07993382215499878,0.0820353776216507,0.0740375816822052,0.21523860096931458
-0.03366320952773094,0.11624123156070709,-0.0810670480132103,0.08303054422140121,0.07518231868743896,0.22049440443515778
-0.03414832800626755,0.11837921291589737,-0.08257610350847244,0.08434401452541351,0.07660891860723495,0.2270023077726364
-0.03451840206980705,0.12010877579450607,-0.08380328863859177,0.08541204780340195,0.0777958333492279,0.23231564462184906
-0.034915320575237274,0.12183258682489395,-0.08506115525960922,0.0864839181303978,0.07897316664457321,0.23765389621257782
-0.035404276102781296,0.12384402006864548,-0.08659321814775467,0.08781081438064575,0.0803997665643692,0.24422891438007355
-0.03580119460821152,0.1256004273891449,-0.08783765882253647,0.08889226615428925,0.08147547394037247,0.2491760104894638
-0.03619619458913803,0.12733574211597443,-0.08908401429653168,0.08996797353029251,0.08266622573137283,0.2545391917228699
-0.03659694641828537,0.1290787309408188,-0.09025559574365616,0.0909573882818222,0.08387231826782227,0.2599157989025116
-0.03696318343281746,0.1308313012123108,-0.09153646975755692,0.09203118085861206,0.08506498485803604,0.26529431343078613
-0.0373639352619648,0.13256661593914032,-0.0928000882267952,0.09311263263225555,0.08624231815338135,0.27067092061042786
-0.03786056488752365,0.13470077514648438,-0.09434940665960312,0.09443377703428268,0.08769384771585464,0.2772957980632782
-0.03825364634394646,0.1363172084093094,-0.09560535103082657,0.09550181031227112,0.08880406618118286,0.2822563052177429
-0.03864672780036926,0.1380736082792282,-0.09687663614749908,0.09656409174203873,0.0900120735168457,0.28763866424560547
-0.039041727781295776,0.13981276750564575,-0.0980558842420578,0.09754200279712677,0.09120474755764008,0.29302483797073364
-0.039532601833343506,0.1419469118118286,-0.09962055087089539,0.09885931015014648,0.09266585856676102,0.29965740442276
-0.03981255367398262,0.14329105615615845,-0.10060421377420425,0.09968765825033188,0.09358816593885422,0.3038029670715332
-0.04030726104974747,0.14543479681015015,-0.10217271000146866,0.10101838409900665,0.09507804363965988,0.31042978167533875
-0.04071184992790222,0.1470358967781067,-0.10346317291259766,0.10209984332323074,0.09619593620300293,0.31540563702583313
-0.041116438806056976,0.14878079295158386,-0.10476130247116089,0.10317555069923401,0.09740778058767319,0.3207860589027405
-0.041517190635204315,0.1505429595708847,-0.1059386283159256,0.10417263209819794,0.09860619902610779,0.32617607712745667
-0.04188917949795723,0.15229745209217072,-0.10720992088317871,0.10525409132242203,0.09981037676334381,0.3315584361553192
-0.04238197207450867,0.15444502234458923,-0.10878224670886993,0.10658673942089081,0.10129450261592865,0.33818715810775757
-0.042690686881542206,0.15566645562648773,-0.10978125035762787,0.10741317272186279,0.10213052481412888,0.3419300615787506
-0.04309527203440666,0.1574132740497589,-0.11106979846954346,0.10848312079906464,0.10335195809602737,0.34730666875839233
-0.043503694236278534,0.15914475917816162,-0.11224712431430817,0.1094667837023735,0.10456188023090363,0.35267943143844604
-0.04411345347762108,0.16167965531349182,-0.11423555016517639,0.11111389845609665,0.10632404685020447,0.36051616072654724
-0.0445333793759346,0.1634245663881302,-0.11546273529529572,0.11211482435464859,0.10753780603408813,0.36586976051330566
-0.04492070898413658,0.16514645516872406,-0.11678579449653625,0.11320202797651291,0.10877840965986252,0.3712080121040344
-0.045338720083236694,0.16687026619911194,-0.11810501664876938,0.11429499089717865,0.11002093553543091,0.376555860042572
-0.04575673118233681,0.16846944391727448,-0.1194242388010025,0.11538795381784439,0.11115608364343643,0.3814799189567566
-0.04628020152449608,0.17057865858078003,-0.12103492021560669,0.11673210561275482,0.11265362799167633,0.38806837797164917
-0.04670204594731331,0.17229481041431427,-0.12236756831407547,0.11782889813184738,0.11388273537158966,0.3934181332588196
-0.047129642218351364,0.17401669919490814,-0.12358324229717255,0.11883940547704697,0.1151348426938057,0.39876788854599
-0.04751889035105705,0.1757596880197525,-0.12490247189998627,0.1199304535984993,0.11637161672115326,0.4041118919849396
-0.048040442168712616,0.1778804063796997,-0.1265227347612381,0.12126501649618149,0.11787683516740799,0.41067925095558167
-0.04846612364053726,0.17960421741008759,-0.12785154581069946,0.12234455347061157,0.11910977214574814,0.41602134704589844
-0.048886049538850784,0.1811995655298233,-0.12918993830680847,0.12343176454305649,0.12026601284742355,0.42095309495925903
-0.04930214211344719,0.182927206158638,-0.130512997508049,0.12453239411115646,0.12153154611587524,0.42630475759506226
-0.0497201532125473,0.18464909493923187,-0.13172292709350586,0.1255563348531723,0.12277598679065704,0.43164685368537903
-0.05010748282074928,0.1863844245672226,-0.13303448259830475,0.12666846811771393,0.12401467561721802,0.43699660897254944
-0.05052357539534569,0.1880008578300476,-0.13435371220111847,0.12777677178382874,0.125253364443779,0.4423521161079407
-0.05093199759721756,0.18973232805728912,-0.13568252325057983,0.1288774013519287,0.12641343474388123,0.4472896158695221
-0.05143437534570694,0.191868394613266,-0.13729320466518402,0.13024647533893585,0.12794934213161469,0.45387232303619385
-0.051840879023075104,0.19360755383968353,-0.13861434161663055,0.13135285675525665,0.12918993830680847,0.45921823382377625
-0.052247386425733566,0.19534286856651306,-0.13983193039894104,0.1323767900466919,0.13043054938316345,0.46456223726272583
-0.05275551602244377,0.19746935367584229,-0.1414828896522522,0.13373053073883057,0.1319606900215149,0.47113919258117676
-0.05314476415514946,0.19921042025089264,-0.1427982747554779,0.13482540845870972,0.13321472704410553,0.47648894786834717
-0.05356660857796669,0.200951486825943,-0.1441098302602768,0.13592411577701569,0.1344745010137558,0.4818252921104431
-0.053982701152563095,0.2025429904460907,-0.14541754126548767,0.1370324194431305,0.13563649356365204,0.4867570400238037
-0.05449850112199783,0.20466947555541992,-0.14702822268009186,0.13840724527835846,0.13716664910316467,0.4933263063430786
-0.054918430745601654,0.2063951939344406,-0.1483532041311264,0.13952705264091492,0.13840149343013763,0.4986645579338074
-0.055340275168418884,0.2081190049648285,-0.14956121146678925,0.140558660030365,0.13965553045272827,0.504004716873169
-0.055727604776620865,0.20983131229877472,-0.15087276697158813,0.14167654514312744,0.14091530442237854,0.5093487501144409
-0.056239571422338486,0.2119693011045456,-0.15249495208263397,0.14305713772773743,0.142449289560318,0.5159199237823486
-0.05656170845031738,0.2131715565919876,-0.15352654457092285,0.14391998946666718,0.14329873025417328,0.5196244716644287
-0.05706791952252388,0.21530571579933167,-0.15516982972621918,0.14529673755168915,0.1448269635438919,0.5261937379837036
-0.05748209357261658,0.21702760457992554,-0.15648138523101807,0.14640888571739197,0.146096333861351,0.5315243601799011
-0.057894352823495865,0.21875716745853424,-0.15769706666469574,0.14743280410766602,0.14736570417881012,0.5368664264678955
-0.05827593058347702,0.2204790562391281,-0.15900860726833344,0.14855261147022247,0.14861205220222473,0.5422142744064331
-0.05869585648179054,0.22205522656440735,-0.16032783687114716,0.14967626333236694,0.1498488336801529,0.5475487112998962
-0.059205904603004456,0.22417594492435455,-0.16195960342884064,0.15106451511383057,0.15139240026474,0.55412757396698
-0.059625834226608276,0.2258959263563156,-0.16328075528144836,0.1521996557712555,0.15255822241306305,0.5590458512306213
-0.06004767864942551,0.22761206328868866,-0.16450409591197968,0.1533290445804596,0.15381033718585968,0.5643956065177917
-0.06047527492046356,0.2293301224708557,-0.16583865880966187,0.15437215566635132,0.15505094826221466,0.5697377324104309
-0.061008334159851074,0.23143742978572845,-0.16750112175941467,0.1557719111442566,0.1565830111503601,0.5763338208198547
-0.061405252665281296,0.23314206302165985,-0.16882993280887604,0.15691089630126953,0.15784278512001038,0.5816778540611267
-0.061840519309043884,0.23470865190029144,-0.1701548993587494,0.15804220736026764,0.159096822142601,0.5870333313941956
-0.062273867428302765,0.23641136288642883,-0.17148946225643158,0.15916584432125092,0.16025689244270325,0.5919612646102905
-0.06271488964557648,0.2381313443183899,-0.17272624373435974,0.16028565168380737,0.16149558126926422,0.5972957015037537
-0.06325370073318481,0.2402309775352478,-0.17436951398849487,0.16167773306369781,0.16302572190761566,0.6038726568222046
-0.06369471549987793,0.2419356107711792,-0.17568489909172058,0.16272659599781036,0.16427016258239746,0.6092032194137573
-0.06409930437803268,0.24363641440868378,-0.17701180279254913,0.16387516260147095,0.16551844775676727,0.6145491600036621
-0.06452882289886475,0.24520491063594818,-0.1783597767353058,0.16502182185649872,0.16677246987819672,0.6198912262916565
-0.0650714635848999,0.24728921055793762,-0.18001264333724976,0.1664254069328308,0.16830070316791534,0.6264681816101074
-0.06541277468204498,0.24858734011650085,-0.18093302845954895,0.16731128096580505,0.16915781795978546,0.6301842331886292
-0.06596692651510239,0.2507003843784332,-0.18266259133815765,0.1687302142381668,0.17069178819656372,0.6367573142051697
-0.06641561537981033,0.252405047416687,-0.18388402462005615,0.16979633271694183,0.17195925116539001,0.6421128511428833
-0.06696785241365433,0.25448933243751526,-0.18552155792713165,0.17120951414108276,0.17351047694683075,0.6486974358558655
-0.06738202273845673,0.25619781017303467,-0.18685036897659302,0.17235232889652252,0.1747453361749649,0.6540414690971375
-0.06782495975494385,0.2577528655529022,-0.1881830096244812,0.1734970659017563,0.17598594725131989,0.6593912243843079
-0.06826981157064438,0.25944024324417114,-0.18951565027236938,0.17465713620185852,0.1771421879529953,0.6643267869949341
-0.06871850788593292,0.2611429691314697,-0.19075626134872437,0.17581528425216675,0.17841538786888123,0.6696650385856628
-0.06917102634906769,0.2628476023674011,-0.19211000204086304,0.1768871545791626,0.17965790629386902,0.6750167608261108
-0.06971558928489685,0.26492616534233093,-0.19375519454479218,0.17832143604755402,0.18117655813694,0.6815956234931946
-0.07012210041284561,0.26660779118537903,-0.1950974315404892,0.17948533594608307,0.18242865800857544,0.6869395971298218
-0.07056311517953873,0.26815709471702576,-0.19644157588481903,0.18065690994262695,0.18369802832603455,0.6922874450683594
-0.07111342996358871,0.27023565769195557,-0.19810594618320465,0.18209119141101837,0.1852550208568573,0.6988586187362671
-0.07145857810974121,0.2715260982513428,-0.1990416795015335,0.18298281729221344,0.18611980974674225,0.7025555372238159
-0.07200314104557037,0.2735854685306549,-0.2007002979516983,0.1843998283147812,0.1876537799835205,0.7091286182403564
-0.07231760770082474,0.274897038936615,-0.20174339413642883,0.18519367277622223,0.1886182725429535,0.7132473587989807
-0.07287367433309555,0.27698516845703125,-0.20342694222927094,0.18662026524543762,0.19016951322555542,0.71981281042099
-0.07333195209503174,0.27853256464004517,-0.20479601621627808,0.1877918392419815,0.19142162799835205,0.7251548767089844
-0.07389569282531738,0.28060343861579895,-0.2064642310142517,0.1892452985048294,0.19295944273471832,0.7317261099815369
-0.07435780018568039,0.2822946608066559,-0.20781797170639038,0.19043029844760895,0.19411951303482056,0.7366520762443542
-0.07482374459505081,0.28396284580230713,-0.209066241979599,0.19160570204257965,0.195377379655838,0.7419865131378174
-0.07529544830322266,0.2856349050998688,-0.21043340861797333,0.192698672413826,0.19665057957172394,0.7473170757293701
-0.07573454827070236,0.28730884194374084,-0.2118082344532013,0.19388750195503235,0.19791994988918304,0.7526611089706421
-0.07633088529109955,0.2893548011779785,-0.21350328624248505,0.1953543722629547,0.1994750201702118,0.7592418789863586
-0.07683134824037552,0.2908772826194763,-0.21489153802394867,0.19654320180416107,0.2007252275943756,0.7645973563194275
-0.07734522968530655,0.2925128936767578,-0.21631622314453125,0.19773395359516144,0.20188912749290466,0.7695329785346985
-0.07787828892469406,0.29413315653800964,-0.21765461564064026,0.1989266276359558,0.2031680792570114,0.7748712301254272
-0.07856282591819763,0.29609665274620056,-0.2194397896528244,0.20041267573833466,0.20474807918071747,0.7814443111419678
-0.0791303962469101,0.2976766526699066,-0.2208894044160843,0.20153439044952393,0.20601554214954376,0.7867806553840637
-0.07966345548629761,0.2992643117904663,-0.22236010432243347,0.20276157557964325,0.20728681981563568,0.792113184928894
-0.08024445176124573,0.3007350265979767,-0.22385381162166595,0.20398300886154175,0.2085830420255661,0.7974437475204468
-0.08084654062986374,0.3023035228252411,-0.2253628671169281,0.2052197903394699,0.20979680120944977,0.8023697137832642
-0.08147163689136505,0.3038451671600342,-0.22676454484462738,0.2064642310142517,0.21109110116958618,0.8077003359794617
-0.08225588500499725,0.30573195219039917,-0.22867818176746368,0.2080039530992508,0.21266917884349823,0.8142619132995605
-0.08290398865938187,0.30724868178367615,-0.23026393353939056,0.2091582864522934,0.21396538615226746,0.8196212649345398
-0.0835099145770073,0.3087385594844818,-0.23185160756111145,0.2104008048772812,0.21527886390686035,0.824972927570343
-0.0843401774764061,0.3105544149875641,-0.23381702601909637,0.21195587515830994,0.21688762307167053,0.8315767645835876
-0.08504581451416016,0.3119119703769684,-0.23544687032699585,0.21322907507419586,0.21818575263023376,0.836918830871582
-0.08575719594955444,0.31338077783584595,-0.237097829580307,0.21452146768569946,0.2193899303674698,0.8418524861335754
-0.08649159222841263,0.31482845544815063,-0.23862029612064362,0.21581192314624786,0.22071681916713715,0.8471907377243042
-0.08741389214992523,0.31658679246902466,-0.2406662404537201,0.21741493046283722,0.22235435247421265,0.8537696003913879
-0.08818279951810837,0.3180057108402252,-0.24235936999320984,0.21862103044986725,0.223683163523674,0.8590982556343079
-0.08889801800251007,0.3194112181663513,-0.2440774291753769,0.21993641555309296,0.22501005232334137,0.864440381526947
-0.08967651426792145,0.32069018483161926,-0.24577632546424866,0.22124412655830383,0.22634078562259674,0.8697843551635742
-0.0906582623720169,0.32239866256713867,-0.24789704382419586,0.2228529006242752,0.22799748182296753,0.8763536214828491
-0.09147894382476807,0.323763906955719,-0.24963811039924622,0.2241663634777069,0.22924575209617615,0.8812930583953857
-0.09231112897396088,0.32513105869293213,-0.2512526214122772,0.22549517452716827,0.23059949278831482,0.8866332173347473
-0.09315673261880875,0.32649245858192444,-0.2530224621295929,0.22673961520195007,0.23194365203380585,0.8919829726219177
-0.09395056962966919,0.32782894372940063,-0.25480762124061584,0.22809143364429474,0.23329930007457733,0.8973327279090881
-0.09500709921121597,0.32945114374160767,-0.25700506567955017,0.22976155579090118,0.23500968515872955,0.9039058685302734
-0.09585462510585785,0.33066490292549133,-0.25881898403167725,0.23112104833126068,0.23639410734176636,0.9092498421669006
-0.09689581394195557,0.3322985768318176,-0.26105284690856934,0.23279500007629395,0.23806805908679962,0.9158210158348083
-0.09775484353303909,0.3336063027381897,-0.2628667950630188,0.2341468334197998,0.23934127390384674,0.9207451343536377
-0.09861771017313004,0.33490443229675293,-0.2645484209060669,0.23549480736255646,0.240739107131958,0.9260852932929993
-0.09948824346065521,0.3362064063549042,-0.2663987874984741,0.23674117028713226,0.24212735891342163,0.9314197301864624
-0.10030700266361237,0.3375217914581299,-0.268256813287735,0.23810066282749176,0.24349644780158997,0.9367560744285583
-0.10120246559381485,0.33873364329338074,-0.2701071798801422,0.23947548866271973,0.24487894773483276,0.9421115517616272
-0.10230693221092224,0.34032130241394043,-0.2723813056945801,0.24116286635398865,0.24662384390830994,0.9482858180999756
-0.10321197658777237,0.34159067273139954,-0.27425849437713623,0.24254153668880463,0.247929647564888,0.9536317586898804
-0.10413428395986557,0.342852383852005,-0.27599191665649414,0.24392595887184143,0.24934090673923492,0.9589853286743164
-0.10528285056352615,0.3444151282310486,-0.2783043682575226,0.24563059210777283,0.2510915696620941,0.9655507802963257
-0.10593096166849136,0.3453815281391144,-0.27977508306503296,0.24658358097076416,0.2521941065788269,0.969677209854126
-0.10709486901760101,0.3469078242778778,-0.2821182310581207,0.2482747882604599,0.25395625829696655,0.9762406945228577
-0.10781583935022354,0.3477553725242615,-0.28358128666877747,0.24933898448944092,0.25494760274887085,0.9799376130104065
-0.10896249115467072,0.3492797613143921,-0.28594744205474854,0.25105130672454834,0.2567116916179657,0.9864915609359741
-0.10988671332597733,0.35054144263267517,-0.287715345621109,0.25245487689971924,0.25815361738204956,0.9918298125267029
-0.11104295402765274,0.352067768573761,-0.29007577896118164,0.2541787028312683,0.25994837284088135,0.9983875751495361
-0.11198634654283524,0.35329878330230713,-0.2920220196247101,0.25547298789024353,0.2614114284515381,1.003731608390808
-0.11285880208015442,0.35452598333358765,-0.2939663231372833,0.25688233971595764,0.26285529136657715,1.0090851783752441
-0.11380603164434433,0.35565152764320374,-0.2959202229976654,0.25828784704208374,0.26430296897888184,1.0144387483596802
-0.11475326865911484,0.35687872767448425,-0.2978837192058563,0.2596856951713562,0.2656548023223877,1.019376277923584
-0.11592484265565872,0.3583686053752899,-0.30028247833251953,0.26139798760414124,0.2674783170223236,1.025970458984375
-0.11688166856765747,0.3595631718635559,-0.3020945191383362,0.2627958357334137,0.26893749833106995,1.0313125848770142
-0.11784423887729645,0.3607616126537323,-0.3040637671947479,0.26409780979156494,0.27041205763816833,1.0366507768630981
-0.11874161660671234,0.3619561791419983,-0.3060425817966461,0.2655205726623535,0.2719249427318573,1.0419929027557373
-0.11994579434394836,0.36345374584198,-0.308460533618927,0.26725396513938904,0.2737944722175598,1.0485467910766602
-0.12090644985437393,0.3645639419555664,-0.31043168902397156,0.2686748206615448,0.2752881944179535,1.0538851022720337
-0.1218671053647995,0.36575278639793396,-0.31240859627723694,0.27009567618370056,0.27668604254722595,1.058811068534851
-0.12282583862543106,0.36692628264427185,-0.3142282962799072,0.2715126872062683,0.2782123386859894,1.064149260520935
-0.12400508671998978,0.3683835566043854,-0.31667882204055786,0.27323266863822937,0.2800857126712799,1.0707186460494995
-0.12496766448020935,0.36957815289497375,-0.31868067383766174,0.2745327055454254,0.28159669041633606,1.0760644674301147
-0.12586504220962524,0.37075355648994446,-0.320671021938324,0.27594780921936035,0.28313449025154114,1.0814104080200195
-0.12682953476905823,0.3718292713165283,-0.3226766884326935,0.27737441658973694,0.2846742272377014,1.08676016330719
-0.12778252363204956,0.37298935651779175,-0.3246804475784302,0.2787952423095703,0.2861027419567108,1.0916976928710938
-0.12897518277168274,0.3744255304336548,-0.3271540105342865,0.2805497348308563,0.28800296783447266,1.0982669591903687
-0.12995502352714539,0.3756086230278015,-0.32902929186820984,0.28198209404945374,0.2895503640174866,1.1035994291305542
-0.13094443082809448,0.3767840266227722,-0.33106181025505066,0.28330323100090027,0.2911054491996765,1.108935832977295
-0.13186098635196686,0.37794411182403564,-0.3330790102481842,0.2847221791744232,0.2926701009273529,1.1142663955688477
-0.13307474553585052,0.37935537099838257,-0.33555829524993896,0.28645941615104675,0.2945856750011444,1.120841383934021
-0.13405649363994598,0.38041573762893677,-0.3375774025917053,0.2878821790218353,0.2961522340774536,1.1261796951293945
-0.13503824174404144,0.38156813383102417,-0.3395945727825165,0.28931260108947754,0.2976210415363312,1.1311132907867432
-0.1360180824995041,0.38271671533584595,-0.34146028757095337,0.2907507121562958,0.2992163896560669,1.136459231376648
-0.13700173795223236,0.3838556706905365,-0.3435004949569702,0.2920737862586975,0.3007829487323761,1.1418147087097168
-0.13821358978748322,0.38525351881980896,-0.34599894285202026,0.293845534324646,0.30273109674453735,1.148397445678711
-0.13912054896354675,0.38638484477996826,-0.3480410575866699,0.2952798008918762,0.3043398857116699,1.1537433862686157
-0.1400984674692154,0.38744136691093445,-0.35008126497268677,0.29671022295951843,0.3059313893318176,1.1590874195098877
-0.14108596742153168,0.3885861039161682,-0.3521118760108948,0.2981272339820862,0.3073963224887848,1.164015293121338
-0.142309308052063,0.38997817039489746,-0.35463911294937134,0.2998798191547394,0.30939242243766785,1.17058265209198
-0.14330832660198212,0.3910960853099823,-0.35653355717658997,0.3013179302215576,0.3110222816467285,1.1759055852890015
-0.1443149894475937,0.39221587777137756,-0.35858526825904846,0.30264291167259216,0.3126329481601715,1.1812456846237183
-0.1452372968196869,0.393337607383728,-0.3606407940387726,0.3040790855884552,0.31425705552101135,1.1865782737731934
-0.14644722640514374,0.3947335183620453,-0.3631622791290283,0.3058489263057709,0.31626465916633606,1.193166732788086
-0.14742514491081238,0.39576512575149536,-0.3652101457118988,0.3072889447212219,0.31790027022361755,1.1985183954238892
-0.148401141166687,0.396873414516449,-0.36726951599121094,0.30872321128845215,0.3194035589694977,1.2034616470336914
-0.14938096702098846,0.3979836404323578,-0.3691716492176056,0.3101479113101959,0.3210391700267792,1.208809494972229
-0.15036846697330475,0.3990957736968994,-0.3712214231491089,0.31145179271698,0.32269012928009033,1.2141573429107666
-0.15157455205917358,0.40049171447753906,-0.3737448453903198,0.31321394443511963,0.3247303068637848,1.2207361459732056
-0.1524757742881775,0.401626855134964,-0.3757907748222351,0.31465205550193787,0.3263716697692871,1.226074457168579
-0.15345944464206696,0.4026622772216797,-0.37782713770866394,0.31609976291656494,0.3280264437198639,1.2314164638519287
-0.15444885194301605,0.4037744104862213,-0.37989991903305054,0.31753402948379517,0.32958152890205383,1.2363348007202148
-0.15567603707313538,0.405135840177536,-0.38246166706085205,0.31930577754974365,0.3316274583339691,1.2428983449935913
-0.15644685924053192,0.40599870681762695,-0.38389021158218384,0.3203028440475464,0.3328987658023834,1.2470170259475708
-0.15767596662044525,0.4073850214481354,-0.3864577114582062,0.32206693291664124,0.3349907100200653,1.2535805702209473
-0.15858101844787598,0.408497154712677,-0.38852858543395996,0.323487788438797,0.3366915285587311,1.2589322328567505
-0.15955126285552979,0.4095134139060974,-0.39060327410697937,0.32490670680999756,0.338375061750412,1.2642840147018433
-0.1605234146118164,0.4106121361255646,-0.3927125036716461,0.32634100317955017,0.3399474024772644,1.2692214250564575
-0.16149941086769104,0.4117223620414734,-0.3946376442909241,0.3277752697467804,0.3416539430618286,1.2745654582977295
-0.16270741820335388,0.413106769323349,-0.3971859812736511,0.3295450806617737,0.3437497615814209,1.2811481952667236
-0.16368725895881653,0.4142304062843323,-0.39926066994667053,0.33087581396102905,0.34546780586242676,1.2864882946014404
-0.16458654403686523,0.4153387248516083,-0.4013334810733795,0.3323177695274353,0.34719738364219666,1.291826605796814
-0.16556446254253387,0.4163568913936615,-0.4034043550491333,0.3337481915950775,0.348936527967453,1.297164797782898
-0.16677246987819672,0.417716383934021,-0.4059814512729645,0.3354988694190979,0.3510764241218567,1.3037264347076416
-0.167759969830513,0.4188227653503418,-0.4080638289451599,0.33691588044166565,0.35268518328666687,1.3086543083190918
-0.1687493920326233,0.4199272394180298,-0.40998512506484985,0.33834245800971985,0.35443201661109924,1.3139772415161133
-0.16996507346630096,0.42127907276153564,-0.41256603598594666,0.3401103913784027,0.35660067200660706,1.320563793182373
-0.17094489932060242,0.42236626148223877,-0.4146465063095093,0.34143152832984924,0.35834556818008423,1.3259021043777466
-0.17183652520179749,0.4234573245048523,-0.4167442321777344,0.34286579489707947,0.36012500524520874,1.3312594890594482
-0.17280294001102448,0.4244754910469055,-0.41885727643966675,0.3443019986152649,0.3619121015071869,1.3366016149520874
-0.1737750917673111,0.42559146881103516,-0.42095500230789185,0.34574201703071594,0.3635457754135132,1.3415390253067017
-0.17496776580810547,0.4269643723964691,-0.4235455095767975,0.3475003242492676,0.365722119808197,1.3481082916259766
-0.17593801021575928,0.4280630946159363,-0.4254879355430603,0.3489135205745697,0.36752262711524963,1.35344660282135
-0.1769101619720459,0.4291503131389618,-0.4275837242603302,0.3502289056777954,0.3692847788333893,1.3587790727615356
-0.17809325456619263,0.43050020933151245,-0.4301665723323822,0.35199105739593506,0.37148988246917725,1.3653349876403809
-0.17876820266246796,0.431265264749527,-0.43179449439048767,0.35309362411499023,0.3728838860988617,1.3690298795700073
-0.17997045814990997,0.4326286017894745,-0.4343811869621277,0.35485193133354187,0.37508514523506165,1.3755896091461182
-0.18095605075359344,0.43372538685798645,-0.4364865720272064,0.3562881350517273,0.37674951553344727,1.3809374570846558
-0.18217171728610992,0.43506762385368347,-0.4390636384487152,0.35804644227027893,0.3789757192134857,1.3875278234481812
-0.182929128408432,0.4359055757522583,-0.44052284955978394,0.3590320348739624,0.380371630191803,1.391642689704895
-0.1841237097978592,0.43725356459617615,-0.4431478679180145,0.36077117919921875,0.38260164856910706,1.3982465267181396
-0.18501342833042145,0.4383676052093506,-0.44527435302734375,0.3621862828731537,0.38442325592041016,1.4036000967025757
-0.18597790598869324,0.43939346075057983,-0.44739124178886414,0.36360904574394226,0.38626596331596375,1.4089460372924805
-0.1869404911994934,0.4404902458190918,-0.44951772689819336,0.36503756046295166,0.3879590928554535,1.4138720035552979
-0.1881369948387146,0.441830575466156,-0.4521312415599823,0.3667978048324585,0.3901987075805664,1.42043936252594
-0.18911106884479523,0.4429101049900055,-0.45410433411598206,0.3682282567024231,0.39205288887023926,1.4257680177688599
-0.19007748365402222,0.44401073455810547,-0.4562538266181946,0.3695474863052368,0.39389365911483765,1.4311044216156006
-0.19096335768699646,0.44511136412620544,-0.4583764672279358,0.3709760010242462,0.39571720361709595,1.4364464282989502
-0.1919431835412979,0.4461142122745514,-0.4604933559894562,0.37239110469818115,0.3975905776023865,1.4413877725601196
-0.19315502047538757,0.4474487602710724,-0.4631049633026123,0.3741225600242615,0.39989152550697327,1.4483654499053955
-0.19414061307907104,0.4485398232936859,-0.46521610021591187,0.3755376636981964,0.40159809589385986,1.453306794166565
-0.19512426853179932,0.44963276386260986,-0.46717768907546997,0.3769623637199402,0.40348103642463684,1.4586700201034546
-0.19632269442081451,0.4509961009025574,-0.4698103666305542,0.378722608089447,0.40579351782798767,1.4652565717697144
-0.19729486107826233,0.45209673047065735,-0.47194644808769226,0.38004565238952637,0.40765732526779175,1.4706120491027832
-0.1981883943080902,0.45318201184272766,-0.47408443689346313,0.38147416710853577,0.4095402657985687,1.475957989692688
-0.19937914609909058,0.45451658964157104,-0.47671520709991455,0.3832325041294098,0.411866158246994,1.4825329780578613
-0.2003513127565384,0.45551174879074097,-0.47886085510253906,0.38464951515197754,0.4137529730796814,1.4878673553466797
-0.20131580531597137,0.4566008746623993,-0.4810141921043396,0.38605886697769165,0.41549786925315857,1.4927953481674194
-0.20228029787540436,0.45769575238227844,-0.48298919200897217,0.3874720335006714,0.4173961579799652,1.4981335401535034
-0.20324479043483734,0.45878487825393677,-0.4851367771625519,0.3887893557548523,0.41929447650909424,1.5034661293029785
-0.20443937182426453,0.4601098597049713,-0.48777905106544495,0.39055725932121277,0.42162421345710754,1.5100468397140503
-0.20534250140190125,0.461187481880188,-0.4899131953716278,0.3919934630393982,0.4235493540763855,1.5153851509094238
-0.20632041990756989,0.46219417452812195,-0.4920530915260315,0.3934277296066284,0.42547065019607544,1.5203264951705933
-0.20730216801166534,0.46330246329307556,-0.4942045211791992,0.39486390352249146,0.4272213280200958,1.5256742238998413
-0.2084909975528717,0.4646542966365814,-0.49683529138565063,0.3966298997402191,0.42960089445114136,1.5322493314743042
-0.20944206416606903,0.4657357335090637,-0.4988102912902832,0.3980526626110077,0.4315222203731537,1.5375837087631226
-0.21039122343063354,0.4668152928352356,-0.5009482502937317,0.39935463666915894,0.4334416091442108,1.542918086051941
-0.21127134561538696,0.46788716316223145,-0.5030785799026489,0.4007754921913147,0.43538594245910645,1.5482487678527832
-0.21222816407680511,0.4688861668109894,-0.5052415132522583,0.4022097587585449,0.4373283386230469,1.5531671047210693
-0.21340741217136383,0.470228374004364,-0.5078914761543274,0.4039815068244934,0.4397098422050476,1.559738278388977
-0.2143661379814148,0.4713040888309479,-0.5100352168083191,0.4054100215435028,0.4415026903152466,1.565066933631897
-0.21532104909420013,0.4723721146583557,-0.5120255351066589,0.40684813261032104,0.443448930978775,1.570410966873169
-0.2162797898054123,0.47344017028808594,-0.5141845941543579,0.4081731140613556,0.44539132714271545,1.5757529735565186
-0.21747437119483948,0.47475746273994446,-0.5168326497077942,0.40994101762771606,0.4477958381175995,1.5823395252227783
-0.21837367117404938,0.4758523404598236,-0.519008994102478,0.4113580286502838,0.44976893067359924,1.5876835584640503
-0.219349667429924,0.47685709595680237,-0.5211642384529114,0.41277697682380676,0.45172473788261414,1.5926306247711182
-0.22033141553401947,0.4779309034347534,-0.5233060121536255,0.41420358419418335,0.4535386860370636,1.5979822874069214
-0.22129973769187927,0.4790027439594269,-0.5252887010574341,0.4156378507614136,0.4555232524871826,1.603320598602295
-0.2222527265548706,0.4800707995891571,-0.5274132490158081,0.4169570803642273,0.4574829339981079,1.608656883239746
-0.22314050793647766,0.48113882541656494,-0.5295378565788269,0.4183913469314575,0.4594579339027405,1.613985538482666
-0.2243255227804184,0.48245805501937866,-0.53218013048172,0.420163094997406,0.46191805601119995,1.6205605268478394
-0.2252919226884842,0.4834398031234741,-0.5343161821365356,0.4215954542160034,0.4638930559158325,1.6254866123199463
-0.226260244846344,0.4844944179058075,-0.5364522337913513,0.4230201244354248,0.4657338261604309,1.630826711654663
-0.22721706330776215,0.4855509400367737,-0.5384292006492615,0.42443713545799255,0.4677318334579468,1.636170744895935
-0.22840973734855652,0.4868471622467041,-0.5410599708557129,0.4261973798274994,0.47016704082489014,1.6427476406097412
-0.22938190400600433,0.4879094362258911,-0.5432209372520447,0.42752620577812195,0.4721631109714508,1.648108959197998
-0.23028694093227386,0.4889870584011078,-0.545368492603302,0.428970068693161,0.4741707146167755,1.653462529182434
-0.23127445578575134,0.4899803102016449,-0.5475180149078369,0.43040433526039124,0.4761687219142914,1.6584057807922363
-0.23226195573806763,0.4910445213317871,-0.5496636629104614,0.4318424463272095,0.4780229330062866,1.6637517213821411
-0.2334757149219513,0.4923349618911743,-0.5523040294647217,0.43361225724220276,0.48050031065940857,1.6703382730484009
-0.23445361852645874,0.49337998032569885,-0.5542713403701782,0.43504270911216736,0.4825136661529541,1.6756688356399536
-0.23542770743370056,0.4944326877593994,-0.556422770023346,0.43635618686676025,0.4845212399959564,1.68100905418396
-0.23632699251174927,0.4954873025417328,-0.558555006980896,0.43778276443481445,0.4865633547306061,1.6863510608673096
-0.23752541840076447,0.4967566728591919,-0.5611876845359802,0.43956220149993896,0.4890579879283905,1.6929184198379517
-0.2385033369064331,0.49769046902656555,-0.5633218288421631,0.4410233199596405,0.4910924434661865,1.6978559494018555
-0.2394908368587494,0.4986933171749115,-0.5654444694519043,0.44248443841934204,0.49298882484436035,1.703203797340393
-0.24047449231147766,0.49969998002052307,-0.5674252510070801,0.44395706057548523,0.4950251877307892,1.7085535526275635
-0.2416844218969345,0.5009521245956421,-0.5700924396514893,0.44578438997268677,0.4975581765174866,1.7151381969451904
-0.24259905517101288,0.5019606947898865,-0.5722304582595825,0.4471553862094879,0.49963095784187317,1.7204822301864624
-0.243598073720932,0.5029443502426147,-0.5743895173072815,0.4486261010169983,0.5016807317733765,1.7258280515670776
-0.2446085810661316,0.5038455724716187,-0.5765447616577148,0.4501044750213623,0.5037458539009094,1.7307560443878174
-0.245622918009758,0.504810094833374,-0.5786904096603394,0.45159435272216797,0.5056633353233337,1.736098051071167
-0.2468481957912445,0.5059950947761536,-0.5813710689544678,0.4534485638141632,0.5082154870033264,1.742655873298645
-0.24784335494041443,0.5069633722305298,-0.5833652019500732,0.4549691081047058,0.5103055834770203,1.7479921579360962
-0.24876566231250763,0.5079202055931091,-0.5855070352554321,0.4563727080821991,0.5124109387397766,1.7533304691314697
-0.24976658821105957,0.508863627910614,-0.5876545906066895,0.45790475606918335,0.5145009756088257,1.7586745023727417
-0.2510110139846802,0.5100064277648926,-0.5902911424636841,0.45979347825050354,0.5170934200286865,1.765259027481079
-0.25202155113220215,0.5108558535575867,-0.5924348831176758,0.461323618888855,0.519221842288971,1.7702022790908813
-0.25303012132644653,0.5117608904838562,-0.594599723815918,0.4628691077232361,0.521168053150177,1.775555968284607
-0.2540387213230133,0.5126698017120361,-0.5965862274169922,0.4644222855567932,0.523300290107727,1.780919075012207
-0.2553042471408844,0.5137953758239746,-0.5992438197135925,0.46636083722114563,0.5259406566619873,1.7874902486801147
-0.2562514841556549,0.5146965980529785,-0.6014010310173035,0.46782004833221436,0.5280786156654358,1.7928285598754883
-0.25727733969688416,0.5155767202377319,-0.6035524010658264,0.46940770745277405,0.5302338600158691,1.798159122467041
-0.2582993507385254,0.5163743495941162,-0.6057230234146118,0.4710126221179962,0.5323852896690369,1.8030755519866943
-0.25930795073509216,0.5172257423400879,-0.6079050898551941,0.4726271629333496,0.5343775749206543,1.8084099292755127
-0.26031655073165894,0.5180655717849731,-0.6099050045013428,0.4742339849472046,0.5365481376647949,1.8137444257736206
-0.26123884320259094,0.5189015865325928,-0.6120660305023193,0.47572579979896545,0.5387206077575684,1.8190864324569702
-0.26246219873428345,0.5199312567710876,-0.6147159337997437,0.47773340344429016,0.5414031744003296,1.8256556987762451
-0.263231098651886,0.5204988718032837,-0.6163669228553772,0.4790104329586029,0.5430886149406433,1.8293660879135132
-0.26444295048713684,0.521490216255188,-0.6190187931060791,0.4810602068901062,0.545792281627655,1.835962176322937
-0.2654227912425995,0.5222840309143066,-0.6211740374565125,0.48273608088493347,0.547822892665863,1.8413100242614746
-0.26663270592689514,0.5232312679290771,-0.6238086223602295,0.48480886220932007,0.550568699836731,1.847900390625
-0.2676163613796234,0.5239924788475037,-0.6257836222648621,0.4864828288555145,0.5527718663215637,1.8532328605651855
-0.26852333545684814,0.5247652530670166,-0.6279158592224121,0.48803406953811646,0.555011510848999,1.858565330505371
-0.2695089280605316,0.525536060333252,-0.6300653219223022,0.4897233545780182,0.5572357773780823,1.863899827003479
-0.27048298716545105,0.5262359380722046,-0.6322263479232788,0.4914318323135376,0.5594696402549744,1.8688315153121948
-0.2714359760284424,0.5269780158996582,-0.6343681812286377,0.49314990639686584,0.5615596771240234,1.8741698265075684
-0.272586464881897,0.5278562307357788,-0.6370104551315308,0.4952802062034607,0.5643419623374939,1.8807448148727417
-0.2735183537006378,0.5285542011260986,-0.6389911770820618,0.4970135986804962,0.5665988326072693,1.8860888481140137
-0.2743735611438751,0.5292425751686096,-0.6411387920379639,0.4986031949520111,0.5688729286193848,1.8914289474487305
-0.2753073573112488,0.5299251675605774,-0.6432997584342957,0.5003154873847961,0.571139395236969,1.8967902660369873
-0.2762373387813568,0.5305598378181458,-0.6454473733901978,0.5020527243614197,0.5734154582023621,1.9017373323440552
-0.2773667275905609,0.5314112305641174,-0.6480704545974731,0.5042175650596619,0.5762456059455872,1.9083219766616821
-0.2782679498195648,0.532095730304718,-0.6501911878585815,0.5059797167778015,0.5783452987670898,1.913662075996399
-0.27917298674583435,0.5327630043029785,-0.6521450877189636,0.5077495574951172,0.5806539058685303,1.9190003871917725
-0.28001669049263,0.5334073305130005,-0.6542543172836304,0.5093870759010315,0.5829548835754395,1.9243347644805908
-0.28113266825675964,0.5341877341270447,-0.6568773984909058,0.5115615129470825,0.5857908129692078,1.9308944940567017
-0.282039612531662,0.534814715385437,-0.659000039100647,0.5133217573165894,0.5881243944168091,1.9362366199493408
-0.2829408347606659,0.5353938341140747,-0.6611207723617554,0.5150992274284363,0.5902489423751831,1.9411510229110718
-0.2838152050971985,0.5360150933265686,-0.6632549166679382,0.5169073939323425,0.5925902128219604,1.9464969635009766
-0.2848564088344574,0.536759078502655,-0.665839672088623,0.519137442111969,0.5954740643501282,1.9530835151672363
-0.28569623827934265,0.5373534560203552,-0.6677878499031067,0.5209609866142273,0.5978383421897888,1.9584486484527588
-0.28646132349967957,0.5379478931427002,-0.6699066758155823,0.522646427154541,0.6002121567726135,1.9638079404830933
-0.28728777170181274,0.5385346412658691,-0.672015905380249,0.5244603753089905,0.602578341960907,1.9691749811172485
-0.2881026864051819,0.5390599966049194,-0.6741251349449158,0.5262819528579712,0.6049368381500244,1.9741066694259644
-0.288917601108551,0.5396199226379395,-0.6762247681617737,0.5281170010566711,0.6071342825889587,1.9794373512268066
-0.28972679376602173,0.5401702523231506,-0.6781556606292725,0.5299615859985352,0.6094908118247986,1.9847698211669922
-0.2907085418701172,0.540839433670044,-0.6807212233543396,0.5322433710098267,0.6124341487884521,1.9913256168365479
-0.29144102334976196,0.5413744449615479,-0.6828170418739319,0.5339652895927429,0.6148099303245544,1.9966620206832886
-0.2924208343029022,0.5420282483100891,-0.6853730082511902,0.5362547636032104,0.6177474856376648,2.0032217502593994
-0.29321083426475525,0.5425479412078857,-0.6874573230743408,0.5381108522415161,0.6201347708702087,2.0085694789886475
-0.2939854860305786,0.5430234670639038,-0.6895320415496826,0.5399765968322754,0.6225239038467407,2.0135090351104736
-0.2947620749473572,0.543531596660614,-0.6916067600250244,0.5418556928634644,0.624763548374176,2.018854856491089
-0.2957054674625397,0.5441509485244751,-0.6941991448402405,0.5441758632659912,0.6277260184288025,2.025466203689575
-0.2964571416378021,0.5446494817733765,-0.6961243152618408,0.546072244644165,0.6301459074020386,2.0308141708374023
-0.2971416711807251,0.5451442003250122,-0.6982182264328003,0.5478248000144958,0.6325580477714539,2.036165714263916
-0.29786840081214905,0.5456293225288391,-0.7003158926963806,0.5497058629989624,0.6349798440933228,2.0415022373199463
-0.2985893487930298,0.5460683703422546,-0.7023963928222656,0.5515907406806946,0.6374169588088989,2.0464224815368652
-0.29929882287979126,0.5465304851531982,-0.7044826149940491,0.5534986257553101,0.6396661400794983,2.051753044128418
-0.2999987006187439,0.5469810962677002,-0.706411600112915,0.5554084181785583,0.6420956254005432,2.0570950508117676
-0.30063915252685547,0.5474317073822021,-0.7085016369819641,0.557178258895874,0.6445499658584595,2.0624332427978516
-0.3014943301677704,0.5479782223701477,-0.7110499739646912,0.5595463514328003,0.6475431323051453,2.0689988136291504
-0.30218079686164856,0.5484230518341064,-0.7131074070930481,0.5614580512046814,0.6500205397605896,2.074350357055664
-0.3028557300567627,0.5488276481628418,-0.715164840221405,0.5633583068847656,0.6524748802185059,2.079282283782959
-0.30351153016090393,0.5492571592330933,-0.7172338366508484,0.5652834177017212,0.6547605395317078,2.08463191986084
-0.30416154861450195,0.5496866703033447,-0.7191512584686279,0.567221999168396,0.6572302579879761,2.0899932384490967
-0.30496689677238464,0.5502178072929382,-0.7217206954956055,0.5696073174476624,0.6602598428726196,2.096575975418091
-0.3055613040924072,0.5506511926651001,-0.7238069176673889,0.571403980255127,0.662746787071228,2.1019198894500732
-0.3061998188495636,0.5510730147361755,-0.725904643535614,0.5733349323272705,0.6652337908744812,2.10725998878479
-0.30683833360671997,0.5514584183692932,-0.7279908657073975,0.5752447247505188,0.6677226424217224,2.1121840476989746
-0.3076130151748657,0.5519646406173706,-0.7305871248245239,0.577605128288269,0.6708059906959534,2.1187381744384766
-0.3082265853881836,0.5523711442947388,-0.7327078580856323,0.5795398354530334,0.6731107831001282,2.1240782737731934
-0.30897057056427,0.5528677701950073,-0.7353002429008484,0.5819213390350342,0.6762266755104065,2.130647659301758
-0.3093809187412262,0.5531783699989319,-0.7367575764656067,0.5832597613334656,0.6781517863273621,2.134748935699463
-0.3100980520248413,0.553669273853302,-0.7393595576286316,0.5856374502182007,0.6812657713890076,2.141341209411621
-0.3106752038002014,0.5540661811828613,-0.7414706945419312,0.5875453352928162,0.683775782585144,2.1466987133026123
-0.3112523853778839,0.5544228553771973,-0.7435799241065979,0.5894513130187988,0.686308741569519,2.151651620864868
-0.311821848154068,0.5548082590103149,-0.745712161064148,0.591370701789856,0.6886596083641052,2.1570088863372803
-0.312517911195755,0.555283784866333,-0.74831223487854,0.5937387943267822,0.6917755007743835,2.1635916233062744
-0.3130759000778198,0.5556710958480835,-0.7502700090408325,0.595669686794281,0.6943199634552002,2.168922185897827
-0.31358402967453003,0.5560603737831116,-0.7523888349533081,0.5974529385566711,0.6968606114387512,2.174250841140747
-0.314264714717865,0.5565378069877625,-0.7550042271614075,0.5997999310493469,0.6999937891960144,2.180806875228882
-0.31467506289482117,0.556804358959198,-0.7566724419593811,0.6012591123580933,0.7019630074501038,2.184511423110962
-0.3153327703475952,0.5572798848152161,-0.7593185901641846,0.6036099195480347,0.7050961852073669,2.1910786628723145
-0.3158543109893799,0.5576652884483337,-0.761491060256958,0.605519711971283,0.707466185092926,2.1964149475097656
-0.31648707389831543,0.5581331849098206,-0.7641736268997192,0.6078743934631348,0.710608959197998,2.2029919624328613
-0.31700095534324646,0.5585089921951294,-0.7661735415458679,0.6097899675369263,0.7131937146186829,2.2083418369293213
-0.3174745738506317,0.5588847994804382,-0.7683594822883606,0.611534833908081,0.7157534956932068,2.2137107849121094
-0.31797313690185547,0.5592529773712158,-0.7705569267272949,0.6134101748466492,0.718334436416626,2.219064235687256
-0.3184678256511688,0.5595942735671997,-0.7727620005607605,0.6152854561805725,0.7209076881408691,2.224003791809082
-0.31895679235458374,0.5599662661552429,-0.7749383449554443,0.6171741485595703,0.7232853770256042,2.2293381690979004
-0.3195511996746063,0.5604321956634521,-0.7776458263397217,0.6194904446601868,0.7264760732650757,2.2359111309051514
-0.3200325071811676,0.5608175992965698,-0.7796802520751953,0.6213638186454773,0.7290531396865845,2.24123215675354
-0.32047542929649353,0.5612030625343323,-0.7818892002105713,0.6230819225311279,0.7316436171531677,2.2465744018554688
-0.3209317922592163,0.5615960955619812,-0.7841210961341858,0.6249265074729919,0.7342360615730286,2.251922130584717
-0.3213900625705719,0.561962366104126,-0.7863473296165466,0.6267615556716919,0.7368265986442566,2.2568461894989014
-0.32193654775619507,0.5624570846557617,-0.7891199588775635,0.6290280222892761,0.7400422096252441,2.2634174823760986
-0.3223794996738434,0.5628635883331299,-0.7913519144058228,0.6308802962303162,0.7424352169036865,2.2687671184539795
-0.3228185772895813,0.5632758140563965,-0.7934515476226807,0.6327133774757385,0.7450621128082275,2.2741189002990723
-0.3232135772705078,0.563686192035675,-0.7957352995872498,0.6344026923179626,0.7476545572280884,2.279482126235962
-0.32373321056365967,0.5641847252845764,-0.7985424399375916,0.6366384625434875,0.7508989572525024,2.286062717437744
-0.32414740324020386,0.5645797252655029,-0.8008357882499695,0.6384294033050537,0.7535143494606018,2.291404962539673
-0.32455581426620483,0.5649383068084717,-0.803109884262085,0.6402260661125183,0.7561413049697876,2.2963290214538574
-0.3249585032463074,0.5653294324874878,-0.8054012656211853,0.6420285105705261,0.7585631012916565,2.3016653060913086
-0.3254493772983551,0.5658145546913147,-0.8082448840141296,0.6442431807518005,0.7618017196655273,2.3082287311553955
-0.3258347809314728,0.5662134289741516,-0.8103752136230469,0.6460456252098083,0.7644459009170532,2.313570976257324
-0.3261856734752655,0.5666122436523438,-0.8126819133758545,0.6476965546607971,0.7670785784721375,2.318899631500244
-0.32655957341194153,0.5670187473297119,-0.8150001764297485,0.6494683027267456,0.7697266340255737,2.3242454528808594
-0.3269239068031311,0.5673926472663879,-0.817316472530365,0.6512189507484436,0.7721599340438843,2.3291733264923096
-0.3273630142211914,0.5678892731666565,-0.8202157020568848,0.6533837914466858,0.7756439447402954,2.335775375366211
-0.32771390676498413,0.5682938694953918,-0.8225569128990173,0.6551497578620911,0.7780964374542236,2.341134548187256
-0.3280475437641144,0.5686945915222168,-0.8247370719909668,0.6569100022315979,0.7807598114013672,2.3464958667755127
-0.3283485770225525,0.5690991878509521,-0.8271070718765259,0.6585322022438049,0.7834193110466003,2.3518359661102295
-0.32875126600265503,0.5696015954017639,-0.8300082683563232,0.6607008576393127,0.7866905331611633,2.3583996295928955
-0.32907915115356445,0.5700061917304993,-0.8323935866355896,0.6624323725700378,0.7893635034561157,2.3637301921844482
-0.3293916881084442,0.5703743100166321,-0.8347769975662231,0.6641619205474854,0.7920287847518921,2.3686466217041016
-0.3297061622142792,0.570765495300293,-0.8371469974517822,0.6658952832221985,0.7944946885108948,2.373990535736084
-0.3300877511501312,0.5712487101554871,-0.8400673270225525,0.6680409908294678,0.7977716326713562,2.38055419921875
-0.33039262890815735,0.5716398358345032,-0.842247486114502,0.6697820425033569,0.8004522919654846,2.385892391204834
-0.33067065477371216,0.5720291137695312,-0.8446213006973267,0.6713946461677551,0.8031213879585266,2.3912439346313477
-0.33096593618392944,0.572422206401825,-0.846997082233429,0.6731337904930115,0.805794358253479,2.396599531173706
-0.33124974370002747,0.5727807283401489,-0.8493804931640625,0.6748595237731934,0.8082678914070129,2.4015467166900635
-0.33159103989601135,0.5732505321502686,-0.8523257374763489,0.6769706606864929,0.8117557764053345,2.408146619796753
-0.33186906576156616,0.573628306388855,-0.854695737361908,0.6787002086639404,0.8142331838607788,2.413492441177368
-0.33214518427848816,0.574002206325531,-0.8569065928459167,0.680437445640564,0.816900372505188,2.4188268184661865
-0.33239829540252686,0.5743799209594727,-0.8593015074729919,0.682025134563446,0.819577157497406,2.424161434173584
-0.3327261805534363,0.5748478174209595,-0.8622410297393799,0.6841554045677185,0.8228521943092346,2.4307172298431396
-0.3329907953739166,0.5752255320549011,-0.8646397590637207,0.6858735084533691,0.825532853603363,2.436063051223755
-0.3332381546497345,0.5755726099014282,-0.8670116662979126,0.6875742673873901,0.8280044794082642,2.440992832183838
-0.33348357677459717,0.5759522318840027,-0.8693970441818237,0.6892712712287903,0.8306620717048645,2.446331262588501
-0.3337884545326233,0.5764182209968567,-0.8723422884941101,0.6913670301437378,0.8339563012123108,2.4528985023498535
-0.33403199911117554,0.5767863392829895,-0.8745301365852356,0.6930908560752869,0.8366158604621887,2.4582502841949463
-0.33426016569137573,0.5771449208259583,-0.8769077658653259,0.6946727633476257,0.8393195271492004,2.4635980129241943
-0.3345036804676056,0.5774996876716614,-0.8792892694473267,0.6963927745819092,0.8419886231422424,2.468959331512451
-0.33475103974342346,0.5778236985206604,-0.8816746473312378,0.6981089115142822,0.8446826934814453,2.473904609680176
-0.33500030636787415,0.5781707763671875,-0.8840810656547546,0.6998077630996704,0.8471466302871704,2.4792428016662598
-0.33524957299232483,0.5785139799118042,-0.886278510093689,0.701510488986969,0.849825382232666,2.484579086303711
-0.33555829524993896,0.5789358615875244,-0.8892409801483154,0.7036063075065613,0.8531330227851868,2.491142511367798
-0.3357922434806824,0.5792867541313171,-0.8916282653808594,0.7052016258239746,0.855807900428772,2.4964752197265625
-0.33608752489089966,0.5797181725502014,-0.894581139087677,0.7073204517364502,0.8591116666793823,2.503053903579712
-0.3363214433193207,0.5800594687461853,-0.8969741463661194,0.7090404629707336,0.8617808222770691,2.5083882808685303
-0.3365515470504761,0.580366313457489,-0.8993672132492065,0.7107623219490051,0.8644787073135376,2.513320207595825
-0.33677780628204346,0.5806980133056641,-0.9017467498779297,0.7124650478363037,0.8669388294219971,2.518660306930542
-0.3370635211467743,0.581106424331665,-0.9046689867973328,0.7145493626594543,0.8702502846717834,2.5252583026885986
-0.3372955322265625,0.5814381837844849,-0.9068645238876343,0.716261625289917,0.8729098439216614,2.5306100845336914
-0.3375064432621002,0.5817717909812927,-0.9092709422111511,0.7178435921669006,0.8756116032600403,2.535963535308838
-0.3377346396446228,0.5821054577827454,-0.9116524457931519,0.7195616364479065,0.8782902956008911,2.541313409805298
-0.337962806224823,0.5824026465415955,-0.9140646457672119,0.7212758660316467,0.8809785842895508,2.546241283416748
-0.3381910026073456,0.5827248096466064,-0.9164576530456543,0.7229977250099182,0.8834636211395264,2.551569938659668
-0.3384690284729004,0.5831140279769897,-0.9194163084030151,0.7250897288322449,0.886754035949707,2.5581257343292236
-0.33868762850761414,0.5834265947341919,-0.92165207862854,0.7267732620239258,0.8894538283348083,2.563460111618042
-0.3388812839984894,0.5837371945381165,-0.9240546822547913,0.728335976600647,0.8921210169792175,2.5687928199768066
-0.3391363024711609,0.5841072797775269,-0.9270229339599609,0.7304298877716064,0.8954363465309143,2.5753753185272217
-0.33929163217544556,0.5843163132667542,-0.9288694858551025,0.7317280173301697,0.8972867131233215,2.579076051712036
-0.3395351469516754,0.5846883058547974,-0.9318281412124634,0.7338199615478516,0.9008033871650696,2.585670232772827
-0.3397345542907715,0.5849912166595459,-0.9342518448829651,0.7355073690414429,0.9032884240150452,2.5910353660583496
-0.33993014693260193,0.5852922797203064,-0.9364684224128723,0.7371832132339478,0.9059786200523376,2.5963852405548096
-0.3401698172092438,0.585660457611084,-0.939428985118866,0.7392253279685974,0.9092767238616943,2.6029698848724365
-0.3403404951095581,0.5859557390213013,-0.9418430924415588,0.7407612204551697,0.9119669198989868,2.6083080768585205
-0.3404804468154907,0.5861608982086182,-0.9436992406845093,0.7420517206192017,0.9138287901878357,2.6119935512542725
-0.3407009541988373,0.5865271687507629,-0.9467096924781799,0.7441187500953674,0.9171287417411804,2.618558883666992
-0.34087738394737244,0.5868262648582458,-0.9491352438926697,0.7457869648933411,0.919807493686676,2.6239027976989746
-0.3410959541797638,0.5871982574462891,-0.9521456956863403,0.7478424906730652,0.9230902194976807,2.6304683685302734
-0.34127429127693176,0.587505042552948,-0.9543834328651428,0.7494953274726868,0.9257708191871643,2.635810375213623
-0.34143537282943726,0.5878157019615173,-0.9568166732788086,0.7510005831718445,0.9284476041793823,2.6411545276641846
-0.341607928276062,0.5881032943725586,-0.9592671990394592,0.7526342272758484,0.9311186671257019,2.6465003490448
-0.34177282452583313,0.5884100794792175,-0.961698591709137,0.7542737126350403,0.9335960745811462,2.65144944190979
-0.3419319987297058,0.5887054204940796,-0.9641280174255371,0.755924642086029,0.936249852180481,2.6568105220794678
-0.34212374687194824,0.5890639424324036,-0.9671000838279724,0.7579456567764282,0.9395517110824585,2.6634106636047363
-0.3422790467739105,0.5893515944480896,-0.9693243503570557,0.7595774531364441,0.9422131776809692,2.668750762939453
-0.3424190282821655,0.5896430611610413,-0.971767246723175,0.761082649230957,0.9448842406272888,2.6740832328796387
-0.342572420835495,0.589909553527832,-0.974198579788208,0.7626933455467224,0.9475361108779907,2.679417610168457
-0.34272006154060364,0.5901914238929749,-0.9766433835029602,0.7642963528633118,0.9499885439872742,2.684335947036743
-0.34289073944091797,0.5905365943908691,-0.9796384572982788,0.7662770748138428,0.9532731771469116,2.690903425216675
-0.3430287837982178,0.5908126831054688,-0.9818896055221558,0.767889678478241,0.9559097290039062,2.6962263584136963
-0.34316301345825195,0.5910926461219788,-0.9843497276306152,0.7695003747940063,0.9585750102996826,2.7015836238861084
-0.34328189492225647,0.5913745164871216,-0.9867734313011169,0.770982563495636,0.961198091506958,2.7069296836853027
-0.34343913197517395,0.5917311906814575,-0.9897685050964355,0.7729556560516357,0.9644712209701538,2.713531494140625
-0.34353500604629517,0.5919344425201416,-0.9916245937347412,0.7741809487342834,0.9662909507751465,2.7172436714172363
-0.3436826467514038,0.5922949314117432,-0.9945967197418213,0.7761118412017822,0.969541072845459,2.7238245010375977
-0.3437938690185547,0.5925921201705933,-0.9970299601554871,0.7776745557785034,0.97216796875,2.729170322418213
-0.34391656517982483,0.5929622054100037,-0.9998103380203247,0.7796093225479126,0.9753950834274292,2.7357378005981445
-0.3440028727054596,0.5932613015174866,-1.0022339820861816,0.7811758518218994,0.9780163168907166,2.7410836219787598
-0.3440776467323303,0.5935623645782471,-1.0046519041061401,0.7826101779937744,0.9806259870529175,2.7464122772216797
-0.34415432810783386,0.5938423275947571,-1.0070699453353882,0.7841671705245972,0.98322993516922,2.7517447471618652
-0.3442310392856598,0.5941510200500488,-1.0095089673995972,0.7857221961021423,0.9856248497962952,2.7566709518432617
-0.344326913356781,0.5945364236831665,-1.0124887228012085,0.7876109480857849,0.988821268081665,2.763251543045044
-0.3443978726863861,0.5948547124862671,-1.014933466911316,0.7891372442245483,0.9914213418960571,2.7686071395874023
-0.3444611430168152,0.5951653718948364,-1.0171616077423096,0.790669322013855,0.9940080642700195,2.7739741802215576
-0.3445167541503906,0.5954779386520386,-1.0195757150650024,0.7920863032341003,0.9966004490852356,2.77933931350708
-0.3445838689804077,0.5958537459373474,-1.0225515365600586,0.7939711809158325,0.9997815489768982,2.78592586517334
-0.3446298837661743,0.5961394309997559,-1.0249656438827515,0.7954994440078735,1.0023682117462158,2.7912697792053223
-0.3446682393550873,0.5964500904083252,-1.0273683071136475,0.7970238327980042,1.004738211631775,2.7961995601654053
-0.3446950614452362,0.596766471862793,-1.0297670364379883,0.7985424399375916,1.0073057413101196,2.801541805267334
-0.34472575783729553,0.5971652865409851,-1.0327237844467163,0.8003947138786316,1.0104484558105469,2.808103322982788
-0.34474876523017883,0.5974970459938049,-1.0349557399749756,0.8017638325691223,1.0130083560943604,2.8134377002716064
-0.3447660207748413,0.59782874584198,-1.0373506546020508,0.8032575249671936,1.015570044517517,2.818779706954956
-0.34477943181991577,0.5981298089027405,-1.0397628545761108,0.8047435879707336,1.018110752105713,2.824110507965088
-0.3447871208190918,0.5984615087509155,-1.0421615839004517,0.8062257766723633,1.0204710960388184,2.8290441036224365
-0.3447928726673126,0.5987874865531921,-1.0445642471313477,0.8076945543289185,1.023013710975647,2.83439564704895
-0.34479668736457825,0.5992035865783691,-1.0473599433898926,0.8095104098320007,1.0261507034301758,2.8409976959228516
-0.34479668736457825,0.5995429754257202,-1.0497490167617798,0.8109772801399231,1.0287047624588013,2.8463377952575684
-0.34479668736457825,0.5998861789703369,-1.052149772644043,0.8123099207878113,1.031241536140442,2.851687431335449
-0.34479862451553345,0.6002025604248047,-1.054531216621399,0.8137403726577759,1.0337860584259033,2.8570353984832764
-0.34479862451553345,0.6005419492721558,-1.0569185018539429,0.8151765465736389,1.0361216068267822,2.861967086791992
-0.34479862451553345,0.6009676456451416,-1.059863805770874,0.8169559836387634,1.0392489433288574,2.868532657623291
-0.34479862451553345,0.6013128161430359,-1.062057375907898,0.8183998465538025,1.0417819023132324,2.873872756958008
-0.34479862451553345,0.6016502976417542,-1.0644254684448242,0.8197228908538818,1.044309139251709,2.8791937828063965
-0.34479862451553345,0.6019896864891052,-1.0668030977249146,0.8211533427238464,1.0468441247940063,2.8845109939575195
-0.34479862451553345,0.6024096012115479,-1.0697273015975952,0.8229039907455444,1.049940824508667,2.8910973072052
-0.34479862451553345,0.6027240753173828,-1.0721279382705688,0.8243152499198914,1.0524795055389404,2.896449089050293
-0.34479862451553345,0.6031458973884583,-1.075057864189148,0.8260236978530884,1.0555763244628906,2.903045177459717
-0.34479862451553345,0.6034066677093506,-1.076716423034668,0.8270860314369202,1.0573269128799438,2.906757354736328
-0.34479862451553345,0.6038304567337036,-1.0796425342559814,0.8287848830223083,1.060408353805542,2.9133248329162598
-0.34477943181991577,0.6041794419288635,-1.0820144414901733,0.8301693201065063,1.0629087686538696,2.918672561645508
-0.34475257992744446,0.6045341491699219,-1.0843998193740845,0.8314425349235535,1.065422534942627,2.924010992050171
-0.3447123169898987,0.6049713492393494,-1.08732008934021,0.8331279754638672,1.0684943199157715,2.930572509765625
-0.34467780590057373,0.6053011417388916,-1.0896824598312378,0.8344932198524475,1.0709869861602783,2.935912609100342
-0.3446432948112488,0.6056578159332275,-1.0920332670211792,0.8358469605445862,1.073272705078125,2.940840482711792
-0.34460878372192383,0.6060163378715515,-1.0941903591156006,0.83718341588974,1.0757520198822021,2.9461615085601807
-0.34456852078437805,0.6064631342887878,-1.0971050262451172,0.8388171195983887,1.0788179636001587,2.9527499675750732
-0.3445320725440979,0.6068313121795654,-1.0994653701782227,0.8401440382003784,1.0812780857086182,2.9581055641174316
-0.34449756145477295,0.6072033047676086,-1.1018277406692505,0.8413711786270142,1.0837574005126953,2.9634552001953125
-0.34445345401763916,0.6075465083122253,-1.1041842699050903,0.8427038788795471,1.0862118005752563,2.968827962875366
-0.3443997800350189,0.6080048084259033,-1.1070624589920044,0.8443413972854614,1.0892491340637207,2.975416421890259
-0.34436526894569397,0.6082866787910461,-1.1086961030960083,0.8453537821769714,1.0909537076950073,2.979119062423706
-0.34431156516075134,0.6087411046028137,-1.1115589141845703,0.8469740748405457,1.0939661264419556,2.985682725906372
-0.34426748752593994,0.6091150045394897,-1.1138790845870972,0.8482837080955505,1.0964165925979614,2.9910171031951904
-0.3442099392414093,0.6095694303512573,-1.1167265176773071,0.8497774004936218,1.0994001626968384,2.9975767135620117
-0.3441677689552307,0.6099337935447693,-1.1190236806869507,0.851058304309845,1.1018410921096802,3.002915143966675
-0.3441179096698761,0.6102712750434875,-1.1213207244873047,0.8523353338241577,1.104270577430725,3.0082476139068604
-0.3440680503845215,0.610643208026886,-1.1236159801483154,0.8536257743835449,1.1065006256103516,3.013183116912842
-0.34401628375053406,0.6110113859176636,-1.1257137060165405,0.8549200892448425,1.1089223623275757,3.0185368061065674
-0.34396836161613464,0.611381471157074,-1.1279802322387695,0.8561185002326965,1.1113345623016357,3.023878812789917
-0.34392040967941284,0.6118378043174744,-1.1307930946350098,0.857702374458313,1.114304780960083,3.0304806232452393
-0.3438820540904999,0.6122097969055176,-1.1330748796463013,0.8590005040168762,1.1167265176773071,3.035834312438965
-0.3438360393047333,0.6125568747520447,-1.1353585720062256,0.8602871298789978,1.1191214323043823,3.041182041168213
-0.3437900245189667,0.6129307746887207,-1.1376097202301025,0.8615717887878418,1.1213361024856567,3.046098470687866
-0.34374016523361206,0.6133085489273071,-1.1396825313568115,0.8628469109535217,1.1237061023712158,3.0514347553253174
-0.34367114305496216,0.6137821674346924,-1.1424283981323242,0.8644000887870789,1.1266398429870605,3.058002233505249
-0.3436155319213867,0.6141694784164429,-1.1446295976638794,0.8656713962554932,1.1290136575698853,3.0633442401885986
-0.3435426652431488,0.6146373152732849,-1.1473658084869385,0.8671420812606812,1.131911039352417,3.0699117183685303
-0.3434908986091614,0.6150074005126953,-1.149559497833252,0.8684210181236267,1.1342599391937256,3.07525372505188
-0.34343719482421875,0.6153448820114136,-1.1517376899719238,0.8696942329406738,1.1365915536880493,3.0805976390838623
-0.3433796763420105,0.6157111525535583,-1.153892993927002,0.8709636330604553,1.1387487649917603,3.085533380508423
-0.3433125615119934,0.6161617040634155,-1.1565313339233398,0.8725301623344421,1.1416211128234863,3.092127561569214
-0.34325888752937317,0.6165317893028259,-1.1585159301757812,0.8738033771514893,1.1439201831817627,3.097485065460205
-0.3432013690471649,0.6168999671936035,-1.1606731414794922,0.8749634623527527,1.1462364196777344,3.102834701538086
-0.3431515097618103,0.6172642707824707,-1.1628053188323975,0.8762174844741821,1.1485373973846436,3.1081786155700684
-0.34309589862823486,0.6175960302352905,-1.164941430091858,0.8774695992469788,1.1508153676986694,3.113520860671997
-0.3430306911468506,0.6180408596992493,-1.1675453186035156,0.8790304064750671,1.1536494493484497,3.1200804710388184
-0.3429693281650543,0.6184051632881165,-1.169629693031311,0.8803036212921143,1.155745267868042,3.125004529953003
-0.34290605783462524,0.6187752485275269,-1.171560525894165,0.8815845251083374,1.1580308675765991,3.1303389072418213
-0.342852383852005,0.6191491484642029,-1.1736160516738892,0.8828442692756653,1.1602858304977417,3.135671377182007
-0.34279292821884155,0.6196131706237793,-1.1761242151260376,0.884307324886322,1.1630393266677856,3.142254114151001
-0.3427584171295166,0.6198682188987732,-1.17769455909729,0.8852775692939758,1.1647746562957764,3.146368980407715
-0.34271240234375,0.620320737361908,-1.1801776885986328,0.8868326544761658,1.1675262451171875,3.1529653072357178
-0.34267979860305786,0.6206793189048767,-1.1821738481521606,0.8880770802497864,1.1695759296417236,3.157914161682129
-0.3426433801651001,0.6211126446723938,-1.1846396923065186,0.8896033763885498,1.1723006963729858,3.164496898651123
-0.34261268377304077,0.6214635372161865,-1.186470866203308,0.8908573985099792,1.1745020151138306,3.1698408126831055
-0.34258392453193665,0.6218087077140808,-1.188445806503296,0.8920213580131531,1.176701307296753,3.175183057785034
-0.34255900979042053,0.6221461892127991,-1.1904170513153076,0.8932849764823914,1.178919792175293,3.180504083633423
-0.3425321578979492,0.6224625706672668,-1.1923805475234985,0.8945447206497192,1.181092381477356,3.1858229637145996
-0.3425014913082123,0.6228019595146179,-1.1943286657333374,0.8958026170730591,1.1831133365631104,3.1907529830932617
-0.3424803912639618,0.6231470704078674,-1.1961349248886108,0.8970585465431213,1.1853030920028687,3.1960835456848145
-0.34246504306793213,0.6235708594322205,-1.1985336542129517,0.8986078500747681,1.1879550218582153,3.2026584148406982
-0.3424554467201233,0.6239140629768372,-1.2004492282867432,0.8997641205787659,1.1901332139968872,3.2080140113830566
-0.34244969487190247,0.6242515444755554,-1.2023628950119019,0.9009970426559448,1.1922847032546997,3.2133772373199463
-0.34244394302368164,0.6246715188026428,-1.2047041654586792,0.9025252461433411,1.1949135065078735,3.2199790477752686
-0.34244203567504883,0.6249821186065674,-1.2065775394439697,0.9037735462188721,1.1970553398132324,3.225334644317627
-0.3424381911754608,0.6253215074539185,-1.2084547281265259,0.9050256609916687,1.199011206626892,3.2302663326263428
-0.3424381911754608,0.6257337927818298,-1.2107691764831543,0.9065807461738586,1.2016112804412842,3.23683762550354
-0.342436283826828,0.6260673999786377,-1.2124756574630737,0.9078328609466553,1.203728199005127,3.2421720027923584
-0.342436283826828,0.6263952851295471,-1.2142934799194336,0.90900057554245,1.205825924873352,3.24749493598938
-0.342436283826828,0.6267097592353821,-1.216111183166504,0.9102622866630554,1.2079120874404907,3.2528369426727295
-0.342436283826828,0.6270875334739685,-1.2183239459991455,0.9118096828460693,1.2104777097702026,3.2593870162963867
-0.342436283826828,0.6273598074913025,-1.2201110124588013,0.913061797618866,1.2125273942947388,3.2647252082824707
-0.342436283826828,0.6276493072509766,-1.2219269275665283,0.9143043160438538,1.214446783065796,3.269674301147461
-0.342436283826828,0.6279369592666626,-1.2235932350158691,0.9155564308166504,1.2165234088897705,3.2750298976898193
-0.342436283826828,0.6282207369804382,-1.2253860235214233,0.9167184233665466,1.2185732126235962,3.280381441116333
-0.342436283826828,0.6285678148269653,-1.2275757789611816,0.9182773232460022,1.2211158275604248,3.286977529525757
-0.34244588017463684,0.6287652850151062,-1.2289506196975708,0.9192494750022888,1.2226862907409668,3.2910923957824707
-0.34247463941574097,0.6291085481643677,-1.231105923652649,0.9208122491836548,1.225184679031372,3.297663688659668
-0.3425053060054779,0.6293865442276001,-1.232848882675171,0.9220815896987915,1.2270734310150146,3.3025877475738525
-0.3425475060939789,0.6296665072441101,-1.2344614267349243,0.9233567118644714,1.2291040420532227,3.307922124862671
-0.34258967638015747,0.6299445629119873,-1.2362024784088135,0.9245302081108093,1.2311192750930786,3.3132526874542236
-0.3426491320133209,0.6302820444107056,-1.2383098602294922,0.9260872006416321,1.2335909605026245,3.3198277950286865
-0.34269705414772034,0.6305543184280396,-1.2400259971618652,0.9273470044136047,1.2355966567993164,3.3251640796661377
-0.34275075793266296,0.630797803401947,-1.2417402267456055,0.9286182522773743,1.2375811338424683,3.3305063247680664
-0.3428063690662384,0.6310605406761169,-1.2434371709823608,0.9298914670944214,1.2394315004348755,3.3354361057281494
-0.3428734540939331,0.6313826441764832,-1.2455061674118042,0.9314695596694946,1.2419031858444214,3.3420302867889404
-0.34293100237846375,0.6316434144973755,-1.247057318687439,0.9327504634857178,1.2438685894012451,3.347381830215454
-0.34298276901245117,0.6319041848182678,-1.2487255334854126,0.9339315891265869,1.245847463607788,3.3527393341064453
-0.3430345356464386,0.6321611404418945,-1.2503937482833862,0.9352220892906189,1.2478166818618774,3.3580892086029053
-0.3431016504764557,0.6324737071990967,-1.252426266670227,0.936802089214325,1.2502096891403198,3.3646583557128906
-0.3431553244590759,0.6326999664306641,-1.2540887594223022,0.9380810260772705,1.2521770000457764,3.369992733001709
-0.34320902824401855,0.6329377293586731,-1.2557454109191895,0.9393484592437744,1.2539832592010498,3.3749072551727295
-0.3432684540748596,0.6331716775894165,-1.257262110710144,0.9406274557113647,1.2559237480163574,3.3802359104156494
-0.34334516525268555,0.6334535479545593,-1.2593004703521729,0.9422169923782349,1.2583129405975342,3.386805295944214
-0.3434084355831146,0.6336836218833923,-1.2609552145004272,0.9434211850166321,1.2602496147155762,3.392153024673462
-0.3434736430644989,0.6339098811149597,-1.2625888586044312,0.9447174072265625,1.2621690034866333,3.3975067138671875
-0.34355032444000244,0.6341898441314697,-1.2645888328552246,0.946318507194519,1.2645447254180908,3.4041008949279785
-0.34362319111824036,0.6343988180160522,-1.2662243843078613,0.9476204514503479,1.2664833068847656,3.409467935562134
-0.34369415044784546,0.6346251368522644,-1.2678313255310059,0.9489262700080872,1.2682549953460693,3.4144110679626465
-0.3437670171260834,0.6348494291305542,-1.2693077325820923,0.9502205848693848,1.2701534032821655,3.4197514057159424
-0.34385713934898376,0.6351274847984314,-1.2712846994400024,0.9518043994903564,1.272504210472107,3.4263148307800293
-0.3439338207244873,0.6353499293327332,-1.2728934288024902,0.952989399433136,1.274381399154663,3.4316530227661133
-0.3440028727054596,0.6355704069137573,-1.2744810581207275,0.9542933106422424,1.2762720584869385,3.436974048614502
-0.34408149123191833,0.6357660293579102,-1.2760342359542847,0.9556009769439697,1.27818763256073,3.4423160552978516
-0.344190776348114,0.6360191106796265,-1.2779459953308105,0.9572135806083679,1.280490517616272,3.4488682746887207
-0.3442847430706024,0.6362242698669434,-1.2795010805130005,0.9585251808166504,1.2822142839431763,3.453805685043335
-0.34438252449035645,0.6364294290542603,-1.2809219360351562,0.9598520398139954,1.2840933799743652,3.459153413772583
-0.3445033133029938,0.6366710662841797,-1.2828240394592285,0.9614895582199097,1.2863713502883911,3.4657535552978516
-0.34457236528396606,0.6368206143379211,-1.2840243577957153,0.962404191493988,1.287790298461914,3.4698684215545654
-0.3446950614452362,0.6370583772659302,-1.2859553098678589,0.9640244841575623,1.2900701761245728,3.4764702320098877
-0.34479478001594543,0.637238621711731,-1.2875103950500488,0.9653418064117432,1.2919243574142456,3.481816053390503
-0.34489256143569946,0.6374265551567078,-1.289048194885254,0.9666667580604553,1.293621301651001,3.4867422580718994
-0.34499993920326233,0.6376144289970398,-1.2904728651046753,0.9680013060569763,1.2954524755477905,3.492072820663452
-0.3451322615146637,0.6378445625305176,-1.2923635244369507,0.9696465134620667,1.2977209091186523,3.4986324310302734
-0.34520894289016724,0.6379883885383606,-1.2935330867767334,0.9705726504325867,1.2991282939910889,3.5027377605438232
-0.34534892439842224,0.6382126808166504,-1.2953892946243286,0.972217857837677,1.3013602495193481,3.509303092956543
-0.34546399116516113,0.6383814215660095,-1.296919345855713,0.973560094833374,1.3032068014144897,3.5146453380584717
-0.34557902812957764,0.6385674476623535,-1.298447608947754,0.974894642829895,1.3048980236053467,3.5195846557617188
-0.34571900963783264,0.6387937068939209,-1.3002922534942627,0.9765187501907349,1.3071184158325195,3.5261693000793457
-0.34583404660224915,0.6389720439910889,-1.3016728162765503,0.9778398871421814,1.308949589729309,3.5315210819244385
-0.34595102071762085,0.6391503810882568,-1.3031818866729736,0.9790613055229187,1.3107597827911377,3.5368764400482178
-0.34606030583381653,0.63932865858078,-1.3046774864196777,0.9804016351699829,1.3125487565994263,3.5422282218933105
-0.3462117910385132,0.6395453810691833,-1.3064991235733032,0.9820468425750732,1.314786434173584,3.5487992763519287
-0.3463326096534729,0.639702558517456,-1.3079698085784912,0.9833852052688599,1.3165907859802246,3.5541415214538574
-0.3464879095554352,0.6399134993553162,-1.3098047971725464,0.9850419163703918,1.3187940120697021,3.5607011318206787
-0.3466086983680725,0.6400880217552185,-1.3112927675247192,0.986382246017456,1.320443034172058,3.5656251907348633
-0.34673142433166504,0.6402586698532104,-1.312644600868225,0.9877225756645203,1.3222377300262451,3.57096529006958
-0.34685224294662476,0.6404293179512024,-1.314115285873413,0.9889439940452576,1.3240056037902832,3.5762999057769775
-0.34696343541145325,0.6405922770500183,-1.3155840635299683,0.9902670383453369,1.3257774114608765,3.5816457271575928
-0.3470900058746338,0.6407437920570374,-1.3170586824417114,0.9916073679924011,1.3275530338287354,3.5869953632354736
-0.34722423553466797,0.6409048438072205,-1.318517804145813,0.9929496049880981,1.3291982412338257,3.5919387340545654
-0.34740254282951355,0.6410946846008301,-1.3203068971633911,0.994615912437439,1.3313591480255127,3.598525285720825
-0.3475501835346222,0.6412461400032043,-1.3216625452041626,0.9959657788276672,1.333115577697754,3.6038827896118164
-0.3477400243282318,0.6414340734481812,-1.323462963104248,0.9976397156715393,1.3352919816970825,3.6104557514190674
-0.34788957238197327,0.6415817141532898,-1.3248991966247559,0.9988957047462463,1.3370368480682373,3.6157939434051514
-0.34802764654159546,0.6417331695556641,-1.3263276815414429,1.0002474784851074,1.338781714439392,3.6211323738098145
-0.3481771945953369,0.6418789029121399,-1.3277677297592163,1.0015897750854492,1.3405516147613525,3.626455307006836
-0.3483612835407257,0.6420630216598511,-1.329545259475708,1.0032426118850708,1.3427048921585083,3.633026361465454
-0.34851276874542236,0.6422125697135925,-1.3309699296951294,1.0045982599258423,1.3442983627319336,3.6379408836364746
-0.34867191314697266,0.6423602104187012,-1.3322871923446655,1.0059577226638794,1.3460355997085571,3.64328670501709
-0.34883490204811096,0.6425078511238098,-1.333709955215454,1.0072213411331177,1.3477708101272583,3.648634672164917
-0.34904006123542786,0.6426919102668762,-1.335470199584961,1.0088914632797241,1.3498743772506714,3.655238389968872
-0.3491953909397125,0.6428395509719849,-1.3368834257125854,1.0102605819702148,1.3516019582748413,3.660597801208496
-0.34936413168907166,0.6429756879806519,-1.3382717370986938,1.0116238594055176,1.3533238172531128,3.66595721244812
-0.3495366871356964,0.6431214213371277,-1.3396542072296143,1.0129776000976562,1.3549038171768188,3.6708927154541016
-0.34971117973327637,0.6432614326477051,-1.3409273624420166,1.0143237113952637,1.3566142320632935,3.67622709274292
-0.3499259352684021,0.6434301733970642,-1.3426434993743896,1.0159900188446045,1.3587005138397217,3.6827926635742188
-0.35010427236557007,0.643568217754364,-1.344031810760498,1.0172439813613892,1.3604012727737427,3.6881096363067627
-0.350271075963974,0.643704354763031,-1.3454238176345825,1.0186188220977783,1.3620867729187012,3.693446159362793
-0.35046282410621643,0.6438289880752563,-1.3468294143676758,1.0199898481369019,1.3637568950653076,3.6987805366516113
-0.35070252418518066,0.6440035104751587,-1.3485666513442993,1.0216714143753052,1.3658527135849,3.7053496837615967
-0.3509000241756439,0.6441434621810913,-1.3499586582183838,1.0230424404144287,1.367417335510254,3.710289239883423
-0.3510975241661072,0.6442757844924927,-1.351222276687622,1.0244096517562866,1.3690739870071411,3.715644598007202
-0.35129502415657043,0.6444100141525269,-1.3526029586791992,1.0256636142730713,1.3707537651062012,3.721004009246826
-0.3515423834323883,0.6445748805999756,-1.3543113470077515,1.0273261070251465,1.3728322982788086,3.727598190307617
-0.3517283797264099,0.6447052955627441,-1.355672836303711,1.0286779403686523,1.3744832277297974,3.732948064804077
-0.351931631565094,0.6448280215263367,-1.35702645778656,1.030041217803955,1.3761495351791382,3.7382919788360596
-0.35212719440460205,0.6449622511863708,-1.358393669128418,1.0314122438430786,1.3777046203613281,3.743216037750244
-0.3523208796977997,0.6450964212417603,-1.3596649169921875,1.0327775478363037,1.3793785572052002,3.7485408782958984
-0.35251644253730774,0.6452364325523376,-1.3610416650772095,1.0340334177017212,1.3810371160507202,3.7538771629333496
-0.35276955366134644,0.6453955769538879,-1.3627060651779175,1.0357189178466797,1.383085012435913,3.7604427337646484
-0.3529670536518097,0.6455221176147461,-1.3640598058700562,1.0370841026306152,1.3847397565841675,3.7657828330993652
-0.35318949818611145,0.6456371545791626,-1.3654154539108276,1.038437843322754,1.3863868713378906,3.771132707595825
-0.3534119129180908,0.6457617878913879,-1.3667634725570679,1.0397820472717285,1.3879016637802124,3.7760682106018066
-0.35368993878364563,0.6459152102470398,-1.3684029579162598,1.0414483547210693,1.389917016029358,3.782658576965332
-0.353920042514801,0.6460398435592651,-1.3696300983428955,1.0428059101104736,1.3915622234344482,3.7880043983459473
-0.3541463017463684,0.6461663842201233,-1.3709511756896973,1.044067621231079,1.3932015895843506,3.793365716934204
-0.35443010926246643,0.6463274359703064,-1.3725982904434204,1.045728087425232,1.3951958417892456,3.7999370098114014
-0.35463911294937134,0.6464597582817078,-1.3739463090896606,1.0470818281173706,1.3968333005905151,3.805277109146118
-0.3548634350299835,0.6465805768966675,-1.3752751350402832,1.0484298467636108,1.3984612226486206,3.8106114864349365
-0.35509738326072693,0.6467109322547913,-1.3766077756881714,1.0497643947601318,1.3999396562576294,3.81552791595459
-0.3553888201713562,0.6468701362609863,-1.3782395124435425,1.0513923168182373,1.4019204378128052,3.82210111618042
-0.35563236474990845,0.6470023989677429,-1.3794686794281006,1.0526962280273438,1.4035578966140747,3.827425956726074
-0.35587969422340393,0.6471347212791443,-1.3807859420776367,1.053908109664917,1.4051762819290161,3.8327794075012207
-0.3561078906059265,0.6472689509391785,-1.3820936679840088,1.055227279663086,1.4067715406417847,3.838127374649048
-0.3563552498817444,0.6473858952522278,-1.3834013938903809,1.0565465688705444,1.408374547958374,3.8434884548187256
-0.35660451650619507,0.6475182175636292,-1.384724497795105,1.0578638315200806,1.4098587036132812,3.848437547683716
-0.356915146112442,0.6476831436157227,-1.3863446712493896,1.0594784021377563,1.4118107557296753,3.8550221920013428
-0.3571663200855255,0.6478173732757568,-1.3875316381454468,1.060789942741394,1.4134002923965454,3.8603720664978027
-0.3574136793613434,0.6479496359825134,-1.388822078704834,1.0619959831237793,1.415001392364502,3.8657121658325195
-0.3577128052711487,0.6481202840805054,-1.3904136419296265,1.0635836124420166,1.4169725179672241,3.872271776199341
-0.3578853905200958,0.6482180953025818,-1.3914183378219604,1.0645673274993896,1.4181920289993286,3.876363754272461
-0.35819411277770996,0.6483925580978394,-1.3929983377456665,1.0661338567733765,1.4201383590698242,3.8825149536132812
-0.35844528675079346,0.6485325694084167,-1.3942887783050537,1.0674071311950684,1.4215993881225586,3.887843608856201
-0.3586888015270233,0.6486744284629822,-1.3954719305038452,1.0686841011047363,1.4231871366500854,3.893181800842285
-0.3589361608028412,0.6488221287727356,-1.3967680931091309,1.0698575973510742,1.4247690439224243,3.8985393047332764
-0.3592352867126465,0.649006187915802,-1.3983577489852905,1.0714031457901,1.4266998767852783,3.905139207839966
-0.35945773124694824,0.6491538286209106,-1.399646282196045,1.0726591348648071,1.4282914400100708,3.91049861907959
-0.35969164967536926,0.6492937803268433,-1.4009137153625488,1.0739054679870605,1.429880976676941,3.9158501625061035
-0.3599294126033783,0.6494452953338623,-1.4021697044372559,1.07514226436615,1.43132483959198,3.920787811279297
-0.3601633608341217,0.6495967507362366,-1.4033259153366089,1.076359748840332,1.4328856468200684,3.9261279106140137
-0.360454797744751,0.6497865915298462,-1.4048943519592285,1.0778439044952393,1.4348357915878296,3.932699203491211
-0.36068105697631836,0.6499380469322205,-1.406156063079834,1.0789560079574585,1.436406135559082,3.9380202293395996
-0.3608939051628113,0.6500952839851379,-1.407427430152893,1.0801602602005005,1.4379574060440063,3.943356513977051
-0.3611259162425995,0.6502448916435242,-1.408694863319397,1.0813682079315186,1.4395297765731812,3.948692798614502
-0.3613598644733429,0.6504097580909729,-1.4099891185760498,1.082562804222107,1.4409966468811035,3.9536168575286865
-0.3615861237049103,0.650578498840332,-1.4111741781234741,1.0837535858154297,1.4425650835037231,3.958961009979248
-0.3618641495704651,0.6507951617240906,-1.4127426147460938,1.0852128267288208,1.4444825649261475,3.9655473232269287
-0.36208850145339966,0.6509696841239929,-1.4139946699142456,1.0862981081008911,1.4460453987121582,3.9709067344665527
-0.36229750514030457,0.6511441469192505,-1.4152506589889526,1.0874619483947754,1.4476081132888794,3.9762604236602783
-0.36257168650627136,0.6513627767562866,-1.4168095588684082,1.0888751745224,1.4495197534561157,3.9828412532806396
-0.36278262734413147,0.6515257358551025,-1.418052077293396,1.0900026559829712,1.4510691165924072,3.9881927967071533
-0.36298778653144836,0.6516982913017273,-1.419281244277954,1.091135859489441,1.4524976015090942,3.993124485015869
-0.36323899030685425,0.6519092321395874,-1.4207998514175415,1.0925202369689941,1.4544169902801514,3.999678611755371
-0.36344224214553833,0.6520932912826538,-1.421950340270996,1.0936496257781982,1.4559682607650757,4.0050129890441895
-0.3636435568332672,0.6522812247276306,-1.4232120513916016,1.0946850776672363,1.4575003385543823,4.010339736938477
-0.363827645778656,0.6524710655212402,-1.4244372844696045,1.0957953929901123,1.4590516090393066,4.015672206878662
-0.3640769124031067,0.6527011394500732,-1.425955891609192,1.0971567630767822,1.4609652757644653,4.022268295288086
-0.36423224210739136,0.6528334617614746,-1.4269031286239624,1.0979984998703003,1.4620275497436523,4.025967121124268
-0.3644700050354004,0.6530693173408508,-1.428425669670105,1.099342703819275,1.4639161825180054,4.032553672790527
-0.364652156829834,0.6532629728317261,-1.429566502571106,1.100429892539978,1.4654923677444458,4.037916660308838
-0.36483240127563477,0.6534547209739685,-1.430795669555664,1.1014212369918823,1.467070460319519,4.043272495269775
-0.36499348282814026,0.6536445617675781,-1.4320228099822998,1.1024816036224365,1.4686217308044434,4.048627853393555
-0.365166038274765,0.6538190245628357,-1.4332365989685059,1.103540062904358,1.4701728820800781,4.0539679527282715
-0.3653673827648163,0.6540567874908447,-1.434738039970398,1.1048305034637451,1.4721057415008545,4.060115337371826
-0.3655303716659546,0.654258131980896,-1.4359824657440186,1.105879306793213,1.4735419750213623,4.065430641174316
-0.3656952679157257,0.6544690728187561,-1.4371118545532227,1.1069204807281494,1.475074052810669,4.070766925811768
-0.365854412317276,0.6546838283538818,-1.4383313655853271,1.10786771774292,1.4766156673431396,4.076091766357422
-0.36604616045951843,0.6549522876739502,-1.4398269653320312,1.109114170074463,1.4785234928131104,4.082666873931885
-0.36618998646736145,0.6551727652549744,-1.4410426616668701,1.1101323366165161,1.4800690412521362,4.088024139404297
-0.3663433790206909,0.6553779244422913,-1.4422717094421387,1.111142873764038,1.4816068410873413,4.092973232269287
-0.3665293753147125,0.6556559801101685,-1.443771243095398,1.1123661994934082,1.4834821224212646,4.099985599517822
-0.366682767868042,0.655880331993103,-1.4449715614318848,1.113345980644226,1.4848991632461548,4.104928970336914
-0.36683040857315063,0.6561065912246704,-1.4460855722427368,1.1143066883087158,1.486435055732727,4.1102824211120605
-0.36697229743003845,0.6563405394554138,-1.4473109245300293,1.1151849031448364,1.4879555702209473,4.115618705749512
-0.367098867893219,0.6565898060798645,-1.4485323429107666,1.1161340475082397,1.4894781112670898,4.1209492683410645
-0.3672330975532532,0.6568198800086975,-1.4497288465499878,1.1170812845230103,1.4910178184509277,4.125861644744873
-0.36738839745521545,0.657128632068634,-1.4511746168136597,1.118241310119629,1.4929141998291016,4.1328301429748535
-0.3675130307674408,0.6573798060417175,-1.45236337184906,1.119176983833313,1.49430251121521,4.137753963470459
-0.3676338493824005,0.6576347947120667,-1.4534775018692017,1.1201032400131226,1.495815396308899,4.143095970153809
-0.367745041847229,0.6578860282897949,-1.4546759128570557,1.120941162109375,1.4973512887954712,4.148446083068848
-0.36787542700767517,0.6581947207450867,-1.4561235904693604,1.122055172920227,1.4992246627807617,4.155028343200684
-0.3679713010787964,0.6584420800209045,-1.4573066234588623,1.1229544878005981,1.5007297992706299,4.160393714904785
-0.3680710196495056,0.6586741209030151,-1.4585012197494507,1.1238460540771484,1.5022542476654053,4.1653313636779785
-0.36817455291748047,0.6589233875274658,-1.4596939086914062,1.1247280836105347,1.503675103187561,4.170684814453125
-0.3682991862297058,0.659237802028656,-1.461156964302063,1.1257961988449097,1.5055484771728516,4.177261829376221
-0.36839890480041504,0.6594909429550171,-1.462251901626587,1.1266533136367798,1.5070613622665405,4.1826019287109375
-0.36849862337112427,0.6597478985786438,-1.4634253978729248,1.1274317502975464,1.5085818767547607,4.187928676605225
-0.36858105659484863,0.660010576248169,-1.464589238166809,1.1282696723937988,1.5101044178009033,4.19326114654541
-0.3686673641204834,0.6602598428726196,-1.4657589197158813,1.1291134357452393,1.511621117591858,4.198183059692383
-0.36874979734420776,0.6605302095413208,-1.4669419527053833,1.1299551725387573,1.513013243675232,4.203516006469727
-0.3688322603702545,0.6608043909072876,-1.4680311679840088,1.130791187286377,1.5145221948623657,4.208861827850342
-0.36892813444137573,0.6611457467079163,-1.469482660293579,1.131817102432251,1.5163936614990234,4.2154541015625
-0.36900484561920166,0.6614218354225159,-1.4706618785858154,1.1325763463974,1.5179181098937988,4.220803737640381
-0.3690757751464844,0.6617056131362915,-1.4718430042266846,1.1333893537521362,1.5194233655929565,4.226168632507324
-0.3691486418247223,0.6619702577590942,-1.4730356931686401,1.1341909170150757,1.5209189653396606,4.231119632720947
-0.3692387640476227,0.6623307466506958,-1.4744949340820312,1.13518226146698,1.5227750539779663,4.237692832946777
-0.3693173825740814,0.6626260280609131,-1.475670337677002,1.1359779834747314,1.5241729021072388,4.2430291175842285
-0.36939215660095215,0.6629270315170288,-1.4767383337020874,1.1367679834365845,1.5256627798080444,4.248359680175781
-0.3694554269313812,0.6632280945777893,-1.4779003858566284,1.1374870538711548,1.5271602869033813,4.253673076629639
-0.36953213810920715,0.6636096835136414,-1.4793461561203003,1.1384323835372925,1.5290414094924927,4.260242462158203
-0.3695858120918274,0.6639202833175659,-1.4805139303207397,1.1391916275024414,1.530550479888916,4.265578746795654
-0.36963951587677,0.6641983389854431,-1.4816547632217407,1.1399413347244263,1.5320403575897217,4.270516395568848
-0.36968743801116943,0.6644898056983948,-1.4827957153320312,1.140687346458435,1.5334285497665405,4.275862216949463
-0.3697526454925537,0.6648464202880859,-1.484226107597351,1.1416038274765015,1.5352942943572998,4.282456398010254
-0.3697948455810547,0.6650746464729309,-1.4850467443466187,1.142115831375122,1.5364389419555664,4.286571025848389
-0.36985811591148376,0.6654446721076965,-1.486494541168213,1.1430208683013916,1.5382682085037231,4.293175220489502
-0.36990413069725037,0.6657495498657227,-1.4876391887664795,1.1437532901763916,1.539771556854248,4.29852294921875
-0.3699520528316498,0.6660372018814087,-1.488791584968567,1.1444780826568604,1.541274905204773,4.303452491760254
-0.36999616026878357,0.6663516759872437,-1.4899420738220215,1.1452009677886963,1.5426592826843262,4.308779239654541
-0.3700498640537262,0.6667428612709045,-1.4913572072982788,1.14606773853302,1.5444923639297485,4.3153276443481445
-0.37008628249168396,0.667070746421814,-1.4924099445343018,1.146757960319519,1.5459727048873901,4.320654392242432
-0.3701150417327881,0.6673928499221802,-1.49354887008667,1.1473946571350098,1.547454833984375,4.325986862182617
-0.3701418936252594,0.6677150130271912,-1.4946860074996948,1.1480810642242432,1.5489486455917358,4.331325054168701
-0.37017831206321716,0.6681138277053833,-1.496070384979248,1.1489075422286987,1.5507625341415405,4.337886810302734
-0.3702051639556885,0.6684187054634094,-1.4972054958343506,1.149569034576416,1.5522370338439941,4.342804908752441
-0.3702358603477478,0.6688290238380432,-1.4986339807510376,1.150368571281433,1.5540778636932373,4.349362850189209
-0.3702569305896759,0.6691665053367615,-1.4997903108596802,1.151012897491455,1.5554699897766113,4.354693412780762
-0.3702741861343384,0.6695020794868469,-1.5008429288864136,1.1516399383544922,1.556944489479065,4.360016345977783
-0.37028762698173523,0.6698395609855652,-1.5019800662994385,1.1522094011306763,1.5584170818328857,4.365322113037109
-0.3702991306781769,0.6701846718788147,-1.5031189918518066,1.1528191566467285,1.559910774230957,4.370614051818848
-0.37031063437461853,0.6706161499023438,-1.504543662071228,1.153572678565979,1.5617496967315674,4.37711238861084
-0.37031829357147217,0.6709421277046204,-1.5056922435760498,1.1541805267333984,1.5632165670394897,4.381992340087891
-0.3703221380710602,0.6712891459465027,-1.5068312883377075,1.1547902822494507,1.5645817518234253,4.387275218963623
-0.370324045419693,0.671634316444397,-1.5078705549240112,1.1553905010223389,1.566087007522583,4.392549991607666
-0.3703259825706482,0.6719794869422913,-1.5090075731277466,1.1559388637542725,1.5675787925720215,4.397836685180664
-0.3703259825706482,0.6723265051841736,-1.5101637840270996,1.156529426574707,1.569059133529663,4.4031171798706055
-0.370327889919281,0.6727617979049683,-1.511578917503357,1.1572465896606445,1.5708787441253662,4.409613609313965
-0.370327889919281,0.6730896830558777,-1.5126948356628418,1.1578295230865479,1.5723609924316406,4.41448974609375
-0.370327889919281,0.6734482645988464,-1.5137993097305298,1.1583970785140991,1.5737223625183105,4.419776439666748
-0.370327889919281,0.6738106608390808,-1.5148366689682007,1.1589627265930176,1.5751911401748657,4.425037860870361
-0.370327889919281,0.6741787791252136,-1.5159738063812256,1.1594728231430054,1.576658010482788,4.430284023284912
-0.370327889919281,0.6746293902397156,-1.5173697471618652,1.160140037536621,1.5784720182418823,4.436721324920654
-0.370327889919281,0.6749975681304932,-1.5184780359268188,1.1606866121292114,1.5799522399902344,4.441930770874023
-0.370327889919281,0.675338864326477,-1.5195863246917725,1.1612157821655273,1.5814306735992432,4.446755409240723
-0.370327889919281,0.6757166385650635,-1.5207157135009766,1.1617354154586792,1.5827728509902954,4.451974868774414
-0.370327889919281,0.6761921644210815,-1.5220943689346313,1.1623624563217163,1.5845733880996704,4.458398342132568
