Der-mark/objtrans/data/qpos_trajectory.csv
q0,q1,q2,q3,q4,q5
0.0,0.0,0.0,0.0,0.0,0.0
-1.917476083690417e-06,-5.7524280236975756e-06,1.917476083690417e-06,-7.669904334761668e-06,-7.669904334761668e-06,1.917476083690417e-06
-1.917476083690417e-06,-3.834952167380834e-06,1.917476083690417e-06,-7.669904334761668e-06,-7.669904334761668e-06,1.917476083690417e-06
-1.917476083690417e-06,-1.917476083690417e-06,1.917476083690417e-06,-7.669904334761668e-06,-7.669904334761668e-06,1.917476083690417e-06
6.135923467809334e-05,9.395632514497265e-05,-5.5606804380659014e-05,-1.3422331903711893e-05,-2.109223532897886e-05,1.917476083690417e-06
0.00013614079216495156,0.00016298545233439654,-0.00013230583863332868,-6.90291344653815e-05,-4.6019424189580604e-05,3.834952167380834e-06
0.0002722815843299031,0.0002703641075640917,-0.00026077672373503447,-0.00023584954033140093,-0.0001917476038215682,7.669904334761668e-06
0.0004352670512162149,0.00039883499266579747,-0.00040266994619742036,-0.00038733016117475927,-0.0003585680096875876,9.58738019107841e-06
0.0006691991002298892,0.0006059224251657724,-0.0006250971928238869,-0.0006078399019315839,-0.0005905826110392809,9.58738019107841e-06
0.0010373544646427035,0.0009568204986862838,-0.0009913351386785507,-0.0009529855451546609,-0.0009510680683888495,9.58738019107841e-06
0.0013920875499024987,0.0013077185722067952,-0.001349903061054647,-0.0012885438045486808,-0.0013019661419093609,-1.7257283616345376e-05
0.0018177672754973173,0.0017276458675041795,-0.0017736653098836541,-0.0016931312857195735,-0.001708471099846065,-0.00020133497309871018
0.0022108498960733414,0.0021207283716648817,-0.002174417721107602,-0.0020766265224665403,-0.002091966336593032,-0.0005407282151281834
0.0027880100533366203,0.002692136215046048,-0.0027534954715520144,-0.0026288595981895924,-0.0026384468656033278,-0.0010239321272820234
0.006661311723291874,0.006578859873116016,-0.00657694274559617,-0.006285486277192831,-0.006356433033943176,-0.004111068323254585
0.007190534844994545,0.007100413553416729,-0.007159855216741562,-0.006851141806691885,-0.0068779862485826015,-0.004557840526103973
0.00797094777226448,0.007871238514780998,-0.007880826480686665,-0.00760662741959095,-0.007652646861970425,-0.005150340497493744
0.008791627362370491,0.008666991256177425,-0.00868424866348505,-0.008404296822845936,-0.008446482010185719,-0.005754345562309027
0.009834734722971916,0.009700510650873184,-0.009721603244543076,-0.009433981962502003,-0.009447404183447361,-0.006530923303216696
0.010707185603678226,0.010578715242445469,-0.010580632835626602,-0.01022398192435503,-0.010268083773553371,-0.007136845495551825
0.011587307788431644,0.011479929089546204,-0.011453083716332912,-0.011086845770478249,-0.011123278178274632,-0.007794539909809828
0.012421409599483013,0.012329370714724064,-0.01236196793615818,-0.011984225362539291,-0.011955462396144867,-0.008431142196059227
0.013604491949081421,0.01344534195959568,-0.013550803065299988,-0.013151967898011208,-0.013146215118467808,-0.009161700494587421
0.014639928936958313,0.014340803027153015,-0.01452296320348978,-0.014175900258123875,-0.014173982664942741,-0.00970434583723545
0.015752065926790237,0.015220924280583858,-0.015652356669306755,-0.015272696502506733,-0.015259274281561375,-0.010212477296590805
0.01693514734506607,0.016099128872156143,-0.016837356612086296,-0.016338812187314034,-0.016390584409236908,-0.010670754127204418
0.018193012103438377,0.016998425126075745,-0.018083715811371803,-0.017544904723763466,-0.017602428793907166,-0.011175050400197506
0.01983053609728813,0.018125900998711586,-0.019698230549693108,-0.019117236137390137,-0.019213110208511353,-0.01182123925536871
0.021134421229362488,0.01898684725165367,-0.021080730482935905,-0.020474808290600777,-0.020478643476963043,-0.012371554970741272
0.022977115586400032,0.020181434229016304,-0.022908085957169533,-0.022265730425715446,-0.02225039154291153,-0.013058011420071125
0.024522600695490837,0.021203448995947838,-0.024323182180523872,-0.023793959990143776,-0.023759445175528526,-0.013619831763207912
0.026131363585591316,0.02228298783302307,-0.025918522849678993,-0.02538738213479519,-0.02534136176109314,-0.014175900258123875
0.027822576463222504,0.023444978520274162,-0.027615489438176155,-0.02692519687116146,-0.026996145024895668,-0.014647599309682846
0.029586654156446457,0.024664493277668953,-0.029381483793258667,-0.02865859679877758,-0.028733378276228905,-0.015117380768060684
0.03185119479894638,0.026200391352176666,-0.03164985775947571,-0.03086944669485092,-0.030955731868743896,-0.015654273331165314
0.03362102434039116,0.027366217225790024,-0.03356349840760231,-0.03273898363113403,-0.03271022439002991,-0.016062695533037186
0.03562478721141815,0.028643256053328514,-0.03538510203361511,-0.03468905761837959,-0.034675635397434235,-0.016440439969301224
0.03768990933895111,0.02996056154370308,-0.037425294518470764,-0.0367196649312973,-0.036692820489406586,-0.016800925135612488
0.04031301662325859,0.03160383924841881,-0.04005415737628937,-0.03931784629821777,-0.03928716480731964,-0.017251530662178993
0.04251427575945854,0.032976750284433365,-0.04225350171327591,-0.041329275816679,-0.04146541655063629,-0.01759476028382778
0.04530612379312515,0.03471206873655319,-0.04504726454615593,-0.04406359791755676,-0.04421891272068024,-0.018056871369481087
0.04822835698723793,0.03654900938272476,-0.04795223847031593,-0.04690529778599739,-0.04708745703101158,-0.01852281764149666
0.05068080872297287,0.038106001913547516,-0.05037209391593933,-0.04930214211344719,-0.04947663098573685,-0.018890973180532455
0.053752604871988297,0.04007716476917267,-0.053445808589458466,-0.05233559012413025,-0.0525081641972065,-0.019335828721523285
0.05609576031565666,0.04159964248538017,-0.05599605292081833,-0.05485707148909569,-0.054826389998197556,-0.019688643515110016
0.05929410830140114,0.043683938682079315,-0.05918864905834198,-0.058009400963783264,-0.05798830837011337,-0.020110487937927246
0.07133394479751587,0.05162612348794937,-0.07111726701259613,-0.07005882263183594,-0.07003197818994522,-0.02156776934862137
0.07416413724422455,0.05347265303134918,-0.07398580759763718,-0.0726780891418457,-0.07287367433309555,-0.021857308223843575
0.07699432969093323,0.055351778864860535,-0.07687928527593613,-0.07554855197668076,-0.07573454827070236,-0.022166023030877113
0.07958675920963287,0.05709284916520119,-0.07983411103487015,-0.07845928519964218,-0.07842285186052322,-0.02247665263712406
0.08300178498029709,0.05943600460886955,-0.0835099145770073,-0.0820833146572113,-0.08204688131809235,-0.0228543970733881
0.08637270331382751,0.061863526701927185,-0.08724707365036011,-0.08579938113689423,-0.08575528115034103,-0.02323022112250328
0.08903416246175766,0.06386537104845047,-0.09009260684251785,-0.08888651430606842,-0.08882515877485275,-0.02352743037045002
0.09222868084907532,0.06637726724147797,-0.09393522888422012,-0.09276173263788223,-0.09269270300865173,-0.023874493315815926
0.09475591033697128,0.06844814121723175,-0.09706071764230728,-0.0959600880742073,-0.09590831398963928,-0.024139104411005974
0.09782195836305618,0.07099646329879761,-0.10087457299232483,-0.09999445825815201,-0.09994076937437057,-0.024443984031677246
0.10082472115755081,0.07354095578193665,-0.10470377653837204,-0.10413045436143875,-0.10406525433063507,-0.02473543956875801
0.10320814698934555,0.07559265941381454,-0.10779283195734024,-0.10728278011083603,-0.10747836530208588,-0.0249521154910326
0.10608627647161484,0.07808729261159897,-0.11158176511526108,-0.11157984286546707,-0.11171982437372208,-0.02525891177356243
0.10891839116811752,0.08061835914850235,-0.115297831594944,-0.11596895009279251,-0.11597470194101334,-0.025598304346203804
0.11170639842748642,0.08320887386798859,-0.11895254254341125,-0.12043283134698868,-0.12019698321819305,-0.025983717292547226
0.11442729830741882,0.08584156632423401,-0.12254013866186142,-0.12498875707387924,-0.12441351264715195,-0.026405561715364456
0.1170714944601059,0.08851069211959839,-0.12605486810207367,-0.12962521612644196,-0.12863004207611084,-0.026852333918213844
0.11965049803256989,0.09114530682563782,-0.12955617904663086,-0.13432303071022034,-0.13286766409873962,-0.027297187596559525
0.12221033126115799,0.093768410384655,-0.1330229789018631,-0.1391301453113556,-0.13712254166603088,-0.027730537578463554
0.12473564594984055,0.09630906581878662,-0.1364840269088745,-0.14401203393936157,-0.1414138525724411,-0.028165804222226143
0.1271919310092926,0.09882862865924835,-0.13989904522895813,-0.14895528554916382,-0.14572051167488098,-0.02860107086598873
0.1295906901359558,0.10133860260248184,-0.14332365989685059,-0.1539541482925415,-0.150013729929924,-0.029055513441562653
0.13192042708396912,0.10384858399629593,-0.14666198194026947,-0.1589530110359192,-0.1543012112379074,-0.02953871712088585
0.13464899361133575,0.10684943199157715,-0.15053528547286987,-0.16523082554340363,-0.15936718881130219,-0.030194494873285294
0.13686752319335938,0.10932489484548569,-0.15373171865940094,-0.1702277660369873,-0.16357603669166565,-0.030796581879258156
0.13902851939201355,0.1117926836013794,-0.15684378147125244,-0.17517676949501038,-0.16777914762496948,-0.03143318369984627
0.14118951559066772,0.11424321681261063,-0.15986381471157074,-0.1800701767206192,-0.17198225855827332,-0.03211196884512901
0.1437627673149109,0.1170734167098999,-0.16333059966564178,-0.18579383194446564,-0.1769312620162964,-0.032976750284433365
0.14591801166534424,0.11941082030534744,-0.16620489954948425,-0.19055300951004028,-0.18106533586978912,-0.033772505819797516
0.1524796038866043,0.126595601439476,-0.17496009171009064,-0.20524662733078003,-0.19387216866016388,-0.036637213081121445
0.15405385196208954,0.1284172087907791,-0.1768660694360733,-0.20887449383735657,-0.19706283509731293,-0.037434883415699005
0.15560126304626465,0.13026756048202515,-0.1789139360189438,-0.21249276399612427,-0.20020174980163574,-0.038290079683065414
0.15744970738887787,0.13257236778736115,-0.18137788772583008,-0.2168799489736557,-0.20403479039669037,-0.03943481296300888
0.15896259248256683,0.13446299731731415,-0.1833202987909317,-0.22011665999889374,-0.20709507167339325,-0.0403379425406456
0.16084939241409302,0.13681574165821075,-0.1856672763824463,-0.22437536716461182,-0.2108667492866516,-0.04154978692531586
0.16272851824760437,0.13912630081176758,-0.1880219429731369,-0.22855354845523834,-0.2146441787481308,-0.04274437576532364
0.1649029403924942,0.14179351925849915,-0.19084255397319794,-0.2336367815732956,-0.2191655933856964,-0.04430520161986351
0.16670535504817963,0.14400435984134674,-0.1932336390018463,-0.23763471841812134,-0.22300246357917786,-0.0456167533993721
0.1684982031583786,0.14616920053958893,-0.19559597969055176,-0.24156554043293,-0.22682973742485046,-0.04692639037966728
0.1702718734741211,0.14830142259597778,-0.1979333758354187,-0.2454177439212799,-0.2306436002254486,-0.04825520142912865
0.17206278443336487,0.1504470854997635,-0.20019982755184174,-0.24921627342700958,-0.23443253338336945,-0.04965687543153763
0.17418734729290009,0.15296857059001923,-0.2027999311685562,-0.25361305475234985,-0.23881779611110687,-0.05144587904214859
0.17592458426952362,0.15506628155708313,-0.20490916073322296,-0.2572159767150879,-0.24243608117103577,-0.0530162937939167
0.1776234656572342,0.15711607038974762,-0.20693975687026978,-0.26073071360588074,-0.2459949105978012,-0.05469216778874397
0.17927250266075134,0.15911215543746948,-0.20889750123023987,-0.264199435710907,-0.2494981437921524,-0.05644857510924339
0.18089276552200317,0.16104306280612946,-0.21083799004554749,-0.2675626873970032,-0.2529342472553253,-0.05827401205897331
0.18280640244483948,0.1632423996925354,-0.21319840848445892,-0.2714206576347351,-0.25691109895706177,-0.06059416010975838
0.1844266802072525,0.16501222550868988,-0.21502192318439484,-0.2745998203754425,-0.26020532846450806,-0.0626036748290062
0.18602968752384186,0.16671495139598846,-0.21682818233966827,-0.27770230174064636,-0.26340943574905396,-0.06468796730041504
0.1876058429479599,0.16839849948883057,-0.21858075261116028,-0.2807280719280243,-0.26656174659729004,-0.0668930634856224
0.189151331782341,0.170066699385643,-0.22023554146289825,-0.2836541533470154,-0.2696143686771393,-0.06911542266607285
0.1906508058309555,0.17176365852355957,-0.22182512283325195,-0.2864958345890045,-0.2725960612297058,-0.07149117439985275
0.1920984983444214,0.1734759658575058,-0.22338978946208954,-0.2892589271068573,-0.2754703462123871,-0.07392828911542892
0.19377629458904266,0.17565231025218964,-0.2252267301082611,-0.2924189269542694,-0.2790004312992096,-0.07692913711071014
0.1951875537633896,0.1773492693901062,-0.22678755223751068,-0.2949806749820709,-0.28175774216651917,-0.07955032587051392
0.19635720551013947,0.17860905826091766,-0.22807610034942627,-0.29699403047561646,-0.283801794052124,-0.0817362517118454
0.2012506127357483,0.18437106907367706,-0.23327821493148804,-0.30489403009414673,-0.2927889823913574,-0.09136389940977097
0.2022649496793747,0.18572480976581573,-0.23447854816913605,-0.306667685508728,-0.29479852318763733,-0.09380675852298737
0.20359951257705688,0.1874198615550995,-0.2359434962272644,-0.3088095188140869,-0.29726630449295044,-0.09684403985738754
0.20467522740364075,0.18867963552474976,-0.23710548877716064,-0.31051990389823914,-0.2990553081035614,-0.09936743974685669
0.20600786805152893,0.19032099843025208,-0.23850524425506592,-0.31257927417755127,-0.30140039324760437,-0.10248717665672302
0.2073577642440796,0.1918933242559433,-0.23988008499145508,-0.3145638406276703,-0.3036898374557495,-0.10568360984325409
0.2090183049440384,0.19382613897323608,-0.24146008491516113,-0.3168264627456665,-0.3064280152320862,-0.10960868000984192
0.21043148636817932,0.19532176852226257,-0.2427428662776947,-0.3186672627925873,-0.30856597423553467,-0.11295276135206223
0.21219363808631897,0.19705325365066528,-0.24420015513896942,-0.32076114416122437,-0.31104913353919983,-0.11699863523244858
0.2137947380542755,0.19882307946681976,-0.24557115137577057,-0.3228645920753479,-0.31340184807777405,-0.1213819831609726
0.2150813639163971,0.2003513127565384,-0.2466641068458557,-0.32446762919425964,-0.3153020739555359,-0.12501560151576996
0.21656548976898193,0.2021268904209137,-0.24794307351112366,-0.3262489438056946,-0.31748226284980774,-0.12939319014549255
0.2180342823266983,0.20386412739753723,-0.24923928081989288,-0.3279325067996979,-0.3195914626121521,-0.1338743418455124
0.2195279896259308,0.20566655695438385,-0.2504166066646576,-0.32951250672340393,-0.32179081439971924,-0.1384609341621399
0.22115209698677063,0.2073155790567398,-0.2515709400177002,-0.33098703622817993,-0.3238137662410736,-0.1431453377008438
0.22275318205356598,0.20889942348003387,-0.2527290880680084,-0.3324117064476013,-0.32578301429748535,-0.14820171892642975
0.22437921166419983,0.21046216785907745,-0.2538814842700958,-0.33366191387176514,-0.32774651050567627,-0.1531027853488922
0.22597262263298035,0.2120632529258728,-0.25503963232040405,-0.33482006192207336,-0.3296352028846741,-0.15811122953891754
0.22749893367290497,0.21379856765270233,-0.2560367286205292,-0.3358689248561859,-0.3315162658691406,-0.16324622929096222
0.22906935214996338,0.21546486020088196,-0.25697246193885803,-0.3368065655231476,-0.333255410194397,-0.1684732735157013
0.23033680021762848,0.21684928238391876,-0.2577682137489319,-0.33751603960990906,-0.33468008041381836,-0.17296016216278076
0.2318650335073471,0.21848872303962708,-0.2587423026561737,-0.3383117914199829,-0.3363310396671295,-0.1786167174577713
0.23344311118125916,0.22006680071353912,-0.25974130630493164,-0.3389599025249481,-0.33797815442085266,-0.18408727645874023
0.23507104814052582,0.22159118950366974,-0.260788232088089,-0.33950063586235046,-0.3396214246749878,-0.18963837623596191
0.23668555915355682,0.22320571541786194,-0.2617335617542267,-0.3399416506290436,-0.3413088023662567,-0.19529300928115845
0.23832117021083832,0.22481447458267212,-0.2626098394393921,-0.3402867913246155,-0.342852383852005,-0.2010454386472702
0.24275246262550354,0.22976155579090118,-0.2650776207447052,-0.3407719135284424,-0.3472031354904175,-0.21911956369876862
0.24399882555007935,0.23116515576839447,-0.2657640874385834,-0.34081411361694336,-0.3483785390853882,-0.22421813011169434
0.24550595879554749,0.23288704454898834,-0.2665790021419525,-0.340821772813797,-0.34982049465179443,-0.23029270768165588
0.24718374013900757,0.23446129262447357,-0.26741695404052734,-0.340821772813797,-0.3512183129787445,-0.2364727258682251
0.2485528290271759,0.23574791848659515,-0.2681417465209961,-0.34072399139404297,-0.35242632031440735,-0.24173811078071594
0.24990272521972656,0.23700770735740662,-0.2688397169113159,-0.3404996395111084,-0.3536170721054077,-0.24708211421966553
0.25119125843048096,0.23821954429149628,-0.2694839835166931,-0.3401813209056854,-0.35473498702049255,-0.25250282883644104
0.25241655111312866,0.23938921093940735,-0.2700803279876709,-0.3397863209247589,-0.35579341650009155,-0.25798487663269043
0.25379711389541626,0.24067391455173492,-0.27073419094085693,-0.3392091691493988,-0.3570071756839752,-0.2649414837360382
0.25497254729270935,0.24174195528030396,-0.2712289094924927,-0.3386607766151428,-0.35798701643943787,-0.2705654501914978
0.2561843693256378,0.24283108115196228,-0.2716660797595978,-0.3380375802516937,-0.35890355706214905,-0.2763006091117859
0.25768959522247314,0.24416179955005646,-0.2721090316772461,-0.33721306920051575,-0.35989105701446533,-0.2831728458404541
0.25930410623550415,0.24551938474178314,-0.27249443531036377,-0.3363041877746582,-0.3607654273509979,-0.2901543974876404
0.2609493136405945,0.24691146612167358,-0.27283191680908203,-0.33527258038520813,-0.3616110384464264,-0.2972509562969208
0.2626194357872009,0.24817699193954468,-0.2731924057006836,-0.3341412842273712,-0.36238762736320496,-0.30443957448005676
0.2641323208808899,0.24940802156925201,-0.2735893130302429,-0.3328489065170288,-0.36314693093299866,-0.31213632225990295
0.26562410593032837,0.2506026029586792,-0.2739977240562439,-0.3315335214138031,-0.36388325691223145,-0.31950902938842773
0.26711592078208923,0.25177034735679626,-0.27442148327827454,-0.33011266589164734,-0.3645639419555664,-0.32700443267822266
0.2686249613761902,0.25299179553985596,-0.27481842041015625,-0.3285844326019287,-0.36520054936408997,-0.33458420634269714
0.27027207612991333,0.25418445467948914,-0.2751769721508026,-0.3269411623477936,-0.36572402715682983,-0.3422253727912903
0.27163732051849365,0.25521987676620483,-0.27544543147087097,-0.32550114393234253,-0.3661075234413147,-0.34869876503944397
0.2735643684864044,0.25658896565437317,-0.2757963240146637,-0.323343962430954,-0.3665945529937744,-0.35802918672561646
0.2749622166156769,0.25750935077667236,-0.27606669068336487,-0.3217850625514984,-0.36694738268852234,-0.3645581901073456
0.2765997350215912,0.25854671001434326,-0.2764156758785248,-0.31990402936935425,-0.36735963821411133,-0.37231630086898804
0.28133782744407654,0.26158782839775085,-0.2772996127605438,-0.31432992219924927,-0.36828193068504333,-0.3960719108581543
0.28258803486824036,0.26244300603866577,-0.2775048017501831,-0.3128093481063843,-0.36845067143440247,-0.40265271067619324
0.2838439643383026,0.2633097171783447,-0.2776888608932495,-0.31128689646720886,-0.36858874559402466,-0.4092181324958801
0.285136342048645,0.2641974985599518,-0.2778441905975342,-0.3097299039363861,-0.3686922788619995,-0.41579699516296387
0.28673169016838074,0.26524636149406433,-0.27797457575798035,-0.3078162670135498,-0.36879390478134155,-0.42360877990722656
0.2883346974849701,0.2662530541419983,-0.27811071276664734,-0.30583932995796204,-0.36891087889671326,-0.4314109981060028
0.28989553451538086,0.2672194540500641,-0.2782852053642273,-0.30377230048179626,-0.369083434343338,-0.4392285645008087
0.291500449180603,0.26811107993125916,-0.2784712016582489,-0.3016324043273926,-0.3692713677883148,-0.4470096826553345
0.2930344343185425,0.2689988613128662,-0.2786284387111664,-0.29932183027267456,-0.3694439232349396,-0.455239474773407
0.2945875823497772,0.26990392804145813,-0.27873772382736206,-0.2971205711364746,-0.3695839047431946,-0.46304744482040405
0.2964302897453308,0.2709815502166748,-0.27883169054985046,-0.29454922676086426,-0.3697008788585663,-0.4720883369445801
0.2978146970272064,0.2717120945453644,-0.27887386083602905,-0.2926701009273529,-0.3697468936443329,-0.4786671996116638
0.2995806932449341,0.27253854274749756,-0.27892372012138367,-0.2903921604156494,-0.3697775602340698,-0.48648667335510254
0.3012278079986572,0.2733131945133209,-0.2789812386035919,-0.28790709376335144,-0.36978140473365784,-0.49469730257987976
0.3028384745121002,0.27403607964515686,-0.2790291905403137,-0.28551793098449707,-0.36978140473365784,-0.5025206208229065
0.30418071150779724,0.2746439278125763,-0.2790464460849762,-0.28350648283958435,-0.3697296380996704,-0.5090783834457397
0.3057607114315033,0.27537447214126587,-0.2790464460849762,-0.28113457560539246,-0.369503378868103,-0.5168901681900024
0.3073829114437103,0.2761376202106476,-0.2790464460849762,-0.2787741720676422,-0.36916014552116394,-0.5246962308883667
0.30914315581321716,0.2768355906009674,-0.2789831757545471,-0.2763773202896118,-0.36879581212997437,-0.5325137376785278
0.31082284450531006,0.2775316536426544,-0.2788796126842499,-0.2738328278064728,-0.3683931529521942,-0.5407378077507019
0.31247955560684204,0.27818548679351807,-0.27878183126449585,-0.2713439464569092,-0.36803075671195984,-0.548545777797699
0.31409791111946106,0.2787511646747589,-0.2786974608898163,-0.26877835392951965,-0.36771437525749207,-0.5563518404960632
0.3156990110874176,0.2792516052722931,-0.2786034941673279,-0.2661456763744354,-0.3674267530441284,-0.5641751289367676
0.3174208998680115,0.2796734571456909,-0.2784731090068817,-0.2634439468383789,-0.36715829372406006,-0.5719658136367798
0.32336315512657166,0.2810981571674347,-0.27763327956199646,-0.2543129324913025,-0.36604616045951843,-0.5982678532600403
0.32492589950561523,0.281491219997406,-0.2773437201976776,-0.25208672881126404,-0.36570867896080017,-0.6048486232757568
0.3264579474925995,0.2819092273712158,-0.2770369350910187,-0.2498624622821808,-0.36533287167549133,-0.6114293932914734
0.3282527029514313,0.282417356967926,-0.2766783535480499,-0.24710704386234283,-0.3648439049720764,-0.6196476817131042
0.3300110399723053,0.28291016817092896,-0.27635622024536133,-0.24448010325431824,-0.3643108606338501,-0.6274690628051758
0.3317693769931793,0.2833837866783142,-0.2760474979877472,-0.2418684959411621,-0.3637394309043884,-0.6352540254592896
0.33318445086479187,0.2837519347667694,-0.2758384943008423,-0.23964039981365204,-0.3632677495479584,-0.6418424844741821
0.334831565618515,0.2841852903366089,-0.27562567591667175,-0.23691758513450623,-0.3626944124698639,-0.6496485471725464
0.3367912471294403,0.2846071124076843,-0.27538982033729553,-0.2334987223148346,-0.3620789051055908,-0.6591131687164307
0.3384038209915161,0.28493502736091614,-0.2751578092575073,-0.23062634468078613,-0.361563116312027,-0.6669173240661621
0.34005287289619446,0.2852648198604584,-0.27486249804496765,-0.2277577966451645,-0.36103004217147827,-0.674727201461792
0.34175366163253784,0.2856674790382385,-0.27455955743789673,-0.2248777449131012,-0.360420286655426,-0.6825332641601562
0.3435925245285034,0.28613534569740295,-0.27426809072494507,-0.22203029692173004,-0.35975685715675354,-0.6903584599494934
0.3453374207019806,0.2866319715976715,-0.2740188241004944,-0.21903711557388306,-0.3590512275695801,-0.6985576152801514
0.347042053937912,0.2870921790599823,-0.2738385796546936,-0.21619541943073273,-0.35835516452789307,-0.7063751220703125
0.34869301319122314,0.2874871790409088,-0.2737235426902771,-0.21330003440380096,-0.35768023133277893,-0.71418696641922
0.350313276052475,0.287855327129364,-0.27364298701286316,-0.21036437153816223,-0.3569822609424591,-0.7219948768615723
0.3520044982433319,0.28816595673561096,-0.2735432982444763,-0.2073826938867569,-0.35634565353393555,-0.7298047542572021
0.3536401093006134,0.28843823075294495,-0.2733956575393677,-0.20423229038715363,-0.3557416498661041,-0.738030731678009
0.35533514618873596,0.2886779308319092,-0.2731981575489044,-0.20119307935237885,-0.3552066683769226,-0.7458348870277405
0.357089638710022,0.28887927532196045,-0.2729335427284241,-0.19808101654052734,-0.35473498702049255,-0.7536543607711792
0.35886523127555847,0.28910553455352783,-0.272684246301651,-0.19494211673736572,-0.3542632758617401,-0.7614431381225586
0.36104729771614075,0.2894199788570404,-0.27243882417678833,-0.19119152426719666,-0.3537513017654419,-0.7709039449691772
0.36282098293304443,0.28974786400794983,-0.2722662389278412,-0.1881139874458313,-0.3532911241054535,-0.778723418712616
0.36840081214904785,0.2909443974494934,-0.27180030941963196,-0.1776944100856781,-0.3517993092536926,-0.8050292730331421
0.369771808385849,0.29122623801231384,-0.27168333530426025,-0.1750674694776535,-0.35145801305770874,-0.8116024136543274
0.37117159366607666,0.2914889454841614,-0.27156445384025574,-0.1724136918783188,-0.3511454463005066,-0.8181754946708679
0.3728877305984497,0.2917516529560089,-0.2713957130908966,-0.16920383274555206,-0.350823312997818,-0.8259872794151306
0.37464413046836853,0.29198747873306274,-0.27122506499290466,-0.1659843921661377,-0.35053378343582153,-0.8337856531143188
0.37649834156036377,0.2921907305717468,-0.2710467278957367,-0.16274385154247284,-0.350271075963974,-0.8416109085083008
0.37824130058288574,0.2924131751060486,-0.2708703279495239,-0.15932883322238922,-0.34998729825019836,-0.8498138785362244
0.3799440264701843,0.2926739454269409,-0.2707054316997528,-0.15610747039318085,-0.3496670722961426,-0.8576371669769287
0.3816199004650116,0.29298266768455505,-0.2705424427986145,-0.1529589742422104,-0.34931042790412903,-0.8654508590698242
0.38301199674606323,0.2932626008987427,-0.2704254686832428,-0.15029944479465485,-0.3489997982978821,-0.8720163106918335
0.3846821188926697,0.29360008239746094,-0.27030274271965027,-0.14712026715278625,-0.34862399101257324,-0.8798319101333618
0.3864864706993103,0.29387810826301575,-0.27018579840660095,-0.14389890432357788,-0.34830182790756226,-0.8876283764839172
0.3882428705692291,0.2941197156906128,-0.27004581689834595,-0.14046086370944977,-0.3480161428451538,-0.8954497575759888
0.39025047421455383,0.2943958342075348,-0.2698444724082947,-0.13660673797130585,-0.347695916891098,-0.904904842376709
0.39196276664733887,0.2946796417236328,-0.2696431577205658,-0.13324923813343048,-0.3473852872848511,-0.9126994013786316
0.3937211036682129,0.29499027132987976,-0.2694130539894104,-0.12992241978645325,-0.34705740213394165,-0.9205226898193359
0.3950997591018677,0.29526060819625854,-0.26923856139183044,-0.12715549767017365,-0.346769779920578,-0.9271053671836853
0.39674112200737,0.29556357860565186,-0.2690889835357666,-0.12365610897541046,-0.3464476466178894,-0.9353237152099609
0.39844000339508057,0.29581284523010254,-0.26901230216026306,-0.12027943134307861,-0.3461734354496002,-0.9431335926055908
0.4001599848270416,0.29604679346084595,-0.2689796984195709,-0.11687591671943665,-0.34592992067337036,-0.9509300589561462
0.4016095995903015,0.2962404489517212,-0.26895859837532043,-0.11402462422847748,-0.3457343280315399,-0.9575108289718628
0.40331998467445374,0.296518474817276,-0.2689259946346283,-0.11061343550682068,-0.3454754948616028,-0.9653226137161255
0.4089343547821045,0.2977149784564972,-0.2686115503311157,-0.09928499162197113,-0.3444457948207855,-0.9916245937347412
0.4103628695011139,0.29805055260658264,-0.2685137391090393,-0.0964432880282402,-0.3441716134548187,-0.9982054233551025
0.41181057691574097,0.2984302043914795,-0.2683776021003723,-0.09359200298786163,-0.3438839912414551,-1.004795789718628
0.4132697582244873,0.29883864521980286,-0.2682107985019684,-0.09076372534036636,-0.34360018372535706,-1.0113420486450195
0.4147193729877472,0.29925280809402466,-0.2680497169494629,-0.0879143550992012,-0.3433336615562439,-1.017932415008545
0.41615748405456543,0.2996286451816559,-0.26792892813682556,-0.08500362932682037,-0.3431112468242645,-1.0245016813278198
0.41793882846832275,0.30000829696655273,-0.267840713262558,-0.08147930353879929,-0.3429156541824341,-1.032319188117981
0.41963961720466614,0.3003016710281372,-0.26781195402145386,-0.07796073704957962,-0.3427814245223999,-1.0401328802108765
0.42107197642326355,0.30049917101860046,-0.26781195402145386,-0.07497330754995346,-0.3426836431026459,-1.0467079877853394
0.4228379726409912,0.30072733759880066,-0.26781195402145386,-0.07124190032482147,-0.3425455689430237,-1.0549339056015015
0.42469409108161926,0.3010149598121643,-0.26781004667282104,-0.06771183013916016,-0.34235766530036926,-1.0627437829971313
0.42657896876335144,0.3013620376586914,-0.2677793502807617,-0.06426037102937698,-0.34211990237236023,-1.0705441236495972
0.428557813167572,0.30169567465782166,-0.26771992444992065,-0.060801245272159576,-0.34187445044517517,-1.0783635377883911
0.4303908944129944,0.3020101487636566,-0.26767390966415405,-0.05731719359755516,-0.3416481912136078,-1.0861581563949585
0.43213582038879395,0.3022805154323578,-0.2676604688167572,-0.05364330857992172,-0.34145069122314453,-1.0943840742111206
0.4338538646697998,0.3024914264678955,-0.2676604688167572,-0.05012282356619835,-0.3413011431694031,-1.1021844148635864
0.4355872571468353,0.3026755154132843,-0.2677026689052582,-0.04649879410862923,-0.34119758009910583,-1.1100057363510132
0.4374491274356842,0.3028557300567627,-0.267802357673645,-0.04280189797282219,-0.34111130237579346,-1.1178175210952759
0.439247727394104,0.30307242274284363,-0.2678924798965454,-0.039089664816856384,-0.3410058319568634,-1.1256312131881714
0.44108274579048157,0.3033466041088104,-0.2679672837257385,-0.035143498331308365,-0.34085243940353394,-1.1338361501693726
0.44292736053466797,0.30369558930397034,-0.2680363059043884,-0.031402505934238434,-0.34067219495773315,-1.1416575908660889
0.4445016086101532,0.3040349781513214,-0.26811298727989197,-0.028309615328907967,-0.3405207395553589,-1.1482210159301758
0.44638267159461975,0.3044894337654114,-0.2682376205921173,-0.024658741429448128,-0.3403558135032654,-1.156044363975525
0.4484170973300934,0.3049112856388092,-0.2684178650379181,-0.020988691598176956,-0.3402407765388489,-1.16383695602417
0.45041701197624207,0.30528709292411804,-0.268669068813324,-0.0172994676977396,-0.34018707275390625,-1.171660304069519
0.45712050795555115,0.3061077892780304,-0.26979461312294006,-0.005288398824632168,-0.3403155505657196,-1.1967273950576782
0.45894020795822144,0.30628034472465515,-0.270109087228775,-0.0021379857789725065,-0.3405264914035797,-1.2033082246780396
0.46112996339797974,0.30647018551826477,-0.2704887390136719,0.0018196847522631288,-0.34080642461776733,-1.211520791053772
0.4629669189453125,0.3066389262676239,-0.270797461271286,0.004782184958457947,-0.34104418754577637,-1.2177008390426636
0.46507805585861206,0.30688244104385376,-0.2711445391178131,0.008674661628901958,-0.3413107395172119,-1.2259037494659424
0.46712398529052734,0.3071969151496887,-0.27149924635887146,0.01227759849280119,-0.3415561616420746,-1.233715534210205
0.46880754828453064,0.3075190484523773,-0.27179262042045593,0.015276530757546425,-0.3417670726776123,-1.2403039932250977
0.47076529264450073,0.30796581506729126,-0.27216655015945435,0.018808521330356598,-0.3420470356941223,-1.248110055923462
0.47286492586135864,0.30835890769958496,-0.27258455753326416,0.022338595241308212,-0.3423653244972229,-1.2559313774108887
0.4749281108379364,0.30870020389556885,-0.2730715870857239,0.025918522849678993,-0.3427526652812958,-1.2637125253677368
0.47703734040260315,0.30900701880455017,-0.2735874056816101,0.02976498007774353,-0.3431917726993561,-1.271944284439087
0.47915807366371155,0.3093118965625763,-0.27412429451942444,0.0334695428609848,-0.3436538875102997,-1.2797541618347168
0.4812941551208496,0.3096570372581482,-0.27460747957229614,0.0371568500995636,-0.3441370725631714,-1.2875659465789795
0.48386165499687195,0.3100980520248413,-0.275127112865448,0.04144049063324928,-0.34463179111480713,-1.2970134019851685
0.485951691865921,0.3105563223361969,-0.2755643129348755,0.04534830525517464,-0.34504789113998413,-1.3048309087753296
0.4879765510559082,0.3111315667629242,-0.27604174613952637,0.04908163100481033,-0.3455004096031189,-1.3126426935195923
0.48996880650520325,0.31174516677856445,-0.27654415369033813,0.052876316010951996,-0.3460123836994171,-1.3204487562179565
0.4923982322216034,0.31234151124954224,-0.27721333503723145,0.05733828619122505,-0.346637487411499,-1.3294992446899414
0.49444419145584106,0.31280744075775146,-0.27784228324890137,0.06142250820994377,-0.3472261428833008,-1.3377021551132202
0.4965074062347412,0.31326571106910706,-0.27853256464004517,0.06536292284727097,-0.34784355759620667,-1.345519781112671
0.4985974431037903,0.3137393295764923,-0.27919793128967285,0.069334015250206,-0.3484974205493927,-1.35332190990448
0.5003634691238403,0.3141305148601532,-0.2797386646270752,0.07263974100351334,-0.3490036427974701,-1.3599008321762085
0.5025627613067627,0.31462714076042175,-0.2803349792957306,0.07654755562543869,-0.3495884835720062,-1.3677202463150024
0.5046470761299133,0.3151218295097351,-0.28090065717697144,0.08043428510427475,-0.350180983543396,-1.3755282163619995
0.5098223686218262,0.3163605332374573,-0.2823387384414673,0.0900811031460762,-0.35185110569000244,-1.3952513933181763
0.5114771127700806,0.31674784421920776,-0.2828449606895447,0.09330054372549057,-0.3525126278400421,-1.4018303155899048
0.5130820870399475,0.31711217761039734,-0.2833799421787262,0.09651615470647812,-0.35320866107940674,-1.4084129333496094
0.5149534940719604,0.31755703687667847,-0.28401270508766174,0.10048724710941315,-0.35399866104125977,-1.4166197776794434
0.5168249607086182,0.31806516647338867,-0.2846243679523468,0.10424933582544327,-0.3547196388244629,-1.4244353771209717
0.518771231174469,0.31868642568588257,-0.2851094901561737,0.10798649489879608,-0.35540416836738586,-1.4322471618652344
0.520853579044342,0.31932303309440613,-0.2855294346809387,0.11162586510181427,-0.35600242018699646,-1.4400570392608643
0.523156464099884,0.3200382590293884,-0.2860279679298401,0.11611083894968033,-0.3567444980144501,-1.44951593875885
0.5251161456108093,0.32059621810913086,-0.28653228282928467,0.11987101286649704,-0.35747504234313965,-1.4573181867599487
0.5270067453384399,0.3211407959461212,-0.287061482667923,0.1236177608370781,-0.3583129942417145,-1.465124249458313
0.5289607048034668,0.3216450810432434,-0.2876041531562805,0.1273779273033142,-0.3591240644454956,-1.47293221950531
0.5308225750923157,0.3221551477909088,-0.2881467938423157,0.1311304271221161,-0.35991981625556946,-1.4807535409927368
0.5324044823646545,0.3225942552089691,-0.2885935604572296,0.13425974547863007,-0.36056411266326904,-1.4873228073120117
0.5346114635467529,0.323211669921875,-0.2892339825630188,0.1386948674917221,-0.36141738295555115,-1.4967875480651855
0.5365807414054871,0.32378116250038147,-0.2897171974182129,0.1423361599445343,-0.3621651828289032,-1.5045915842056274
0.538672685623169,0.32440242171287537,-0.29019656777381897,0.145956352353096,-0.36289000511169434,-1.5124014616012573
0.5406112670898438,0.32497575879096985,-0.2906931936740875,0.14949409663677216,-0.36362630128860474,-1.5202056169509888
0.5427780151367188,0.32557976245880127,-0.2913336455821991,0.15379883348941803,-0.36451026797294617,-1.5296549797058105
0.5445957779884338,0.3260917067527771,-0.2918896973133087,0.15735766291618347,-0.36533668637275696,-1.537468671798706
0.5460703372955322,0.32651546597480774,-0.2923230528831482,0.16034317016601562,-0.36598479747772217,-1.5440495014190674
0.5478765964508057,0.3270561993122101,-0.29277941584587097,0.16388091444969177,-0.3667326271533966,-1.5518497228622437
0.5496406555175781,0.3276352882385254,-0.2931974232196808,0.16742825508117676,-0.36745360493659973,-1.5596749782562256
0.5517306923866272,0.32836008071899414,-0.2936652898788452,0.17172914743423462,-0.36826467514038086,-1.5691319704055786
0.5535388588905334,0.3290005326271057,-0.2940545380115509,0.17528799176216125,-0.3690182566642761,-1.576911211013794
0.5574658513069153,0.3303140103816986,-0.2950036823749542,0.18323208391666412,-0.3706691861152649,-1.594197154045105
0.5589097142219543,0.3307530879974365,-0.29544469714164734,0.18620993196964264,-0.3713690936565399,-1.600764513015747
0.5606048107147217,0.33122095465660095,-0.2960371971130371,0.18976493179798126,-0.37223002314567566,-1.608463168144226
0.5622672438621521,0.3316926658153534,-0.29661819338798523,0.19332760572433472,-0.3731580972671509,-1.6155329942703247
0.5640102028846741,0.332154780626297,-0.29719728231430054,0.19686725735664368,-0.37400561571121216,-1.6212873458862305
0.5656726956367493,0.3326667547225952,-0.2977149784564972,0.2003513127565384,-0.37478601932525635,-1.6255708932876587
0.5676476955413818,0.3333378732204437,-0.2982538044452667,0.2045736014842987,-0.37559327483177185,-1.629204511642456
0.5693676471710205,0.3339361250400543,-0.29870057106018066,0.20810174942016602,-0.3762547969818115,-1.6312620639801025
0.571173906326294,0.3344845175743103,-0.2991722822189331,0.21162991225719452,-0.3768492341041565,-1.632659912109375
0.5728843212127686,0.33500799536705017,-0.2996708154678345,0.21520216763019562,-0.3774282932281494,-1.6335744857788086
0.5745697617530823,0.3354681730270386,-0.3002077043056488,0.21904286742210388,-0.3780016303062439,-1.6342321634292603
0.5762168765068054,0.3358593285083771,-0.3008366525173187,0.22271674871444702,-0.3785385191440582,-1.6346673965454102
0.5778006911277771,0.3361872434616089,-0.30146557092666626,0.22639255225658417,-0.3790370523929596,-1.6349685192108154
0.5794727206230164,0.33650362491607666,-0.3020945191383362,0.2300894409418106,-0.37944164872169495,-1.6351679563522339
0.5811122059822083,0.33682191371917725,-0.3026965856552124,0.2337786704301834,-0.3797733783721924,-1.6353060007095337
0.582789957523346,0.33719199895858765,-0.30326607823371887,0.23760978877544403,-0.38003605604171753,-1.6353923082351685
0.58446204662323,0.3375697433948517,-0.30388927459716797,0.24127791821956635,-0.3802796006202698,-1.6354402303695679
0.5861071944236755,0.3379359543323517,-0.30452394485473633,0.24498823285102844,-0.38054996728897095,-1.635465145111084
0.5874513387680054,0.3382216691970825,-0.30509153008461,0.24810029566287994,-0.38078197836875916,-1.6354784965515137
0.5890869498252869,0.33855530619621277,-0.3057837188243866,0.2518202066421509,-0.38107916712760925,-1.6354900598526
0.5906209349632263,0.3388812839984894,-0.3064778447151184,0.25559186935424805,-0.3813725411891937,-1.6354976892471313
0.5921242833137512,0.33919957280158997,-0.3071969151496887,0.25958406925201416,-0.3816659152507782,-1.6355035305023193
0.5939745903015137,0.3395945727825165,-0.30800992250442505,0.2639520764350891,-0.3820072412490845,-1.635507345199585
0.6000127792358398,0.34083518385887146,-0.3101920187473297,0.27735716104507446,-0.3831634819507599,-1.6355130672454834
0.6015006899833679,0.3411419987678528,-0.31068289279937744,0.2805631756782532,-0.3834396004676819,-1.6355130672454834
0.6030135750770569,0.34147563576698303,-0.31112581491470337,0.28380370140075684,-0.3836907744407654,-1.6355149745941162
0.6048218011856079,0.3419013023376465,-0.3116109371185303,0.2876003086566925,-0.3839707374572754,-1.6355149745941162
0.6066088676452637,0.34230974316596985,-0.31210947036743164,0.29153305292129517,-0.38425835967063904,-1.6355149745941162
0.6083365082740784,0.3426625430583954,-0.3126828074455261,0.29519733786582947,-0.3845747411251068,-1.6355149745941162
0.6099798083305359,0.3429866135120392,-0.31335392594337463,0.2987964451313019,-0.3849102854728699,-1.6355149745941162
0.6119011044502258,0.34338927268981934,-0.3141458332538605,0.3029496967792511,-0.38532063364982605,-1.635516881942749
0.6131724119186401,0.3437018096446991,-0.31471341848373413,0.30597931146621704,-0.38557758927345276,-1.635516881942749
0.6148329377174377,0.344194620847702,-0.31545355916023254,0.3103454113006592,-0.38589397072792053,-1.635516881942749
0.6162384152412415,0.3446490466594696,-0.31608057022094727,0.31395602226257324,-0.38619115948677063,-1.635516881942749
0.6177570819854736,0.345113068819046,-0.31665197014808655,0.31767401099205017,-0.3865056335926056,-1.635516881942749
0.619223952293396,0.3455272614955902,-0.3172233998775482,0.32147058844566345,-0.3868737816810608,-1.635516881942749
0.6206735372543335,0.34588199853897095,-0.31785231828689575,0.3254704475402832,-0.3873109817504883,-1.635516881942749
0.6221020817756653,0.34620794653892517,-0.3185100257396698,0.32930731773376465,-0.38778266310691833,-1.635516881942749
0.6234903335571289,0.3465166687965393,-0.3192175626754761,0.3331480324268341,-0.3882869780063629,-1.635516881942749
0.6251163482666016,0.34686949849128723,-0.32004591822624207,0.33755823969841003,-0.3889331519603729,-1.635516881942749
0.6264758110046387,0.34721463918685913,-0.3207285404205322,0.3415427505970001,-0.3894144594669342,-1.635516881942749
0.6278621554374695,0.34761539101600647,-0.3213267922401428,0.3453374207019806,-0.3898458778858185,-1.635516881942749
0.6292964220046997,0.3480391502380371,-0.32190969586372375,0.3491186797618866,-0.390240877866745,-1.635516881942749
0.6308515071868896,0.3484705686569214,-0.3224926292896271,0.3529171943664551,-0.39064738154411316,-1.635516881942749
0.6323394775390625,0.34883299469947815,-0.32312729954719543,0.356779009103775,-0.391069233417511,-1.635516881942749
0.6339923143386841,0.3491838872432709,-0.3239192068576813,0.3614288866519928,-0.3915390074253082,-1.635516881942749
0.6353671550750732,0.34949836134910583,-0.3246459364891052,0.365208238363266,-0.3919205963611603,-1.635516881942749
0.6396719217300415,0.3507504463195801,-0.3267149031162262,0.37707164883613586,-0.39297711849212646,-1.635516881942749
0.6409911513328552,0.3512221574783325,-0.32735151052474976,0.38073211908340454,-0.3932858407497406,-1.635516881942749
0.6423832178115845,0.3517053723335266,-0.3279631733894348,0.38439834117889404,-0.39361563324928284,-1.635516881942749
0.6437426805496216,0.3521233797073364,-0.32859212160110474,0.38804152607917786,-0.3939588665962219,-1.635516881942749
0.6451156139373779,0.35249343514442444,-0.32922104001045227,0.3919666111469269,-0.3943423628807068,-1.635516881942749
0.6471213102340698,0.353036105632782,-0.33016443252563477,0.3975292146205902,-0.3949674665927887,-1.635516881942749
0.6481835842132568,0.35335054993629456,-0.330676406621933,0.40067577362060547,-0.3952953517436981,-1.635516881942749
0.6494011878967285,0.35376474261283875,-0.33129000663757324,0.4046047031879425,-0.39565008878707886,-1.635516881942749
0.6505746841430664,0.3542326092720032,-0.3318844139575958,0.4083169102668762,-0.3959530293941498,-1.635516881942749
0.6517347693443298,0.3547157943248749,-0.3325210213661194,0.41199082136154175,-0.3962368369102478,-1.635516881942749
0.6531671285629272,0.3552910387516022,-0.3332419991493225,0.41627827286720276,-0.396601140499115,-1.635516881942749
0.6543885469436646,0.35572439432144165,-0.3339073359966278,0.4202589690685272,-0.3969482183456421,-1.635516881942749
0.6556463837623596,0.35609638690948486,-0.33458614349365234,0.424084335565567,-0.3973393738269806,-1.635516881942749
0.6571861505508423,0.356499046087265,-0.33542025089263916,0.4285482168197632,-0.3978436589241028,-1.635516881942749
0.6584362983703613,0.3568192720413208,-0.3360702693462372,0.43244069814682007,-0.3982674181461334,-1.635516881942749
0.6596423983573914,0.3571433126926422,-0.3366455137729645,0.43651533126831055,-0.3986777663230896,-1.635516881942749
0.6608312726020813,0.35749614238739014,-0.33719775080680847,0.44034260511398315,-0.3990727663040161,-1.635516881942749
0.6622693538665771,0.35797742009162903,-0.33788803219795227,0.44477197527885437,-0.39952147006988525,-1.635516881942749
0.6636422872543335,0.3584567904472351,-0.3385840654373169,0.44935092329978943,-0.3999452292919159,-1.635516881942749
0.6648061871528625,0.35886329412460327,-0.3392321765422821,0.4531417489051819,-0.4003325402736664,-1.635516881942749
0.6662001609802246,0.3593119978904724,-0.3400432765483856,0.45758262276649475,-0.4008502662181854,-1.635516881942749
0.6671589016914368,0.3596053719520569,-0.3406166136264801,0.4608269929885864,-0.40122610330581665,-1.635516881942749
0.6703553795814514,0.3605487644672394,-0.3424803912639618,0.4719713628292084,-0.4024782180786133,-1.635516881942749
0.6714444756507874,0.36088430881500244,-0.34307095408439636,0.47579291462898254,-0.40288472175598145,-1.635516881942749
0.672382116317749,0.3612045347690582,-0.3435196578502655,0.4790123403072357,-0.4031934142112732,-1.635516881942749
0.6733389496803284,0.3615611791610718,-0.3439549207687378,0.48222604393959045,-0.4034714698791504,-1.635516881942749
0.6744856238365173,0.36201563477516174,-0.34452056884765625,0.4860322177410126,-0.40378591418266296,-1.635516881942749
0.6756571531295776,0.3624662458896637,-0.3451303243637085,0.48982882499694824,-0.4041387438774109,-1.635516881942749
0.6767539978027344,0.3628535568714142,-0.3457746207714081,0.4936906099319458,-0.4044915735721588,-1.635516881942749
0.6780099272727966,0.3632332384586334,-0.34654542803764343,0.4984114468097687,-0.40495559573173523,-1.635516881942749
0.6791067123413086,0.3635323643684387,-0.3472549021244049,0.5023038983345032,-0.4053831994533539,-1.635516881942749
0.6802763938903809,0.36383530497550964,-0.34792792797088623,0.506221354007721,-0.40583571791648865,-1.635516881942749
0.6813827753067017,0.3641478717327118,-0.3485664427280426,0.5101176500320435,-0.40624603629112244,-1.635516881942749
0.6824718713760376,0.36450451612472534,-0.34917619824409485,0.5141174793243408,-0.4066295325756073,-1.635516881942749
0.683530330657959,0.364928275346756,-0.34978020191192627,0.5179026126861572,-0.40699002146720886,-1.635516881942749
0.6845561861991882,0.3653999865055084,-0.35042449831962585,0.5216799974441528,-0.4073428511619568,-1.635516881942749
0.6856318712234497,0.36591002345085144,-0.35106876492500305,0.5254440307617188,-0.40772634744644165,-1.635516881942749
0.6868552565574646,0.3664526641368866,-0.35187986493110657,0.5300747156143188,-0.4081999659538269,-1.635516881942749
0.6879482269287109,0.3668879270553589,-0.3525989055633545,0.5339652895927429,-0.4086543917655945,-1.635516881942749
0.6890718340873718,0.36726951599121094,-0.35332944989204407,0.5378865003585815,-0.40915676951408386,-1.635516881942749
0.6902511119842529,0.36761274933815,-0.3539775609970093,0.5418595671653748,-0.4097013473510742,-1.635516881942749
0.6915147304534912,0.3679713010787964,-0.3546697795391083,0.5466915965080261,-0.4102689027786255,-1.635516881942749
0.6927112340927124,0.36835289001464844,-0.35533130168914795,0.551264762878418,-0.4107847213745117,-1.635516881942749
0.6939115524291992,0.3688092529773712,-0.35597941279411316,0.5558130145072937,-0.41125449538230896,-1.635516881942749
0.6948779821395874,0.3692215085029602,-0.35658150911331177,0.5599087476730347,-0.41159772872924805,-1.635516881942749
0.6982009410858154,0.37056565284729004,-0.35902053117752075,0.5730012655258179,-0.41279807686805725,-1.635516881942749
0.6992402076721191,0.3709261417388916,-0.3597932755947113,0.5768956542015076,-0.41318923234939575,-1.635516881942749
0.7003254890441895,0.37123867869377136,-0.3605775237083435,0.5808533430099487,-0.41362065076828003,-1.635516881942749
0.7018460631370544,0.3716221749782562,-0.3614979088306427,0.5863219499588013,-0.4142591953277588,-1.635516881942749
0.7029447555541992,0.3719097971916199,-0.3621383607387543,0.5902930498123169,-0.4147385358810425,-1.635516881942749
0.7042333483695984,0.37229904532432556,-0.3628554940223694,0.5948835015296936,-0.415273517370224,-1.635516881942749
0.7052323222160339,0.3726844787597656,-0.36344224214553833,0.5987951755523682,-0.41565319895744324,-1.635516881942749
0.7062984704971313,0.373186856508255,-0.3641497790813446,0.6034258604049683,-0.4160347580909729,-1.635516881942749
0.7071958184242249,0.3736240267753601,-0.36482474207878113,0.6072531342506409,-0.4163511395454407,-1.635516881942749
0.7082887887954712,0.374109148979187,-0.36561089754104614,0.6116882562637329,-0.41676533222198486,-1.635516881942749
0.7093568444252014,0.3744926452636719,-0.3664526641368866,0.6163285374641418,-0.41721785068511963,-1.635516881942749
0.7105743885040283,0.37483397126197815,-0.3673001825809479,0.6208326816558838,-0.4177393913269043,-1.635516881942749
0.7116290330886841,0.37511199712753296,-0.36794254183769226,0.6247021555900574,-0.41816699504852295,-1.635516881942749
0.7130210995674133,0.3755185008049011,-0.3687325417995453,0.6299387812614441,-0.41869622468948364,-1.635516881942749
0.7140968441963196,0.37589430809020996,-0.36927902698516846,0.6337315440177917,-0.4190758764743805,-1.635516881942749
0.7150459885597229,0.3762528896331787,-0.36983317136764526,0.6374322772026062,-0.41943827271461487,-1.635516881942749
0.7160564661026001,0.3766689896583557,-0.37054839730262756,0.6417887806892395,-0.41982561349868774,-1.635516881942749
0.7168656587600708,0.37702372670173645,-0.3712655305862427,0.6453514695167542,-0.42014965415000916,-1.635516881942749
0.7177131772041321,0.3773573637008667,-0.3719654083251953,0.6489083766937256,-0.42051398754119873,-1.635516881942749
0.7184954881668091,0.3776814043521881,-0.3727247416973114,0.6524173617362976,-0.4208993911743164,-1.635516881942749
0.7214982509613037,0.3785289227962494,-0.37474575638771057,0.6644130945205688,-0.42202112078666687,-1.635516881942749
0.7224359512329102,0.3787609338760376,-0.37522897124290466,0.6681656241416931,-0.42229533195495605,-1.635516881942749
0.7232489585876465,0.3789680302143097,-0.3756086230278015,0.6711856126785278,-0.4225062429904938,-1.635516881942749
0.7242345213890076,0.37926140427589417,-0.3760227859020233,0.6747617125511169,-0.4226960837841034,-1.635516881942749
0.725379228591919,0.37971967458724976,-0.3765692710876465,0.6788325309753418,-0.4228303134441376,-1.635516881942749
0.7262823581695557,0.3801261782646179,-0.3770543932914734,0.6823376417160034,-0.4229223430156708,-1.6355149745941162
0.7271318435668945,0.38052693009376526,-0.3775836229324341,0.6860134601593018,-0.42302587628364563,-1.6355149745941162
0.7280234694480896,0.38093727827072144,-0.37829500436782837,0.6900573968887329,-0.4232022762298584,-1.6355149745941162
0.7287789583206177,0.38119038939476013,-0.378897100687027,0.693641185760498,-0.4234170615673065,-1.6355149745941162
0.7294883728027344,0.3813648819923401,-0.3794704079627991,0.6972882151603699,-0.4236375689506531,-1.6355149745941162
0.7302247285842896,0.3815297782421112,-0.37999963760375977,0.7011404633522034,-0.42384272813796997,-1.6355130672454834
0.7310128211975098,0.38174837827682495,-0.3804675042629242,0.7047778964042664,-0.4240037798881531,-1.6355130672454834
0.7320213913917542,0.38209736347198486,-0.38098904490470886,0.7089752554893494,-0.4241284430027008,-1.6355130672454834
0.7328574061393738,0.3824271559715271,-0.38142624497413635,0.7125551700592041,-0.42420321702957153,-1.6355130672454834
0.7335476875305176,0.38271477818489075,-0.38181549310684204,0.7155368328094482,-0.42425498366355896,-1.6355130672454834
0.7343395948410034,0.38304266333580017,-0.38230443000793457,0.7193046808242798,-0.42432594299316406,-1.6355130672454834
0.7350759506225586,0.38331112265586853,-0.38285860419273376,0.7229325771331787,-0.4244505763053894,-1.6355130672454834
0.7358850836753845,0.3835182189941406,-0.3836236596107483,0.7271893620491028,-0.42469215393066406,-1.6355111598968506
0.7365082502365112,0.3836236596107483,-0.3842909634113312,0.7309207320213318,-0.42494526505470276,-1.6355111598968506
0.7372331023216248,0.3837176263332367,-0.38506561517715454,0.7354709506034851,-0.4252520799636841,-1.6355111598968506
0.7379080653190613,0.3838365077972412,-0.3857022225856781,0.7391486167907715,-0.42547640204429626,-1.6355111598968506
0.738726794719696,0.3840646743774414,-0.3862103521823883,0.7427400946617126,-0.4256259799003601,-1.6355111598968506
0.7395398020744324,0.38435614109039307,-0.3866667151451111,0.7462931871414185,-0.42570269107818604,-1.6355111598968506
0.740333616733551,0.3846897780895233,-0.3871249854564667,0.7499977350234985,-0.42574676871299744,-1.6355111598968506
0.7420267462730408,0.38539159297943115,-0.38838475942611694,0.7581930160522461,-0.4259020984172821,-1.6355111598968506
0.7426518797874451,0.3856255114078522,-0.38900601863861084,0.7619953751564026,-0.4260190725326538,-1.6355111598968506
0.7432616353034973,0.38582876324653625,-0.3896464705467224,0.7655982971191406,-0.4261705279350281,-1.6355092525482178
0.7438867092132568,0.3860013484954834,-0.39030224084854126,0.7692875266075134,-0.42634695768356323,-1.6355092525482178
0.7445865869522095,0.38617584109306335,-0.3908889889717102,0.7730170488357544,-0.426527202129364,-1.6355092525482178
0.7453133463859558,0.38635990023612976,-0.3914239704608917,0.7767196893692017,-0.4266652464866638,-1.6355092525482178
0.7460707426071167,0.38658425211906433,-0.39193016290664673,0.780610203742981,-0.4267496168613434,-1.6355092525482178
0.7469393610954285,0.38689103722572327,-0.3925246000289917,0.7848440408706665,-0.42679563164711,-1.6355092525482178
0.7476986646652222,0.387151837348938,-0.3930307924747467,0.7884200811386108,-0.4268186390399933,-1.6355092525482178
0.748388946056366,0.3873569965362549,-0.3935849666595459,0.7919597625732422,-0.4268493354320526,-1.6355092525482178
0.7491483092308044,0.38752955198287964,-0.39426183700561523,0.7963124513626099,-0.42692986130714417,-1.6355092525482178
0.7498059868812561,0.38764846324920654,-0.3948734998703003,0.7999345660209656,-0.42701807618141174,-1.6355092525482178
0.7506439089775085,0.38780951499938965,-0.3954986035823822,0.8041223287582397,-0.42711395025253296,-1.6355092525482178
0.7513974905014038,0.3879782557487488,-0.3959798812866211,0.8079285025596619,-0.4271618723869324,-1.6355092525482178
0.7522066831588745,0.38820260763168335,-0.3963940441608429,0.8115084171295166,-0.427173376083374,-1.6355092525482178
0.7530331015586853,0.3884633779525757,-0.39680057764053345,0.8150193095207214,-0.427173376083374,-1.6355092525482178
0.7538825273513794,0.3887471556663513,-0.3971974849700928,0.8185359835624695,-0.427173376083374,-1.6355092525482178
0.7547300457954407,0.3890194594860077,-0.3977343738079071,0.822840690612793,-0.427173376083374,-1.6355092525482178
0.7553685903549194,0.3891843557357788,-0.3982636034488678,0.8264244794845581,-0.427173376083374,-1.6355092525482178
0.7559457421302795,0.3893166482448578,-0.39884841442108154,0.8300619125366211,-0.427173376083374,-1.6355092525482178
0.756639838218689,0.3894757926464081,-0.399421751499176,0.8343263864517212,-0.427173376083374,-1.6355092525482178
0.7572361826896667,0.3896253705024719,-0.39986470341682434,0.838201642036438,-0.427173376083374,-1.6355092525482178
0.7578862309455872,0.3898228704929352,-0.4002903699874878,0.8418332934379578,-0.427173376083374,-1.6355092525482178
0.7600529789924622,0.39060521125793457,-0.4017227292060852,0.8526824116706848,-0.42701998353004456,-1.6355092525482178
0.7607374787330627,0.3908410370349884,-0.4022289514541626,0.8565058708190918,-0.42690110206604004,-1.6355092525482178
0.7612974047660828,0.3910212814807892,-0.40267571806907654,0.8595987558364868,-0.42680907249450684,-1.6355092525482178
0.7619320750236511,0.39119771122932434,-0.40322986245155334,0.8632706999778748,-0.4267342686653137,-1.6355092525482178
0.7626434564590454,0.3913664221763611,-0.4039163291454315,0.86751788854599,-0.42667868733406067,-1.6355092525482178
0.7632877230644226,0.39151984453201294,-0.4044589698314667,0.8711898922920227,-0.4266364872455597,-1.6355092525482178
0.7640125751495361,0.3917211592197418,-0.4050418734550476,0.8756039142608643,-0.4265713095664978,-1.6355092525482178
0.7646798491477966,0.3919416666030884,-0.4054982364177704,0.8791800141334534,-0.4264734983444214,-1.635507345199585
0.7653758525848389,0.3922235369682312,-0.40588364005088806,0.8827522397041321,-0.4263354539871216,-1.635507345199585
0.7662559747695923,0.3925706148147583,-0.4062863290309906,0.8870474100112915,-0.42613986134529114,-1.635507345199585
0.7669482231140137,0.39283329248428345,-0.40669089555740356,0.8905947208404541,-0.42600947618484497,-1.635507345199585
0.7675675749778748,0.39302313327789307,-0.40721821784973145,0.894222617149353,-0.42593851685523987,-1.635507345199585
0.7681140303611755,0.39316120743751526,-0.40779152512550354,0.8979060649871826,-0.42591169476509094,-1.635507345199585
0.7686911821365356,0.3932781517505646,-0.4084818363189697,0.9023661017417908,-0.42591169476509094,-1.635507345199585
0.7691648006439209,0.39336827397346497,-0.40906473994255066,0.9060572385787964,-0.42591169476509094,-1.635507345199585
0.7697534561157227,0.39350059628486633,-0.4096955955028534,0.9103294014930725,-0.42591169476509094,-1.635507345199585
0.7703402042388916,0.3936597406864166,-0.4101366102695465,0.9139668345451355,-0.42591169476509094,-1.635507345199585
0.7709442377090454,0.39385148882865906,-0.41053926944732666,0.9177423715591431,-0.42591169476509094,-1.635507345199585
0.7715750932693481,0.3940470814704895,-0.4109381139278412,0.9213280081748962,-0.42591169476509094,-1.635507345199585
0.7723056077957153,0.39426183700561523,-0.4114481508731842,0.9254697561264038,-0.42591169476509094,-1.635507345199585
0.7729499340057373,0.3943941295146942,-0.4119102656841278,0.9290343523025513,-0.42589443922042847,-1.635507345199585
0.7735385894775391,0.39449384808540344,-0.41240113973617554,0.9328041076660156,-0.42584648728370667,-1.635507345199585
0.7753409743309021,0.3949003517627716,-0.41392362117767334,0.9439427256584167,-0.42549750208854675,-1.635507345199585
0.7759143114089966,0.39509785175323486,-0.414347380399704,0.9476243257522583,-0.425324946641922,-1.635507345199585
0.7765240669250488,0.395364373922348,-0.41472896933555603,0.9511122107505798,-0.42512935400009155,-1.635507345199585
0.7771492004394531,0.3956596553325653,-0.41510096192359924,0.9545866847038269,-0.42491844296455383,-1.635507345199585
0.7777723670005798,0.3959568738937378,-0.41546911001205444,0.958112895488739,-0.42471519112586975,-1.635507345199585
0.7784894704818726,0.39622339606285095,-0.4159638285636902,0.9624598026275635,-0.42455601692199707,-1.635507345199585
0.7790609002113342,0.3964151442050934,-0.41643744707107544,0.9660685062408447,-0.42446398735046387,-1.635507345199585
0.7796189188957214,0.39659154415130615,-0.4169628322124481,0.9697251319885254,-0.4243968725204468,-1.635507345199585
0.7801710963249207,0.396744966506958,-0.4174862802028656,0.9734009504318237,-0.4243547022342682,-1.635507345199585
0.780855655670166,0.39691752195358276,-0.4180653691291809,0.9777823686599731,-0.4243086874485016,-1.635507345199585
0.7814481854438782,0.3970901072025299,-0.4185313284397125,0.9813718795776367,-0.4242453873157501,-1.635507345199585
0.7819754481315613,0.39725691080093384,-0.41890332102775574,0.9843804240226746,-0.42416295409202576,-1.635507345199585
0.7826274037361145,0.3974774181842804,-0.41934624314308167,0.9879526495933533,-0.42404597997665405,-1.635507345199585
0.7831470370292664,0.39762890338897705,-0.4197450876235962,0.9909592866897583,-0.4239673614501953,-1.635507345199585
0.7837318778038025,0.3977746367454529,-0.4202800691127777,0.9945948123931885,-0.42390793561935425,-1.635507345199585
0.7841747999191284,0.3978436589241028,-0.4207805097103119,0.9976838231086731,-0.42388108372688293,-1.635507345199585
0.7846618294715881,0.39788585901260376,-0.4214056134223938,1.0013519525527954,-0.4238676428794861,-1.635507345199585
0.7851757407188416,0.39790886640548706,-0.4221400022506714,1.005731463432312,-0.42385998368263245,-1.635507345199585
0.7856320738792419,0.39792612195014954,-0.4227900207042694,1.009342074394226,-0.4238503873348236,-1.635507345199585
0.7861267924308777,0.39797788858413696,-0.42335185408592224,1.012902855873108,-0.423800528049469,-1.635507345199585
0.7868190407752991,0.3981255292892456,-0.4238906502723694,1.0171270370483398,-0.4236452281475067,-1.635507345199585
0.787449836730957,0.3983307182788849,-0.42427414655685425,1.0206360816955566,-0.42345157265663147,-1.635507345199585
0.7894977331161499,0.3990209996700287,-0.42556846141815186,1.032633662223816,-0.42280152440071106,-1.635507345199585
0.7899425625801086,0.39915329217910767,-0.42593470215797424,1.035726547241211,-0.4226768910884857,-1.635507345199585
0.7904353737831116,0.39927026629447937,-0.42644089460372925,1.0394196510314941,-0.42256760597229004,-1.635507345199585
0.790805459022522,0.3993297219276428,-0.4268895983695984,1.0425336360931396,-0.4225119948387146,-1.635507345199585
0.7912943959236145,0.3993699848651886,-0.42754921317100525,1.0468441247940063,-0.42246213555336,-1.635507345199585
0.7917296886444092,0.39942365884780884,-0.42808035016059875,1.050742268562317,-0.4223988652229309,-1.635507345199585
0.7921937108039856,0.3995042145252228,-0.42858657240867615,1.0544220209121704,-0.42232024669647217,-1.635507345199585
0.7928302884101868,0.39965951442718506,-0.4291560649871826,1.0586365461349487,-0.42215725779533386,-1.635507345199585
0.7935148477554321,0.3998263478279114,-0.4295874834060669,1.0622509717941284,-0.4219636023044586,-1.635507345199585
0.7942185401916504,0.4000180959701538,-0.4300035834312439,1.0659728050231934,-0.42173734307289124,-1.635507345199585
0.7950373291969299,0.4002175033092499,-0.4305289685726166,1.070106863975525,-0.4214746356010437,-1.635507345199585
0.7957237958908081,0.40039965510368347,-0.43096423149108887,1.0736638307571411,-0.4212407171726227,-1.635507345199585
0.7963833808898926,0.4005664885044098,-0.4314340054988861,1.0772111415863037,-0.4210355281829834,-1.635507345199585
0.7970046401023865,0.4007543921470642,-0.4320054352283478,1.0814852714538574,-0.42081502079963684,-1.635507345199585
0.7974341511726379,0.4009154736995697,-0.43253272771835327,1.0850248336791992,-0.42063477635383606,-1.635507345199585
0.7978770732879639,0.4011206328868866,-0.43310797214508057,1.0891187191009521,-0.4204219579696655,-1.635507345199585
0.798239529132843,0.4012644588947296,-0.43361225724220276,1.0928232669830322,-0.4202762246131897,-1.635507345199585
0.7986325621604919,0.40138909220695496,-0.43409737944602966,1.0963916778564453,-0.420163094997406,-1.635507345199585
0.799056351184845,0.40148302912712097,-0.4346131980419159,1.0999946594238281,-0.42008256912231445,-1.635507345199585
0.7996373176574707,0.4015865921974182,-0.4351711869239807,1.1041306257247925,-0.4199962615966797,-1.635507345199585
0.8001569509506226,0.4016690254211426,-0.43564286828041077,1.107908010482788,-0.4199233949184418,-1.635507345199585
0.8006957769393921,0.4017706513404846,-0.4360877275466919,1.1114975214004517,-0.41983136534690857,-1.635507345199585
0.8013189435005188,0.4019451439380646,-0.4366131126880646,1.1155855655670166,-0.41966837644577026,-1.635507345199585
0.8027110695838928,0.4024360179901123,-0.4380550682544708,1.127280354499817,-0.4190068542957306,-1.635507345199585
0.8029564619064331,0.4025318920612335,-0.43845197558403015,1.1301565170288086,-0.4188227653503418,-1.635507345199585
0.803246021270752,0.40263545513153076,-0.4389294385910034,1.1336041688919067,-0.41860994696617126,-1.635507345199585
0.8035758137702942,0.4027159810066223,-0.4394950866699219,1.1378302574157715,-0.41839709877967834,-1.635507345199585
0.8039171695709229,0.40274858474731445,-0.44002237915992737,1.1413450241088867,-0.41823601722717285,-1.635507345199585
0.8044118285179138,0.4027850031852722,-0.4405803680419922,1.1454675197601318,-0.4180366098880768,-1.635507345199585
0.8048989176750183,0.40283486247062683,-0.44101372361183167,1.149254560470581,-0.41784870624542236,-1.635507345199585
0.8055258989334106,0.40293648838996887,-0.4414796829223633,1.1533387899398804,-0.4175744950771332,-1.635507345199585
0.8060819506645203,0.40306687355041504,-0.4418554902076721,1.1568381786346436,-0.417300283908844,-1.635507345199585
0.8067300915718079,0.40322601795196533,-0.4423176050186157,1.1610431671142578,-0.4169819951057434,-1.635507345199585
0.8072037100791931,0.4033640921115875,-0.4427548050880432,1.164463996887207,-0.4167077839374542,-1.635507345199585
0.8076485395431519,0.4035002291202545,-0.4433492124080658,1.1683928966522217,-0.41641250252723694,-1.635507345199585
0.8079802989959717,0.40355390310287476,-0.44384774565696716,1.1718538999557495,-0.41623225808143616,-1.635507345199585
0.8083369135856628,0.4035673439502716,-0.4443865716457367,1.176147222518921,-0.4160788655281067,-1.635507345199585
0.8086724877357483,0.4035673439502716,-0.444821834564209,1.179682970046997,-0.415965735912323,-1.635507345199585
0.8090674877166748,0.4035673439502716,-0.44517847895622253,1.1832342147827148,-0.4158276915550232,-1.635507345199585
0.8096369504928589,0.4035826623439789,-0.44555431604385376,1.187508225440979,-0.4156225025653839,-1.635507345199585
0.810127854347229,0.4036612808704376,-0.445880264043808,1.1909596920013428,-0.4153866469860077,-1.635507345199585
0.8106206655502319,0.40378209948539734,-0.44621583819389343,1.194390058517456,-0.41512587666511536,-1.635507345199585
0.8110712766647339,0.4039124846458435,-0.44659358263015747,1.1978318691253662,-0.4148574471473694,-1.635507345199585
0.8115525245666504,0.40401026606559753,-0.4471343159675598,1.2019890546798706,-0.4146081507205963,-1.635507345199585
0.8118842840194702,0.40407928824424744,-0.4476558566093445,1.2054040431976318,-0.41440489888191223,-1.635507345199585
0.8121565580368042,0.40417900681495667,-0.44820424914360046,1.2088650465011597,-0.41417863965034485,-1.635507345199585
0.8130021691322327,0.4046487808227539,-0.4494544565677643,1.2187669277191162,-0.4134097397327423,-1.635507345199585
0.8133606910705566,0.4048290252685547,-0.449809193611145,1.222475290298462,-0.4131527841091156,-1.635507345199585
0.8136943578720093,0.40498244762420654,-0.4500987231731415,1.225462794303894,-0.41293996572494507,-1.635507345199585
0.8142082691192627,0.4051550030708313,-0.45055124163627625,1.2295795679092407,-0.41268685460090637,-1.635507345199585
0.8146818280220032,0.4052470326423645,-0.45096734166145325,1.2331767082214355,-0.41249319911003113,-1.635507345199585
0.815251350402832,0.4052892327308655,-0.45154258608818054,1.2374930381774902,-0.4122592508792877,-1.635507345199585
0.8156616687774658,0.4052911400794983,-0.4520871341228485,1.2409865856170654,-0.41200998425483704,-1.635507345199585
0.8160643577575684,0.40530458092689514,-0.4526815712451935,1.2449711561203003,-0.4116571545600891,-1.635507345199585
0.8164344429969788,0.40534675121307373,-0.4531206786632538,1.2484169006347656,-0.4113292694091797,-1.635507345199585
0.8168236613273621,0.4054368734359741,-0.45352718234062195,1.2520389556884766,-0.4109611213207245,-1.635507345199585
0.8172550797462463,0.40555766224861145,-0.45392024517059326,1.2554577589035034,-0.41060832142829895,-1.635507345199585
0.8177076578140259,0.4056650400161743,-0.4543516933917999,1.2589380741119385,-0.410290002822876,-1.635507345199585
0.818148672580719,0.40572258830070496,-0.4548080563545227,1.2624585628509521,-0.4100004732608795,-1.635507345199585
0.8186261057853699,0.40576091408729553,-0.4553526043891907,1.2667171955108643,-0.4097147583961487,-1.635507345199585
0.8189616799354553,0.4058050215244293,-0.4557993710041046,1.2701975107192993,-0.40945589542388916,-1.635507345199585
0.8192780613899231,0.40588557720184326,-0.45622313022613525,1.2736642360687256,-0.4091721177101135,-1.635507345199585
0.8197094798088074,0.4060523808002472,-0.45663541555404663,1.2776391506195068,-0.4087694585323334,-1.635507345199585
0.8201332688331604,0.406236469745636,-0.4569498598575592,1.281213402748108,-0.408403217792511,-1.635507345199585
0.8206701278686523,0.4064224660396576,-0.4573698043823242,1.2852189540863037,-0.4080197215080261,-1.635507345199585
0.8211188316345215,0.40653175115585327,-0.4577782154083252,1.2887202501296997,-0.40772250294685364,-1.635507345199585
0.821649968624115,0.40661612153053284,-0.4582901895046234,1.2929502725601196,-0.4074329733848572,-1.635507345199585
0.8221024870872498,0.4066832363605499,-0.45873886346817017,1.2964611053466797,-0.40719521045684814,-1.635507345199585
0.8235731720924377,0.4069727659225464,-0.4599967300891876,1.3067407608032227,-0.40636301040649414,-1.635507345199585
0.8240832686424255,0.40712425112724304,-0.46036872267723083,1.3102515935897827,-0.4060485363006592,-1.635507345199585
0.8245952129364014,0.40728724002838135,-0.46073880791664124,1.3135707378387451,-0.40571683645248413,-1.635507345199585
0.8250113129615784,0.4074118733406067,-0.4610762894153595,1.316324234008789,-0.4054292142391205,-1.635507345199585
0.8254676461219788,0.40752115845680237,-0.46154797077178955,1.3196089267730713,-0.40510132908821106,-1.635507345199585
0.8258665204048157,0.4075806140899658,-0.4620234966278076,1.3229453563690186,-0.40480220317840576,-1.635507345199585
0.8262154459953308,0.40761128067970276,-0.46249520778656006,1.32632577419281,-0.40454909205436707,-1.635507345199585
0.826587438583374,0.40762853622436523,-0.46300333738327026,1.3303889036178589,-0.40426528453826904,-1.635507345199585
0.8269594311714172,0.40765923261642456,-0.4633983373641968,1.3337368965148926,-0.4039853513240814,-1.635507345199585
0.8273161053657532,0.40772441029548645,-0.4636783003807068,1.3365364074707031,-0.4037073254585266,-1.635507345199585
0.8277686238288879,0.40784138441085815,-0.4640311002731323,1.3398420810699463,-0.4033276438713074,-1.635507345199585
0.8283112645149231,0.40797945857048035,-0.4645104706287384,1.3438323736190796,-0.40292689204216003,-1.635507345199585
0.8287005424499512,0.4080408215522766,-0.46500325202941895,1.3472148180007935,-0.40263545513153076,-1.635507345199585
0.8290495276451111,0.40806764364242554,-0.4655535817146301,1.350637435913086,-0.40237659215927124,-1.635507345199585
0.829433023929596,0.40807533264160156,-0.4661460816860199,1.354604721069336,-0.40209853649139404,-1.635507345199585
0.8297609090805054,0.4080810844898224,-0.46661970019340515,1.3582096099853516,-0.4018569588661194,-1.635507345199585
0.8301827311515808,0.4081021547317505,-0.467135488986969,1.3621577024459839,-0.4015424847602844,-1.635507345199585
0.8305739164352417,0.4081520140171051,-0.4675247371196747,1.3655401468276978,-0.4012337625026703,-1.635507345199585
0.8310321569442749,0.408224880695343,-0.467960000038147,1.3695917129516602,-0.4008886218070984,-1.635507345199585
0.8313620090484619,0.40825939178466797,-0.468379944562912,1.3729703426361084,-0.40062209963798523,-1.635507345199585
0.8316457867622375,0.40827664732933044,-0.4688478112220764,1.3763853311538696,-0.40037283301353455,-1.635507345199585
0.8319813013076782,0.4082900881767273,-0.46936553716659546,1.3803200721740723,-0.40009862184524536,-1.635507345199585
0.832263171672821,0.40829965472221375,-0.4698065519332886,1.3838980197906494,-0.39986085891723633,-1.635507345199585
0.8334769606590271,0.4084108769893646,-0.4709014296531677,1.3940223455429077,-0.3989998996257782,-1.635507345199585
0.8339045643806458,0.40846648812294006,-0.47116410732269287,1.3968486785888672,-0.39873722195625305,-1.635507345199585
0.8344587087631226,0.4085470139980316,-0.4714709222316742,1.4002195596694946,-0.39843234419822693,-1.635507345199585
0.8349955677986145,0.40862178802490234,-0.47177770733833313,1.4037535190582275,-0.3981197774410248,-1.635507345199585
0.8356283903121948,0.4086773991584778,-0.47214779257774353,1.4076364040374756,-0.39778998494148254,-1.635507345199585
0.8361154198646545,0.4087234139442444,-0.4724871814250946,1.4109766483306885,-0.39749085903167725,-1.635507345199585
0.836587131023407,0.4088039696216583,-0.47293969988822937,1.4149458408355713,-0.3971342146396637,-1.635507345199585
0.836911141872406,0.408913254737854,-0.473359614610672,1.4181499481201172,-0.3967852294445038,-1.635507345199585
0.8372678160667419,0.409091591835022,-0.47386008501052856,1.421883225440979,-0.3963097035884857,-1.635507345199585
0.8376052975654602,0.40924882888793945,-0.47427424788475037,1.4251506328582764,-0.3959319591522217,-1.635507345199585
0.8380309343338013,0.4093542695045471,-0.474740207195282,1.4291409254074097,-0.39555227756500244,-1.635507345199585
0.8384144306182861,0.4093964695930481,-0.4751639664173126,1.4324945211410522,-0.3952857553958893,-1.635507345199585
0.8387768864631653,0.4094194769859314,-0.47561267018318176,1.435888409614563,-0.39502498507499695,-1.635507345199585
0.8391296863555908,0.4094463288784027,-0.47602492570877075,1.4392919540405273,-0.3947546184062958,-1.635507345199585
0.8394843935966492,0.4095326066017151,-0.47646594047546387,1.4433071613311768,-0.3943845331668854,-1.635507345199585
0.839781641960144,0.40966683626174927,-0.4768436849117279,1.4465994834899902,-0.39401254057884216,-1.635507345199585
0.8400922417640686,0.4098374843597412,-0.4772079885005951,1.4498668909072876,-0.3935868740081787,-1.635507345199585
0.8404815196990967,0.41005799174308777,-0.47765859961509705,1.4538053274154663,-0.3931247591972351,-1.635507345199585
0.8408036231994629,0.4102056324481964,-0.4781303107738495,1.457068920135498,-0.3927585184574127,-1.635507345199585
0.8411276936531067,0.4102976620197296,-0.4786902070045471,1.4604167938232422,-0.39244788885116577,-1.635507345199585
0.8414632678031921,0.41035327315330505,-0.47936517000198364,1.4638030529022217,-0.3921583592891693,-1.635507345199585
0.8419042825698853,0.41038778424263,-0.4800880551338196,1.4678969383239746,-0.3918572962284088,-1.635507345199585
0.8432062268257141,0.4105488657951355,-0.4814034402370453,1.4779444932937622,-0.39092734456062317,-1.635507345199585
0.843699038028717,0.41067925095558167,-0.48169296979904175,1.4811965227127075,-0.39054960012435913,-1.635507345199585
0.8440806269645691,0.41081157326698303,-0.4819173216819763,1.4839308261871338,-0.3901987075805664,-1.635507345199585
0.8444928526878357,0.4109937250614166,-0.4821915328502655,1.4873151779174805,-0.38977110385894775,-1.635507345199585
0.844889760017395,0.4112008213996887,-0.4825558364391327,1.4909948110580444,-0.3892936408519745,-1.635507345199585
0.84520423412323,0.41136378049850464,-0.48303136229515076,1.494651436805725,-0.3888545334339142,-1.635507345199585
0.845382571220398,0.41143089532852173,-0.48348966240882874,1.4980319738388062,-0.3885611593723297,-1.635507345199585
0.8455724120140076,0.4114462435245514,-0.48402079939842224,1.5018285512924194,-0.3882812261581421,-1.635507345199585
0.8458369970321655,0.4114462435245514,-0.48448866605758667,1.5056654214859009,-0.3880070149898529,-1.635507345199585
0.8461687564849854,0.41143664717674255,-0.4848625659942627,1.5097342729568481,-0.38774433732032776,-1.635507345199585
0.8465828895568848,0.411398321390152,-0.4852115511894226,1.5136420726776123,-0.3874221742153168,-1.635507345199585
0.8470737934112549,0.4113752841949463,-0.48554328083992004,1.517643928527832,-0.3870367705821991,-1.635507345199585
0.8474879264831543,0.4113752841949463,-0.4858519732952118,1.5208786725997925,-0.3866647779941559,-1.635507345199585
0.8478484153747559,0.4113829731941223,-0.486223965883255,1.5240962505340576,-0.38628512620925903,-1.635507345199585
0.8482204079627991,0.4114423990249634,-0.4867531955242157,1.527808427810669,-0.3858421742916107,-1.635507345199585
0.8484869599342346,0.4115593731403351,-0.4873341917991638,1.5316606760025024,-0.38543376326560974,-1.635507345199585
0.848671019077301,0.4116744101047516,-0.48787298798561096,1.5349222421646118,-0.38510972261428833,-1.635507345199585
0.8488742709159851,0.41178756952285767,-0.48851728439331055,1.5387821197509766,-0.3847549855709076,-1.635507345199585
0.8491159081459045,0.41187575459480286,-0.48909252882003784,1.5428779125213623,-0.38442516326904297,-1.635507345199585
0.8493862748146057,0.4119582176208496,-0.4895239472389221,1.5462909936904907,-0.38412603735923767,-1.635507345199585
0.8497985005378723,0.4120962619781494,-0.4900014102458954,1.5502716302871704,-0.38373297452926636,-1.635507345199585
0.8501819968223572,0.4122323989868164,-0.4903695583343506,1.5538688898086548,-0.3833743929862976,-1.635507345199585
0.8511158227920532,0.4125737249851227,-0.4915737211704254,1.5628023147583008,-0.3823178708553314,-1.635507345199585
0.8514053821563721,0.41266191005706787,-0.49211636185646057,1.566096544265747,-0.38193437457084656,-1.635507345199585
0.8516910672187805,0.4127117693424225,-0.49268779158592224,1.5693774223327637,-0.38158729672431946,-1.635507345199585
0.8520074486732483,0.41273096203804016,-0.49319592118263245,1.5727061033248901,-0.38128435611724854,-1.635507345199585
0.8522989153862,0.4127386212348938,-0.49365419149398804,1.5762265920639038,-0.38098904490470886,-1.635507345199585
0.8526076078414917,0.4128018915653229,-0.49409520626068115,1.580029010772705,-0.38059598207473755,-1.635507345199585
0.8528319597244263,0.41295912861824036,-0.4944230914115906,1.5830336809158325,-0.3801664710044861,-1.635507345199585
0.853081226348877,0.41321033239364624,-0.4947720766067505,1.5857564210891724,-0.3796621561050415,-1.635507345199585
0.8533362746238708,0.4134135842323303,-0.49519583582878113,1.5876930952072144,-0.3791617155075073,-1.635507345199585
0.8535510301589966,0.4135171175003052,-0.49564260244369507,1.5887688398361206,-0.37874943017959595,-1.635507345199585
0.8538386225700378,0.4136129915714264,-0.4961795210838318,1.5895856618881226,-0.37831035256385803,-1.635507345199585
0.8540591597557068,0.41365134716033936,-0.4966262876987457,1.590066909790039,-0.3779824674129486,-1.635507345199585
0.8542336225509644,0.4136801064014435,-0.4971018135547638,1.5904024839401245,-0.37769484519958496,-1.635507345199585
0.8543026447296143,0.41374146938323975,-0.4974718987941742,1.5906134843826294,-0.37752416729927063,-1.635507345199585
0.8543065190315247,0.41385650634765625,-0.49773842096328735,1.5907553434371948,-0.3774724006652832,-1.635507345199585
0.8542585372924805,0.41399648785591125,-0.497889906167984,1.590820550918579,-0.3774724006652832,-1.635507345199585
0.8540782928466797,0.41413262486457825,-0.4979627728462219,1.5908589363098145,-0.37753376364707947,-1.635507345199585
0.8538060188293457,0.41425150632858276,-0.49801453948020935,1.5908857583999634,-0.3778347969055176,-1.635507345199585
0.8535855412483215,0.4142898619174957,-0.4980759024620056,1.590899109840393,-0.37822598218917847,-1.635507345199585
0.853420615196228,0.4142898619174957,-0.4981813430786133,1.5909087657928467,-0.37868234515190125,-1.635507345199585
0.8532959818840027,0.41427069902420044,-0.498298317193985,1.590916395187378,-0.3791751265525818,-1.635507345199585
0.8531790375709534,0.414172887802124,-0.4984114468097687,1.5909221172332764,-0.37969475984573364,-1.635507345199585
0.8527916669845581,0.4137778878211975,-0.49858593940734863,1.5909298658370972,-0.38094112277030945,-1.635507345199585
0.8526268005371094,0.4137261211872101,-0.49858593940734863,1.5909298658370972,-0.3811807930469513,-1.635507345199585
0.8524101376533508,0.4136858582496643,-0.49858593940734863,1.59093177318573,-0.3814396560192108,-1.635507345199585
0.8522164225578308,0.4136570990085602,-0.4985801875591278,1.59093177318573,-0.3816870152950287,-1.635507345199585
0.8520687818527222,0.4136359989643097,-0.4985590875148773,1.59093177318573,-0.3818998634815216,-1.635507345199585
0.851934552192688,0.4135957360267639,-0.498536080121994,1.5909336805343628,-0.38216638565063477,-1.635507345199585
0.8518233895301819,0.4135017693042755,-0.4985303282737732,1.5909336805343628,-0.38250577449798584,-1.635507345199585
0.8517600893974304,0.4134058952331543,-0.4985303282737732,1.5909336805343628,-0.38276463747024536,-1.635507345199585
0.8516450524330139,0.4133387804031372,-0.4985284209251404,1.5909336805343628,-0.3829985558986664,-1.635507345199585
0.8514801263809204,0.41332152485847473,-0.49849581718444824,1.5909336805343628,-0.3831462264060974,-1.635507345199585
0.851288378238678,0.4133196175098419,-0.4984613060951233,1.5909336805343628,-0.38326317071914673,-1.635507345199585
0.8510563969612122,0.4133196175098419,-0.4984210431575775,1.5909336805343628,-0.38338589668273926,-1.635507345199585
0.8508818745613098,0.4133196175098419,-0.498399943113327,1.5909336805343628,-0.38352012634277344,-1.635507345199585
0.8507323265075684,0.4133196175098419,-0.498399943113327,1.5909336805343628,-0.3837597966194153,-1.635507345199585
0.8506671190261841,0.4132736027240753,-0.49847665429115295,1.5909355878829956,-0.38408002257347107,-1.635507345199585
0.8506460189819336,0.41316622495651245,-0.4986415505409241,1.5909355878829956,-0.384390652179718,-1.635507345199585
0.8506211042404175,0.4129955768585205,-0.4988294541835785,1.5909355878829956,-0.38474729657173157,-1.635507345199585
0.8505865931510925,0.41286900639533997,-0.49895983934402466,1.5909355878829956,-0.3850157558917999,-1.635507345199585
0.8505175709724426,0.4127693176269531,-0.49907106161117554,1.5909355878829956,-0.3852918744087219,-1.635507345199585
0.8504523634910583,0.41270220279693604,-0.49916884303092957,1.5909355878829956,-0.38557565212249756,-1.635507345199585
0.8504063487052917,0.41266191005706787,-0.4992455542087555,1.5909355878829956,-0.38580000400543213,-1.635507345199585
0.85037761926651,0.4125986397266388,-0.49935677647590637,1.5909355878829956,-0.3860876262187958,-1.635507345199585
0.8503584265708923,0.4122995138168335,-0.4996194541454315,1.5909355878829956,-0.3868277668952942,-1.635507345199585
0.850335419178009,0.4121902287006378,-0.4996884763240814,1.5909355878829956,-0.3870847225189209,-1.635507345199585
0.8502817153930664,0.41210970282554626,-0.4997268319129944,1.5909355878829956,-0.3873109817504883,-1.635507345199585
0.8501973748207092,0.4120732545852661,-0.4997325837612152,1.5909355878829956,-0.38748353719711304,-1.635507345199585
0.8500535488128662,0.4120675027370453,-0.4997325837612152,1.5909355878829956,-0.3876427114009857,-1.635507345199585
0.8499346375465393,0.4120675027370453,-0.4996884763240814,1.5909355878829956,-0.38774624466896057,-1.635507345199585
0.8498215079307556,0.4120675027370453,-0.4995657801628113,1.5909355878829956,-0.3878440260887146,-1.635507345199585
0.849723756313324,0.4120675027370453,-0.49948716163635254,1.5909355878829956,-0.38797634840011597,-1.635507345199585
0.8496067523956299,0.4120675027370453,-0.4994584023952484,1.5909355878829956,-0.388171911239624,-1.635507345199585
0.8494783043861389,0.41205790638923645,-0.4994564652442932,1.5909355878829956,-0.3884020149707794,-1.635507345199585
0.8493651747703552,0.4119984805583954,-0.4994564652442932,1.5909355878829956,-0.38863977789878845,-1.635507345199585
0.8492596745491028,0.4118834435939789,-0.49946990609169006,1.5909355878829956,-0.3889216482639313,-1.635507345199585
0.8491849303245544,0.4117664694786072,-0.499500572681427,1.5909355878829956,-0.3891613483428955,-1.635507345199585
0.849129319190979,0.4116744101047516,-0.49953126907348633,1.5909355878829956,-0.3893665075302124,-1.635507345199585
0.8490929007530212,0.4116092324256897,-0.49955618381500244,1.5909355878829956,-0.38954290747642517,-1.635507345199585
0.849044919013977,0.41154977679252625,-0.49957919120788574,1.5909355878829956,-0.38972315192222595,-1.635507345199585
0.8489202857017517,0.41143664717674255,-0.499640554189682,1.5909355878829956,-0.38997435569763184,-1.635507345199585
0.8487573266029358,0.4113101065158844,-0.4997287690639496,1.5909355878829956,-0.39020636677742004,-1.635507345199585
0.8485367894172668,0.4111490249633789,-0.4998514652252197,1.5909355878829956,-0.39046522974967957,-1.635507345199585
0.8483795523643494,0.41102248430252075,-0.4999415874481201,1.5909355878829956,-0.3906761407852173,-1.635507345199585
0.8483029007911682,0.4109151065349579,-0.4999818503856659,1.5909355878829956,-0.3908659815788269,-1.635507345199585
0.848297119140625,0.4106217324733734,-0.4999856948852539,1.5909355878829956,-0.3913932740688324,-1.635507345199585
0.8483431339263916,0.41053736209869385,-0.49997419118881226,1.5909355878829956,-0.3915275037288666,-1.635507345199585
0.8484045267105103,0.4104127287864685,-0.4999569356441498,1.5909355878829956,-0.39170584082603455,-1.635507345199585
0.848448634147644,0.4102784991264343,-0.4999569356441498,1.5909355878829956,-0.39189374446868896,-1.635507345199585
0.8484696745872498,0.4101807177066803,-0.4999569356441498,1.5909355878829956,-0.3920452296733856,-1.635507345199585
0.8484696745872498,0.4101327657699585,-0.4999665319919586,1.5909355878829956,-0.39216986298561096,-1.635507345199585
0.8484447598457336,0.41012701392173767,-0.49999910593032837,1.5909355878829956,-0.39225614070892334,-1.635507345199585
0.848347008228302,0.41012701392173767,-0.5000489950180054,1.5909355878829956,-0.3923577666282654,-1.635507345199585
0.8482300043106079,0.41012701392173767,-0.5001256465911865,1.5909355878829956,-0.3924939036369324,-1.635507345199585
0.8481091856956482,0.4101136028766632,-0.5002733469009399,1.5909355878829956,-0.3927259147167206,-1.635507345199585
0.8480651378631592,0.4100234806537628,-0.500419020652771,1.5909355878829956,-0.3929656147956848,-1.635507345199585
0.8480574488639832,0.4098566472530365,-0.5005475282669067,1.5909355878829956,-0.3932206332683563,-1.635507345199585
0.8480516672134399,0.40966683626174927,-0.5006414651870728,1.5909355878829956,-0.393469899892807,-1.635507345199585
0.8480344414710999,0.4095422029495239,-0.5006568431854248,1.5909355878829956,-0.3936367332935333,-1.635507345199585
0.8479750156402588,0.4094673991203308,-0.5006568431854248,1.5909355878829956,-0.39372876286506653,-1.635507345199585
0.8478657007217407,0.40942713618278503,-0.5006568431854248,1.5909355878829956,-0.39378437399864197,-1.635507345199585
0.8477582931518555,0.4093734622001648,-0.5006568431854248,1.5909355878829956,-0.39384958148002625,-1.635507345199585
0.8476356267929077,0.4093025028705597,-0.5006568431854248,1.5909355878829956,-0.3939301073551178,-1.635507345199585
0.8475819230079651,0.40917977690696716,-0.5006568431854248,1.5909355878829956,-0.3940528333187103,-1.635507345199585
0.8475704193115234,0.40897271037101746,-0.5006568431854248,1.5909355878829956,-0.39424458146095276,-1.635507345199585
0.8475704193115234,0.4088154733181,-0.5006721615791321,1.5909355878829956,-0.3943902850151062,-1.635507345199585
0.8475704193115234,0.40869659185409546,-0.5006740689277649,1.5909355878829956,-0.3945245146751404,-1.635507345199585
0.8475704193115234,0.40862178802490234,-0.5006740689277649,1.5909355878829956,-0.3946165442466736,-1.635507345199585
0.8472751379013062,0.4084089696407318,-0.5006663799285889,1.5909355878829956,-0.39493677020072937,-1.635507345199585
0.8471121191978455,0.40832650661468506,-0.5006663799285889,1.5909355878829956,-0.3950537443161011,-1.635507345199585
0.846912682056427,0.40821337699890137,-0.5006663799285889,1.5909355878829956,-0.39520713686943054,-1.635507345199585
0.846717119216919,0.4080177843570709,-0.5007181763648987,1.5909355878829956,-0.39544299244880676,-1.635507345199585
0.8465943932533264,0.407808780670166,-0.5008082985877991,1.5909355878829956,-0.39569035172462463,-1.635507345199585
0.8465330600738525,0.4076208770275116,-0.5008926391601562,1.5909355878829956,-0.39592620730400085,-1.635507345199585
0.8465196490287781,0.40746748447418213,-0.5009406208992004,1.5909355878829956,-0.39613136649131775,-1.635507345199585
0.8465196490287781,0.4073505103588104,-0.5009559392929077,1.5909355878829956,-0.3962981700897217,-1.635507345199585
0.8465196490287781,0.40728339552879333,-0.5009636282920837,1.5909355878829956,-0.39642664790153503,-1.635507345199585
0.846504271030426,0.4072738289833069,-0.5009693503379822,1.5909355878829956,-0.3964822590351105,-1.635507345199585
0.8464506268501282,0.4072718918323517,-0.5010077357292175,1.5909355878829956,-0.3965359628200531,-1.635507345199585
0.8463643193244934,0.40726998448371887,-0.501149594783783,1.5909355878829956,-0.39663565158843994,-1.635507345199585
0.846308708190918,0.40722203254699707,-0.5012896060943604,1.5909355878829956,-0.3967890441417694,-1.635507345199585
0.8462799191474915,0.4071357548236847,-0.5014161467552185,1.5909355878829956,-0.39696162939071655,-1.635507345199585
0.8462569117546082,0.40703222155570984,-0.5015407800674438,1.5909355878829956,-0.397157222032547,-1.635507345199585
0.8462454080581665,0.4069766104221344,-0.5016040205955505,1.5909355878829956,-0.3972741663455963,-1.635507345199585
0.846231997013092,0.4069229066371918,-0.5016481280326843,1.5909355878829956,-0.39742565155029297,-1.635507345199585
0.846231997013092,0.40687307715415955,-0.5016654133796692,1.5909355878829956,-0.39755988121032715,-1.635507345199585
0.846231997013092,0.4067925214767456,-0.5016922354698181,1.5909355878829956,-0.39771902561187744,-1.635507345199585
0.846231997013092,0.4066583216190338,-0.5017862319946289,1.5909355878829956,-0.39793187379837036,-1.635507345199585
0.8462281823158264,0.4065183401107788,-0.5019338726997375,1.5909355878829956,-0.39811787009239197,-1.635507345199585
0.8458849191665649,0.40627482533454895,-0.5024439096450806,1.5909355878829956,-0.3984054923057556,-1.635507345199585
0.8457660675048828,0.40627288818359375,-0.5024746060371399,1.5909355878829956,-0.3984265923500061,-1.635507345199585
0.8456606268882751,0.40627288818359375,-0.5024956464767456,1.5909355878829956,-0.3984515070915222,-1.635507345199585
0.8456011414527893,0.40627288818359375,-0.5025052428245544,1.5909355878829956,-0.39850327372550964,-1.635507345199585
0.8455877304077148,0.4062671363353729,-0.5025052428245544,1.5909355878829956,-0.3985818922519684,-1.635507345199585
0.845585823059082,0.4062575399875641,-0.5025052428245544,1.5909355878829956,-0.3986816108226776,-1.635507345199585
0.845585823059082,0.4062192142009735,-0.502499520778656,1.5909355878829956,-0.3987985849380493,-1.635507345199585
0.845585823059082,0.4061520993709564,-0.5024765133857727,1.5909355878829956,-0.3989347219467163,-1.635507345199585
0.8455647230148315,0.4060830771923065,-0.502465009689331,1.5909355878829956,-0.39906126260757446,-1.635507345199585
0.845491886138916,0.4060063660144806,-0.502465009689331,1.5909355878829956,-0.3992031514644623,-1.635507345199585
0.8453959822654724,0.40592390298843384,-0.502465009689331,1.5909355878829956,-0.3993412256240845,-1.635507345199585
0.8453077673912048,0.4058299660682678,-0.502465009689331,1.5909355878829956,-0.3994907736778259,-1.635507345199585
0.8452560305595398,0.40572449564933777,-0.502499520778656,1.5909355878829956,-0.39965951442718506,-1.635507345199585
0.8452272415161133,0.40562671422958374,-0.5025455355644226,1.5909355878829956,-0.39981865882873535,-1.6355092525482178
0.8451946377754211,0.40553465485572815,-0.5025800466537476,1.5909355878829956,-0.3999720811843872,-1.6355092525482178
0.8451467156410217,0.4054560363292694,-0.5026068687438965,1.5909355878829956,-0.4001043736934662,-1.6355092525482178
0.8450853824615479,0.405365914106369,-0.5026260614395142,1.5909355878829956,-0.4002443552017212,-1.6355092525482178
0.8450297713279724,0.4052930772304535,-0.502643346786499,1.5909355878829956,-0.40037858486175537,-1.6355092525482178
0.8450047969818115,0.40523746609687805,-0.5026548504829407,1.5909355878829956,-0.40048977732658386,-1.6355092525482178
0.8450009822845459,0.4051722586154938,-0.5026758909225464,1.5909355878829956,-0.4006125032901764,-1.6355092525482178
0.8450009822845459,0.4050840735435486,-0.5027142763137817,1.5909355878829956,-0.40074482560157776,-1.6355092525482178
0.8450009822845459,0.40500545501708984,-0.5027449727058411,1.5909355878829956,-0.40085986256599426,-1.6355092525482178
0.8450009822845459,0.4049479067325592,-0.5027602910995483,1.5909355878829956,-0.4009787440299988,-1.6355092525482178
0.8447805047035217,0.4047005772590637,-0.502900242805481,1.5909355878829956,-0.40136608481407166,-1.6355092525482178
0.8445829749107361,0.40457209944725037,-0.5030037760734558,1.5909355878829956,-0.4015348255634308,-1.6355092525482178
0.844414234161377,0.4044685363769531,-0.5030919909477234,1.5909355878829956,-0.40168052911758423,-1.6355092525482178
0.8442128896713257,0.4043304920196533,-0.5031993985176086,1.5909355878829956,-0.40186652541160583,-1.6355092525482178
0.8440710306167603,0.40419241786003113,-0.5032933354377747,1.5909355878829956,-0.4020410180091858,-1.6355092525482178
0.8439981341362,0.4040716290473938,-0.5033432245254517,1.5909355878829956,-0.40219825506210327,-1.6355092525482178
0.8439579010009766,0.4039565920829773,-0.5033604502677917,1.5909355878829956,-0.40235739946365356,-1.6355092525482178
0.8439540266990662,0.4038396179676056,-0.5033604502677917,1.5909355878829956,-0.40251463651657104,-1.6355092525482178
0.8439540266990662,0.4037207365036011,-0.5033604502677917,1.5909355878829956,-0.4026718735694885,-1.6355092525482178
0.8439540266990662,0.40359801054000854,-0.5033604502677917,1.5909355878829956,-0.40283870697021484,-1.6355092525482178
0.8439329266548157,0.4034676253795624,-0.5033796429634094,1.5909355878829956,-0.40302470326423645,-1.6355092525482178
0.8438044786453247,0.4033046364784241,-0.5034850835800171,1.5909355878829956,-0.4032471179962158,-1.6355092525482178
0.8436549305915833,0.40318191051483154,-0.503596305847168,1.5909355878829956,-0.40341776609420776,-1.6355092525482178
0.843461275100708,0.40304961800575256,-0.5037247538566589,1.5909355878829956,-0.4036114513874054,-1.6355092525482178
0.8433155417442322,0.4029441475868225,-0.5038072466850281,1.5909355878829956,-0.4037686586380005,-1.6355092525482178
0.8432273268699646,0.4028310179710388,-0.503841757774353,1.5909355878829956,-0.40394315123558044,-1.6355092525482178
0.8432024121284485,0.40270447731018066,-0.5038704872131348,1.5909355878829956,-0.4041233956813812,-1.6355092525482178
0.8431985378265381,0.4025721549987793,-0.5039203763008118,1.5909355878829956,-0.4042978882789612,-1.6355111598968506
0.8431966304779053,0.40246477723121643,-0.504004716873169,1.5909355878829956,-0.4044417142868042,-1.6355111598968506
0.8431832194328308,0.40240341424942017,-0.5041197538375854,1.5909355878829956,-0.40454909205436707,-1.6355111598968506
0.8431295156478882,0.4023669958114624,-0.5042290687561035,1.5909355878829956,-0.4046430289745331,-1.6355111598968506
0.8430259823799133,0.40233632922172546,-0.5043210983276367,1.5909355878829956,-0.4047561585903168,-1.6355111598968506
0.8427402973175049,0.4021311402320862,-0.5045262575149536,1.5909355878829956,-0.4052527844905853,-1.6355111598968506
0.8427153825759888,0.4019988477230072,-0.5046144723892212,1.5909355878829956,-0.4054598808288574,-1.6355111598968506
0.8427076935768127,0.4017917513847351,-0.504708468914032,1.5909355878829956,-0.40569764375686646,-1.6355111598968506
0.8427076935768127,0.40154632925987244,-0.504767894744873,1.5909355878829956,-0.4059143364429474,-1.6355111598968506
0.8427076935768127,0.40131813287734985,-0.5047985911369324,1.5909355878829956,-0.40609264373779297,-1.6355111598968506
0.8427076935768127,0.4011474847793579,-0.5048043131828308,1.5909355878829956,-0.4062096178531647,-1.6355111598968506
0.8427038788795471,0.40104585886001587,-0.5048043131828308,1.5909355878829956,-0.40627673268318176,-1.6355111598968506
0.8426463007926941,0.40097299218177795,-0.5048043131828308,1.5909355878829956,-0.4063131511211395,-1.6355111598968506
0.8425504565238953,0.400896281003952,-0.5048043131828308,1.5909355878829956,-0.40633425116539,-1.6355111598968506
0.8424565196037292,0.40078699588775635,-0.5048043131828308,1.5909355878829956,-0.4063572585582733,-1.6355111598968506
0.842399001121521,0.40064701437950134,-0.5048733353614807,1.5909355878829956,-0.40641671419143677,-1.6355111598968506
0.8423606157302856,0.40046101808547974,-0.5050171613693237,1.5909355878829956,-0.406512588262558,-1.6355111598968506
0.842341423034668,0.4003191292285919,-0.5051398873329163,1.5909355878829956,-0.40661802887916565,-1.6355111598968506
0.8423299193382263,0.4002692699432373,-0.5051801204681396,1.5909336805343628,-0.4066717326641083,-1.6355111598968506
0.842306911945343,0.40025201439857483,-0.5052012205123901,1.5909336805343628,-0.4067215919494629,-1.6355111598968506
0.8422436714172363,0.400242418050766,-0.5052165985107422,1.5909336805343628,-0.40680211782455444,-1.6355111598968506
0.8421631455421448,0.4002405107021332,-0.5052300095558167,1.5909336805343628,-0.4069114029407501,-1.6355111598968506
0.8420960307121277,0.40021175146102905,-0.5053143501281738,1.5909336805343628,-0.4071165919303894,-1.6355111598968506
0.8420787453651428,0.4001254737377167,-0.505456268787384,1.5909336805343628,-0.40735435485839844,-1.6355111598968506
0.842069149017334,0.39998549222946167,-0.505626916885376,1.59093177318573,-0.40765732526779175,-1.6355111598968506
0.8420672416687012,0.39986851811408997,-0.5057764649391174,1.59093177318573,-0.40790849924087524,-1.6355111598968506
0.8420672416687012,0.3997170329093933,-0.5059682130813599,1.59093177318573,-0.40820762515068054,-1.6355111598968506
0.8420672416687012,0.39959239959716797,-0.5061082243919373,1.59093177318573,-0.40846073627471924,-1.6355111598968506
0.8419982194900513,0.3995310366153717,-0.5061906576156616,1.59093177318573,-0.40868890285491943,-1.6355111598968506
0.8417163491249084,0.3995272219181061,-0.5062078833580017,1.59093177318573,-0.40889599919319153,-1.6355111598968506
0.8416415452957153,0.3995272219181061,-0.5062078833580017,1.59093177318573,-0.40897271037101746,-1.6355111598968506
0.8415994048118591,0.3995272219181061,-0.5062136650085449,1.59093177318573,-0.40908583998680115,-1.6355111598968506
0.8415783047676086,0.3995272219181061,-0.5062960982322693,1.59093177318573,-0.4092794954776764,-1.6355111598968506
0.8415744304656982,0.3995272219181061,-0.5064150094985962,1.59093177318573,-0.40946164727211,-1.6355111598968506
0.8415648937225342,0.3995080292224884,-0.5065587759017944,1.59093177318573,-0.4096706509590149,-1.6355111598968506
0.8415418863296509,0.39944666624069214,-0.5066834688186646,1.59093177318573,-0.4098374843597412,-1.6355111598968506
0.8414708971977234,0.3993718922138214,-0.5067716240882874,1.59093177318573,-0.40998703241348267,-1.6355111598968506
0.841388463973999,0.3993488848209381,-0.5068061351776123,1.5909298658370972,-0.4100675880908966,-1.6355111598968506
0.8413213491439819,0.3993488848209381,-0.5068138241767883,1.5909298658370972,-0.4101097583770752,-1.6355111598968506
0.8412887454032898,0.3993431329727173,-0.5068387389183044,1.5909298658370972,-0.41019222140312195,-1.6355111598968506
0.8412887454032898,0.3993009626865387,-0.506919264793396,1.5909298658370972,-0.4103245139122009,-1.6355111598968506
0.8412983417510986,0.39919933676719666,-0.5070573687553406,1.5909298658370972,-0.4104990065097809,-1.6355111598968506
0.8413424491882324,0.3990651071071625,-0.5072184205055237,1.5909298658370972,-0.4106888473033905,-1.6355111598968506
0.841380774974823,0.3989519774913788,-0.5073583722114563,1.5909298658370972,-0.4108690917491913,-1.6355111598968506
0.841388463973999,0.39887911081314087,-0.5074619650840759,1.5909298658370972,-0.4110128879547119,-1.6355111598968506
0.8413711786270142,0.3988388478755951,-0.507513701915741,1.5909298658370972,-0.41111645102500916,-1.6355111598968506
0.8412772417068481,0.39882540702819824,-0.5075367093086243,1.5909298658370972,-0.4111988842487335,-1.6355111598968506
0.8411391973495483,0.3988139033317566,-0.507573127746582,1.5909298658370972,-0.41129860281944275,-1.6355111598968506
0.8410011529922485,0.39876788854599,-0.5076460242271423,1.5909298658370972,-0.4114519953727722,-1.6355111598968506
0.8408995270729065,0.398635596036911,-0.5077533721923828,1.5909298658370972,-0.4116494953632355,-1.6355111598968506
0.8408669233322144,0.39843425154685974,-0.5078473687171936,1.5909298658370972,-0.4118450880050659,-1.6355111598968506
0.8408094048500061,0.3979682922363281,-0.5079278945922852,1.5909298658370972,-0.41217678785324097,-1.6355111598968506
0.8407844305038452,0.3978532552719116,-0.5079336166381836,1.5909298658370972,-0.41221708059310913,-1.6355111598968506
0.8407461047172546,0.3977765440940857,-0.5079355239868164,1.5909298658370972,-0.4122362434864044,-1.6355111598968506
0.8406636714935303,0.397709459066391,-0.5079355239868164,1.5909298658370972,-0.4122496545314789,-1.6355111598968506
0.8405256271362305,0.39767685532569885,-0.5079355239868164,1.5909298658370972,-0.4122573435306549,-1.6355111598968506
0.8404009342193604,0.39765191078186035,-0.507937490940094,1.5909298658370972,-0.41226691007614136,-1.6355111598968506
0.8403127789497375,0.3975905776023865,-0.5079950094223022,1.5909298658370972,-0.4123072028160095,-1.6355111598968506
0.8402628898620605,0.3974831700325012,-0.5081100463867188,1.5909298658370972,-0.4123992323875427,-1.6355111598968506
0.8402494788169861,0.3973432183265686,-0.5082461833953857,1.5909298658370972,-0.41252195835113525,-1.6355111598968506
