Der-mark/objtrans/data/qtarget_trajectory.csv
q0,q1,q2,q3,q4,q5
0.0,0.0,0.0,0.0,0.0,0.0
-0.004,-0.004,0.004,-0.004,-0.004,-0.004
-0.008,0.0,0.0,0.0,0.0,0.0
-0.012,0.004,-0.004,0.004,0.004,0.004
-0.016,0.008,-0.008,0.008,0.008,0.008
-0.020000001,0.012,-0.012,0.012,0.012,0.012
-0.024000002,0.016,-0.016,0.016,0.016,0.016
-0.024794882,0.020000001,-0.020000001,0.020000001,0.020000001,0.020000001
-0.024723912,0.024000002,-0.024000002,0.024000002,0.024000002,0.024000002
-0.024746632,0.028000003,-0.028000003,0.028000003,0.028000003,0.028000003
-0.02457269,0.032,-0.032,0.032,0.032,0.032
-0.024486465,0.036000002,-0.036000002,0.036000002,0.036000002,0.036000002
-0.024417197,0.040000003,-0.040000003,0.040000003,0.040000003,0.040000003
-0.024390826,0.044000003,-0.044000003,0.044000003,0.044000003,0.044000003
-0.024141887,0.048000004,-0.048000004,0.048000004,0.048000004,0.048000004
-0.024139117,0.052000005,-0.052000005,0.052000005,0.05053428,0.052000005
-0.023979377,0.056000005,-0.055883594,0.056000005,0.050925553,0.056000005
-0.023813574,0.060000006,-0.056227177,0.060000006,0.0513945,0.060000006
-0.02383184,0.064,-0.056229066,0.064,0.051349618,0.064
-0.023658868,0.068,-0.05659623,0.068,0.051855206,0.068
-0.02371945,0.072000004,-0.05668607,0.06898426,0.051865537,0.072000004
-0.023696505,0.076000005,-0.05693806,0.06890034,0.052125204,0.076000005
-0.023562837,0.080000006,-0.05737871,0.068672754,0.052673537,0.080000006
-0.023626901,0.08400001,-0.057472248,0.06869368,0.052694123,0.08400001
-0.0235581,0.08800001,-0.057777464,0.06854653,0.053046174,0.08800001
-0.023566261,0.09200001,-0.0581988,0.068463884,0.053455412,0.09200001
-0.023536336,0.09378768,-0.05844394,0.068356305,0.05371328,0.09600001
-0.023508504,0.094025105,-0.05877461,0.068243526,0.054060537,0.10000001
-0.023499109,0.09414407,-0.058965754,0.06815994,0.054249752,0.10400001
-0.023403097,0.09470906,-0.05964437,0.06793528,0.055009432,0.10800001
-0.023387825,0.09493126,-0.059986968,0.067826055,0.055360835,0.11200001
-0.023378167,0.09510101,-0.06025807,0.06772364,0.055635512,0.11600001
-0.023319699,0.09541439,-0.060633637,0.067569904,0.05605669,0.12000001
-0.023287788,0.09571964,-0.061069008,0.06742179,0.056518298,0.12400001
-0.023289753,0.095876925,-0.061343323,0.06733839,0.05679301,0.128
-0.023331957,0.09592657,-0.061538458,0.06730249,0.056959134,0.132
-0.023274405,0.09626203,-0.06196044,0.06715265,0.057431187,0.13599999
-0.023292653,0.09637698,-0.062208127,0.0671001,0.05767262,0.13999999
-0.023349568,0.09645398,-0.06249551,0.067081794,0.057929665,0.14399998
-0.02341646,0.09645241,-0.062672116,0.06709988,0.058066852,0.14799997
-0.023486102,0.096439645,-0.06283485,0.06711552,0.05818978,0.15199997
-0.023504855,0.09656762,-0.06311793,0.06708064,0.05847254,0.15599996
-0.023622671,0.096485235,-0.06328397,0.06713181,0.058570273,0.15999995
-0.023615932,0.09660086,-0.06347759,0.067084305,0.058779743,0.16399994
-0.02369572,0.09662298,-0.06373604,0.06709535,0.05900227,0.16799994
-0.023764987,0.09659817,-0.06387566,0.067112826,0.059108425,0.17199993
-0.023754638,0.096798874,-0.064230435,0.06704283,0.0594933,0.17599992
-0.023818813,0.096759126,-0.06432931,0.06706371,0.059561014,0.17999992
-0.023837492,0.096888565,-0.06462882,0.067011535,0.05987447,0.18399991
-0.023845127,0.09698566,-0.064836904,0.066968,0.060096927,0.1879999
-0.023854543,0.09702676,-0.06493499,0.06693109,0.06020409,0.1919999
-0.02384249,0.09718513,-0.065212235,0.06686027,0.06051541,0.19599989
-0.023838129,0.09729274,-0.06541004,0.06680439,0.060737718,0.19999988
-0.023835752,0.09738996,-0.06559499,0.06675408,0.060944643,0.20399988
-0.023829592,0.09752913,-0.06585478,0.0666833,0.06123818,0.20799987
-0.023807023,0.09765381,-0.06603741,0.066610985,0.06145764,0.21199986
-0.0237712,0.09779426,-0.06621304,0.06652556,0.061678227,0.21599986
-0.023745952,0.09794672,-0.06644774,0.06643876,0.06195855,0.21999985
-0.023713686,0.0980769,-0.06661689,0.066360824,0.06216907,0.22399984
-0.023666617,0.0982297,-0.066787325,0.06626474,0.06239089,0.22799984
-0.02362881,0.09836554,-0.06695243,0.06618067,0.06259957,0.23199983
-0.02359267,0.09854147,-0.06721058,0.066080086,0.06290962,0.23599982
-0.023547433,0.09867705,-0.06735205,0.06598939,0.06309629,0.23999982
-0.023488441,0.09883549,-0.06749822,0.06588087,0.06329662,0.24399981
-0.023442736,0.09898305,-0.067664854,0.0657837,0.06350898,0.2479998
-0.023395462,0.0991719,-0.06791615,0.06566381,0.063815914,0.2519998
-0.023348859,0.09931844,-0.06807611,0.0655605,0.06401925,0.2559998
-0.023310978,0.099450015,-0.06823142,0.06546557,0.06421138,0.2599998
-0.023267819,0.09960217,-0.06841462,0.0653581,0.06443627,0.26399982
-0.023250489,0.0997894,-0.06875715,0.06523836,0.06480535,0.26799983
-0.02316636,0.09994336,-0.06880122,0.06510057,0.06490327,0.27199984
-0.0230859,0.1001127,-0.06890307,0.06497102,0.06507759,0.27599984
-0.023109857,0.10029911,-0.06937977,0.06486434,0.06555039,0.27999985
-0.023118073,0.100399874,-0.06959649,0.06476687,0.06574231,0.28399986
-0.023060203,0.10058808,-0.06979273,0.06460475,0.06597389,0.28799987
-0.023008604,0.10078213,-0.070023514,0.06444772,0.066232614,0.29199988
-0.0229626,0.100988984,-0.070295215,0.06428067,0.06652245,0.29599988
-0.022941282,0.101175204,-0.07059791,0.06412716,0.06682116,0.2999999
-0.02293275,0.10136161,-0.07093262,0.06396523,0.06713398,0.3039999
-0.02296449,0.10157996,-0.07144966,0.06377302,0.06758945,0.3079999
-0.02299249,0.1017311,-0.071802795,0.063613676,0.067874074,0.31199992
-0.023053465,0.101906136,-0.07230629,0.06343969,0.06828268,0.314
-0.023169821,0.10201042,-0.07278996,0.06328978,0.068579696,0.314
-0.023327878,0.10206421,-0.07331189,0.063173406,0.06890607,0.314
-0.023371242,0.102134086,-0.07355145,0.063092284,0.06907485,0.314
-0.023372179,0.1022139,-0.07370945,0.06303127,0.06922398,0.314
-0.023626115,0.10214996,-0.07432957,0.06303839,0.06961768,0.314
-0.023566393,0.10219975,-0.07426756,0.063020565,0.06962153,0.314
-0.023710636,0.10217841,-0.0746567,0.06302386,0.069886476,0.314
-0.02365258,0.10225035,-0.074646406,0.0630026,0.06993896,0.314
-0.023834422,0.102208875,-0.075127296,0.06302872,0.070282094,0.314
-0.023868298,0.10221823,-0.07525958,0.06303569,0.070393756,0.314
-0.02394391,0.10219294,-0.075450085,0.063059755,0.07053237,0.314
-0.024161426,0.10208147,-0.0758929,0.063121706,0.07080547,0.314
-0.024069775,0.102159694,-0.07580968,0.063111745,0.07082654,0.314
-0.02424052,0.10207057,-0.07615981,0.0631706,0.07104705,0.314
-0.024187533,0.10213184,-0.07615386,0.063166924,0.07110765,0.314
-0.02437651,0.10199716,-0.0764738,0.063260205,0.07128972,0.314
-0.024342801,0.10203111,-0.07647847,0.063274354,0.07135268,0.314
-0.02465165,0.101787664,-0.07695117,0.06343231,0.07159939,0.314
-0.02451248,0.10191073,-0.07682164,0.063399,0.07161748,0.314
-0.02478049,0.10167787,-0.0771842,0.06355116,0.071780674,0.314
-0.024629265,0.10182805,-0.07707487,0.063509576,0.07182724,0.314
-0.024978954,0.101514675,-0.077541225,0.06371649,0.07204554,0.314
-0.024737988,0.101731695,-0.07728246,0.06363351,0.072003804,0.314
-0.025113482,0.10138655,-0.07776716,0.06386222,0.07222353,0.314
-0.02496546,0.1015332,-0.07766651,0.063818164,0.07228174,0.314
-0.025244493,0.10124846,-0.077961884,0.06401097,0.07237412,0.314
-0.02500596,0.101493895,-0.077794366,0.063929185,0.072438985,0.314
-0.025254939,0.10122432,-0.078032784,0.06412731,0.072500035,0.314
-0.02509707,0.101379134,-0.07795245,0.06411754,0.07260833,0.314
-0.024972945,0.10147335,-0.07781637,0.06411668,0.07260874,0.314
-0.02497755,0.10148162,-0.0779352,0.06417709,0.07278961,0.314
-0.025033286,0.10141956,-0.078036524,0.06427704,0.07288656,0.314
-0.02512301,0.10131277,-0.07820841,0.064431965,0.07307457,0.314
-0.024967294,0.10144202,-0.07804716,0.06443376,0.07306697,0.314
-0.02490832,0.10146953,-0.077979475,0.06449092,0.073083185,0.314
-0.024812438,0.10154005,-0.07789305,0.06452338,0.07311418,0.314
-0.024800686,0.101528406,-0.077889025,0.06459034,0.07315779,0.314
-0.024830779,0.10147833,-0.07795234,0.064698406,0.0732471,0.314
-0.024694266,0.10158449,-0.0777963,0.064708665,0.073224865,0.314
-0.024604637,0.10165433,-0.07769855,0.06473554,0.07321506,0.314
-0.024513435,0.10172317,-0.0776052,0.06476309,0.07322078,0.314
-0.024544334,0.101677015,-0.07767206,0.06486393,0.07330684,0.314
-0.024458483,0.101748765,-0.077586934,0.06487946,0.07330609,0.314
-0.02445725,0.10173514,-0.07759227,0.06493703,0.07333581,0.314
-0.024417665,0.10176905,-0.077578805,0.064971656,0.0733762,0.314
-0.024392886,0.10178971,-0.07756612,0.065013506,0.07339289,0.314
-0.024356727,0.10182023,-0.07754673,0.06504824,0.07341824,0.314
-0.024375012,0.10178957,-0.077574275,0.065115474,0.073452935,0.314
-0.024358615,0.10178691,-0.07755691,0.06517042,0.073473,0.314
-0.024416897,0.101697184,-0.07761826,0.06529731,0.07353285,0.314
-0.024390677,0.10169951,-0.07756408,0.06534758,0.07351204,0.314
-0.024368947,0.101703934,-0.07752513,0.06539508,0.07350089,0.314
-0.024452083,0.1015774,-0.07759258,0.065542415,0.07355186,0.314
-0.024448508,0.10155207,-0.077544115,0.065606125,0.073515,0.314
-0.024479596,0.10148753,-0.07752966,0.065696076,0.07349089,0.314
-0.024524588,0.10140556,-0.077524535,0.06579186,0.073467605,0.314
-0.024604917,0.10128828,-0.07758577,0.06592751,0.0735031,0.314
-0.024644108,0.101214364,-0.07756329,0.06602019,0.073455855,0.314
-0.024655413,0.10118898,-0.07753988,0.06607657,0.07341883,0.314
-0.024716165,0.10109367,-0.07754377,0.06618493,0.073384516,0.314
-0.024809668,0.10096607,-0.07761111,0.066325374,0.073407196,0.314
-0.024807347,0.10095608,-0.0775623,0.06635143,0.073346704,0.314
-0.024954978,0.100757316,-0.0776758,0.06654656,0.073391214,0.314
-0.025004445,0.10068788,-0.077682815,0.06663183,0.07335898,0.314
-0.02505595,0.100616455,-0.07767913,0.06672069,0.07330669,0.314
-0.025117937,0.10053509,-0.07770368,0.06681498,0.073285356,0.314
-0.025202403,0.10042309,-0.07774778,0.06693136,0.07327502,0.314
-0.025310282,0.100291625,-0.077842556,0.0670721,0.07330927,0.314
-0.02537107,0.10021347,-0.07785719,0.067162685,0.07327203,0.314
-0.025410298,0.10018259,-0.07789166,0.06721951,0.07326458,0.314
-0.025494708,0.10008482,-0.07796061,0.06732821,0.07327772,0.314
-0.025609022,0.09995762,-0.078089945,0.06746558,0.07334592,0.314
-0.025662813,0.09990084,-0.078116104,0.067539394,0.07332077,0.314
-0.025720531,0.09984638,-0.07818281,0.067608796,0.07334685,0.314
-0.025788788,0.099771105,-0.0782375,0.06769455,0.07335247,0.314
-0.025832696,0.09974595,-0.07830273,0.06774407,0.07337777,0.314
-0.025959214,0.099607825,-0.07844889,0.067891106,0.07345567,0.314
-0.02598523,0.09959959,-0.07847475,0.067921914,0.07344515,0.314
-0.026048807,0.09953978,-0.078531526,0.06799778,0.07344998,0.314
-0.026099002,0.099498376,-0.07859444,0.06805378,0.073475584,0.314
-0.026224006,0.099365115,-0.07874339,0.06819632,0.073556885,0.314
-0.02619726,0.09942662,-0.07868647,0.06816526,0.07347184,0.314
-0.026324568,0.09929066,-0.07885759,0.06830709,0.073583834,0.314
-0.026356122,0.099289544,-0.078898095,0.06833647,0.073579684,0.314
-0.02644811,0.09920966,-0.07902937,0.06843379,0.07365585,0.314
-0.026476353,0.09920843,-0.07906629,0.0684585,0.073654585,0.314
-0.026533997,0.09916643,-0.07915212,0.06851629,0.073701076,0.314
-0.026583744,0.09913405,-0.07922831,0.06856447,0.07374112,0.314
-0.026650224,0.099092506,-0.07932346,0.068628095,0.0737841,0.314
-0.026719546,0.09903879,-0.07941403,0.06869716,0.07382508,0.314
-0.02681309,0.098963924,-0.0795588,0.068786964,0.07391432,0.314
-0.026862293,0.098943636,-0.07962273,0.068823904,0.07392843,0.314
-0.026935434,0.09889333,-0.07972801,0.0688829,0.07397922,0.314
-0.027083758,0.09876352,-0.0799293,0.06900657,0.07408493,0.314
-0.027123136,0.09878571,-0.07996772,0.068985306,0.07404267,0.314
-0.027409527,0.098525114,-0.08031323,0.06917797,0.07418162,0.314
-0.02760988,0.09839519,-0.080517195,0.06922918,0.07417305,0.314
-0.028344065,0.0977286,-0.08130783,0.069614574,0.07436746,0.314
-0.029230786,0.096966416,-0.08222442,0.06998598,0.07449934,0.314
-0.030545855,0.09580129,-0.083592586,0.07057896,0.07473943,0.314
-0.031587206,0.09490408,-0.08465621,0.07100999,0.07487804,0.314
-0.032697786,0.09395837,-0.08581221,0.07146172,0.0750488,0.314
-0.033728447,0.09305881,-0.086893395,0.07190693,0.075238846,0.314
-0.03475451,0.092159286,-0.08797102,0.07235626,0.07543438,0.314
-0.03595,0.091099404,-0.089261435,0.07289505,0.07572182,0.314
-0.036851343,0.09031787,-0.09022708,0.07327648,0.075912684,0.314
-0.037760705,0.08951586,-0.0911996,0.073675916,0.07611463,0.314
-0.03874604,0.088666126,-0.09226178,0.07408669,0.07632937,0.314
-0.03998973,0.08753482,-0.0935711,0.07467078,0.07660776,0.314
-0.040765297,0.08688789,-0.094464615,0.074970715,0.07683893,0.314
-0.041625027,0.086123794,-0.0954119,0.075354315,0.07707558,0.314
-0.042393237,0.085434526,-0.0962855,0.07570614,0.077331536,0.314
-0.043178163,0.08473096,-0.09716975,0.07606088,0.07758012,0.314
-0.044066455,0.083954476,-0.098165564,0.07644115,0.07783862,0.314
-0.045031127,0.083061285,-0.09926942,0.07691032,0.07819568,0.314
-0.045776617,0.08240114,-0.10012323,0.077234216,0.07844513,0.314
-0.046512973,0.08173934,-0.10096162,0.07756451,0.07869341,0.314
-0.047356326,0.08094759,-0.101962544,0.0779778,0.07905875,0.314
-0.047919095,0.080436796,-0.102658324,0.07822742,0.07931886,0.314
-0.04846657,0.07992507,-0.10333939,0.07848167,0.07958578,0.314
-0.049114645,0.079335704,-0.10413381,0.07876337,0.07986402,0.314
-0.049783062,0.078673504,-0.104983084,0.07910479,0.08023429,0.314
-0.050268292,0.078217655,-0.10561532,0.07931755,0.08049515,0.314
-0.05072535,0.07776549,-0.10621091,0.07953993,0.08075781,0.314
-0.051124055,0.07735863,-0.1067576,0.0797427,0.08103293,0.314
-0.05164649,0.07680195,-0.10746793,0.08002771,0.08140145,0.314
-0.051986855,0.07646158,-0.107962206,0.08018121,0.08165958,0.314
-0.05242898,0.07602846,-0.1085666,0.08037489,0.0819292,0.314
-0.052752074,0.07568105,-0.109055124,0.080538124,0.08221742,0.314
-0.05312107,0.07527309,-0.10955351,0.0807373,0.08247008,0.314
-0.05344761,0.07488975,-0.11009902,0.080922924,0.08285904,0.314
-0.053764205,0.07453123,-0.11053959,0.0810923,0.083094895,0.314
-0.054026414,0.0742098,-0.11102503,0.08124184,0.08348209,0.314
-0.054322876,0.073867716,-0.111443475,0.08139718,0.08371054,0.314
-0.054547,0.07363826,-0.11187047,0.08147579,0.08400636,0.314
-0.054708403,0.0734027,-0.11221057,0.081590176,0.08433703,0.314
-0.054951467,0.07308333,-0.11258551,0.0817411,0.08460272,0.314
-0.05519026,0.07277284,-0.11295811,0.08188454,0.084863655,0.314
-0.055404145,0.07247039,-0.11337923,0.08201967,0.08524449,0.314
-0.05550338,0.07232407,-0.1136681,0.08206942,0.085558355,0.314
-0.055753347,0.07201716,-0.114076495,0.08219189,0.085828684,0.314
-0.05594421,0.071718834,-0.11446964,0.082321785,0.0862182,0.314
-0.05609059,0.07155111,-0.11471585,0.08237489,0.086367816,0.314
-0.05622235,0.071294695,-0.11505177,0.08248933,0.08678252,0.314
-0.056296628,0.071185924,-0.11523149,0.08252256,0.086960845,0.314
-0.05640344,0.070942804,-0.115532815,0.08263217,0.087379515,0.314
-0.0565941,0.07068606,-0.115878455,0.08272391,0.08764454,0.314
-0.056752212,0.07039814,-0.11620515,0.082843505,0.08800774,0.314
-0.05687203,0.07020151,-0.1164631,0.082912005,0.08826957,0.314
-0.056974877,0.07001592,-0.11669612,0.08297916,0.08852998,0.314
-0.057064094,0.069825694,-0.11691071,0.0830548,0.0888087,0.314
-0.05710564,0.06969782,-0.11709472,0.0830955,0.08910523,0.314
-0.057217788,0.06942341,-0.117356084,0.08321247,0.08948906,0.314
-0.057356227,0.06921462,-0.11763557,0.08327382,0.08973259,0.314
-0.05742711,0.06905186,-0.11783277,0.08332499,0.09000367,0.314
-0.057507414,0.06886549,-0.11802019,0.0833936,0.090263,0.314
-0.05760556,0.068615556,-0.11825507,0.08348613,0.09061676,0.314
-0.057636857,0.06849915,-0.11841335,0.08351563,0.090893574,0.314
-0.057686638,0.068345,-0.11856426,0.08356631,0.09115424,0.314
-0.057772417,0.06816926,-0.118777886,0.08361348,0.091414206,0.314
-0.057847973,0.06792262,-0.11895621,0.0837084,0.09175712,0.314
-0.057885256,0.06779191,-0.11910319,0.083741345,0.09201952,0.314
-0.05796803,0.06760221,-0.119262695,0.08380202,0.09223239,0.314
-0.05795454,0.06751634,-0.11936223,0.08382084,0.09253547,0.314
-0.057964306,0.06739121,-0.11945599,0.08385937,0.09281199,0.314
-0.057993002,0.06718399,-0.11957705,0.08393546,0.09318222,0.314
-0.058057964,0.06702868,-0.11975346,0.08396777,0.09342354,0.314
-0.058082163,0.06688966,-0.11986299,0.0840052,0.09369279,0.314
-0.058118414,0.06673716,-0.11997203,0.08405075,0.093938865,0.314
-0.058134284,0.06655374,-0.120079115,0.0841096,0.094301574,0.314
-0.058131535,0.066460766,-0.12017216,0.084124416,0.094575845,0.314
-0.05813479,0.066349894,-0.12025453,0.08414935,0.0948434,0.314
-0.058187287,0.066190206,-0.120401554,0.084184535,0.09508963,0.314
-0.058187794,0.06607765,-0.12048473,0.084210135,0.09537074,0.314
-0.058182515,0.065935,-0.120586395,0.08424828,0.09574435,0.314
-0.058177352,0.06586897,-0.12069613,0.08424922,0.09600689,0.314
-0.05814621,0.065828316,-0.12079139,0.08424113,0.09630934,0.314
-0.058108103,0.06579609,-0.12087985,0.08423016,0.096617445,0.314
-0.05806754,0.06571097,-0.1209767,0.0842427,0.09703282,0.314
-0.05807217,0.06566336,-0.12114688,0.084221065,0.097304165,0.314
-0.058031388,0.065643,-0.12124969,0.084200524,0.0976248,0.314
-0.058009375,0.06559538,-0.1213509,0.0841967,0.09791487,0.314
-0.057974827,0.06552415,-0.12146344,0.0841979,0.09830966,0.314
-0.057923317,0.06553688,-0.12156754,0.08416099,0.09862363,0.314
-0.05787436,0.06552793,-0.12164881,0.08414074,0.09893735,0.314
-0.05786423,0.06548567,-0.121790744,0.08412023,0.099224895,0.314
-0.05782972,0.06545041,-0.121883586,0.08410821,0.099541195,0.314
-0.057793524,0.06537902,-0.12198486,0.08410877,0.09993988,0.314
-0.05777442,0.06535234,-0.12209822,0.08408811,0.100204706,0.314
-0.057731874,0.06534399,-0.12219435,0.08406127,0.10051682,0.314
-0.05768134,0.06533815,-0.122267306,0.08403676,0.10083319,0.314
-0.057633616,0.06527351,-0.12233883,0.08403653,0.1012452,0.314
-0.057636615,0.06527613,-0.12249459,0.08399019,0.101414874,0.314
-0.057595134,0.06519763,-0.1225601,0.08399472,0.10182258,0.314
-0.05757777,0.065160014,-0.12265181,0.08397975,0.10208049,0.314
-0.05752791,0.06516024,-0.1227209,0.08394909,0.10238983,0.314
-0.05747955,0.0651422,-0.12276663,0.083933555,0.102701746,0.314
-0.057483554,0.06507572,-0.1228915,0.08392266,0.10295931,0.314
-0.057457257,0.06500681,-0.122980714,0.08391562,0.10332277,0.314
-0.057432365,0.064989254,-0.12308418,0.08388639,0.10359766,0.314
-0.05741588,0.06496163,-0.12318038,0.08386453,0.103844345,0.314
-0.057378896,0.064947404,-0.12326147,0.0838426,0.10414578,0.314
-0.057355292,0.06487778,-0.12334653,0.08384327,0.10450008,0.314
-0.057321567,0.064882606,-0.12344018,0.08381201,0.104765765,0.314
-0.05733143,0.064825594,-0.123581044,0.08379914,0.10499471,0.314
-0.057316493,0.06474554,-0.12367266,0.083809994,0.10533794,0.314
-0.05729864,0.06473711,-0.12378853,0.083782785,0.10557785,0.314
-0.057289373,0.064700805,-0.12388348,0.08377589,0.10580748,0.314
-0.05725885,0.064690806,-0.12396679,0.08375942,0.1060797,0.314
-0.057243537,0.06465521,-0.1240501,0.08375677,0.10632794,0.314
-0.05723362,0.064573534,-0.12413789,0.083772786,0.10665255,0.314
-0.0572371,0.0645452,-0.12429018,0.08374845,0.10686433,0.314
-0.057221532,0.064520605,-0.124387994,0.083737,0.10710899,0.314
-0.05721062,0.064447016,-0.12448057,0.08375051,0.107430235,0.314
-0.05718279,0.06449575,-0.12458437,0.08370765,0.107589126,0.314
-0.057170212,0.064418636,-0.12466842,0.083724424,0.107921444,0.314
-0.05715069,0.06440584,-0.12477227,0.08371057,0.1081722,0.314
-0.05713327,0.06435396,-0.12487687,0.08371241,0.10850239,0.314
-0.057125967,0.06439124,-0.125043,0.0836572,0.10863916,0.314
-0.057112552,0.06431402,-0.12512004,0.083679505,0.10897601,0.314
-0.057098385,0.064304665,-0.1252303,0.08366367,0.109198324,0.314
-0.0570681,0.06431222,-0.12533233,0.083642714,0.1094682,0.314
-0.057041563,0.06430706,-0.12541687,0.0836326,0.10972872,0.314
-0.05702668,0.06423979,-0.12550251,0.08365031,0.11007164,0.314
-0.05702082,0.06423583,-0.12566319,0.083618194,0.11028814,0.314
-0.0569999,0.06422684,-0.12576471,0.08360457,0.11054732,0.314
-0.0569929,0.06419413,-0.12586251,0.08360314,0.11077487,0.314
-0.05696095,0.064202584,-0.12595871,0.083583646,0.111057855,0.314
-0.056955487,0.06411623,-0.12605013,0.08360767,0.111409,0.314
-0.056932148,0.06412076,-0.12616073,0.083587386,0.11166652,0.314
-0.0569396,0.064078465,-0.12631264,0.0835741,0.11188678,0.314
-0.056936678,0.0639942,-0.1264069,0.08359704,0.11222704,0.314
-0.056922603,0.063975975,-0.12647377,0.0835921,0.112442374,0.314
-0.05690525,0.06394322,-0.12643656,0.0836128,0.11261427,0.314
-0.056900557,0.063846536,-0.12639849,0.083663635,0.11287947,0.314
-0.056871116,0.06383823,-0.12636395,0.08367494,0.113081075,0.314
-0.0568495,0.06380738,-0.12631622,0.08369904,0.113281704,0.314
-0.056859773,0.06373394,-0.12632978,0.0837245,0.11343993,0.314
-0.056849517,0.06368124,-0.12629323,0.08375336,0.11364229,0.314
-0.056854963,0.063563325,-0.12625057,0.08381632,0.11392695,0.314
-0.05684785,0.06352159,-0.12622161,0.08383968,0.11408986,0.314
-0.056825545,0.06350508,-0.12618975,0.083851315,0.11429461,0.314
-0.056821782,0.06343875,-0.12615086,0.08388942,0.11451137,0.314
-0.056836337,0.06331848,-0.12611829,0.083946764,0.11477591,0.314
-0.05683879,0.06327862,-0.12613398,0.08395305,0.114916645,0.314
-0.05683576,0.06322764,-0.12610523,0.08397806,0.11510205,0.314
-0.056839373,0.063164,-0.12607291,0.08400913,0.11527596,0.314
-0.05682698,0.06312182,-0.12602907,0.08403473,0.11551036,0.314
-0.056849387,0.06298935,-0.12599076,0.08409762,0.1157875,0.314
-0.05684188,0.062959515,-0.12596534,0.08411027,0.11596107,0.314
-0.05685253,0.062899135,-0.12597832,0.084124945,0.11612611,0.314
-0.056853015,0.062847555,-0.12595156,0.084144935,0.11631981,0.314
-0.056875255,0.06272261,-0.12591605,0.08419816,0.11661138,0.314
-0.056880414,0.062669985,-0.12588878,0.084217735,0.11677386,0.314
-0.056870796,0.06264516,-0.1258677,0.08422167,0.116984,0.314
-0.05687815,0.06257933,-0.1258491,0.084245436,0.11720862,0.314
-0.05689732,0.06250977,-0.12588003,0.08425468,0.1173715,0.314
-0.056906845,0.06244756,-0.12587522,0.0842719,0.117578864,0.314
-0.056921214,0.062381234,-0.12587479,0.08429133,0.11775652,0.314
-0.056951087,0.062261075,-0.12588295,0.0843319,0.118049085,0.314
-0.056937274,0.06225748,-0.12589622,0.0843188,0.118272625,0.314
-0.05698461,0.06211105,-0.12590945,0.08437173,0.11849666,0.314
-0.057118367,0.061770983,-0.1259434,0.08450502,0.118681006,0.314
-0.05727532,0.061340254,-0.12596035,0.084724486,0.119047605,0.314
-0.057449248,0.060875654,-0.12597089,0.08499823,0.11933217,0.314
-0.05762714,0.06039926,-0.12599033,0.08528701,0.11963248,0.314
-0.05779117,0.059952814,-0.12604043,0.085544504,0.11997547,0.314
-0.057957854,0.05950124,-0.12608074,0.08582434,0.12031124,0.314
-0.058151502,0.05897221,-0.12614284,0.08618043,0.12075817,0.314
-0.058320977,0.05851693,-0.12620291,0.086494446,0.1209925,0.314
-0.058482047,0.058070105,-0.12625265,0.08687745,0.12133386,0.314
-0.05864768,0.057605058,-0.12629454,0.087358825,0.121696584,0.314
-0.0588409,0.05704931,-0.12636937,0.08797906,0.12223788,0.314
-0.05899314,0.05660155,-0.12644087,0.08842386,0.12260415,0.314
-0.059151303,0.056130957,-0.12650427,0.08892227,0.1230129,0.314
-0.059303742,0.055661865,-0.12657252,0.08940663,0.12334856,0.314
-0.05949044,0.0550752,-0.12664708,0.09002845,0.123888366,0.314
-0.05964265,0.05456669,-0.12668847,0.09052535,0.12422027,0.314
-0.059773922,0.05406952,-0.12674825,0.091016725,0.12460907,0.314
-0.059878826,0.05360192,-0.12682019,0.0914753,0.1250426,0.314
-0.05997595,0.053101685,-0.12687969,0.09197306,0.12546529,0.314
-0.06006776,0.052498657,-0.12695418,0.09258919,0.12604477,0.314
-0.060117867,0.05196941,-0.12700227,0.09308535,0.12635289,0.314
-0.0601515,0.051435035,-0.12702857,0.093582064,0.1267124,0.314
-0.060150113,0.050893176,-0.12706135,0.09408084,0.12710397,0.314
-0.060105085,0.05024287,-0.12710044,0.09469544,0.1276632,0.314
-0.06001493,0.049664818,-0.1271135,0.095193125,0.12807888,0.314
-0.059908457,0.049164843,-0.1271119,0.09561536,0.12845717,0.314
-0.059725862,0.048528653,-0.12708628,0.096182935,0.12887007,0.314
-0.059443176,0.047793455,-0.12703788,0.09680321,0.12939307,0.314
-0.059135325,0.047124512,-0.12694108,0.097330555,0.1297429,0.314
-0.058774948,0.0465085,-0.12685065,0.097811066,0.1301348,0.314
-0.05838523,0.045912962,-0.1267636,0.098270126,0.13058314,0.314
-0.058001515,0.045316823,-0.12665763,0.09874334,0.13101284,0.314
-0.057610746,0.044730455,-0.1265497,0.09921715,0.13137834,0.314
-0.05723166,0.044141393,-0.12641813,0.09967625,0.1317309,0.314
-0.05674495,0.043426372,-0.12626682,0.1002573,0.13221736,0.314
-0.056430228,0.04300852,-0.12616308,0.10054298,0.13242541,0.314
-0.055964388,0.04235182,-0.12602612,0.101098135,0.13295327,0.314
-0.055549122,0.04177062,-0.12586991,0.1015533,0.1332778,0.314
-0.055063166,0.041129824,-0.1257168,0.102078095,0.13374832,0.314
-0.054648776,0.040593613,-0.12556393,0.10249688,0.13399488,0.314
-0.05425187,0.040067773,-0.12540433,0.102903165,0.13427229,0.314
-0.053827167,0.03954212,-0.12525456,0.103333,0.13461764,0.314
-0.05336247,0.03899509,-0.12508243,0.10373145,0.13489412,0.314
-0.052976307,0.03854939,-0.12495681,0.104094915,0.13526094,0.314
-0.05247519,0.03796924,-0.12479961,0.104565956,0.13572468,0.314
-0.0520533,0.037487715,-0.12464807,0.10493698,0.13598116,0.314
-0.05164754,0.037016865,-0.12449112,0.10527109,0.1362418,0.314
-0.05120678,0.036528677,-0.124345504,0.105643466,0.13657959,0.314
-0.050757296,0.036046896,-0.12421837,0.10601183,0.13695884,0.314
-0.05023395,0.03546603,-0.12406929,0.106496155,0.1374528,0.314
-0.049762946,0.034930006,-0.123905025,0.10691506,0.13777867,0.314
-0.04934122,0.034473043,-0.12377868,0.10727316,0.13806346,0.314
-0.048912212,0.0340005,-0.123642735,0.10762294,0.13837181,0.314
-0.048382144,0.03345756,-0.12351505,0.108056955,0.13887018,0.314
-0.04791784,0.032978654,-0.12337933,0.10839414,0.1391602,0.314
-0.047411185,0.032465126,-0.123233974,0.108780466,0.13952427,0.314
-0.046976995,0.032028448,-0.123118915,0.109074906,0.13980746,0.314
-0.04647539,0.03153375,-0.12301145,0.109443605,0.14024745,0.314
-0.04604367,0.031101191,-0.12289295,0.10974385,0.14047907,0.314
-0.045632053,0.030677015,-0.12278321,0.1100344,0.14077011,0.314
-0.045199476,0.030255347,-0.12268188,0.11032388,0.14107348,0.314
-0.04477788,0.029876877,-0.12260772,0.110563755,0.14139806,0.314
-0.04435284,0.029478377,-0.12252664,0.11084187,0.14174,0.314
-0.043929752,0.029085008,-0.12243467,0.11109888,0.14197032,0.314
-0.043416563,0.028623885,-0.12235353,0.11140489,0.14236113,0.314
-0.042992838,0.028225387,-0.12226422,0.11164482,0.1426092,0.314
-0.04247377,0.027779726,-0.12219914,0.111933306,0.14299358,0.314
-0.04201248,0.027379094,-0.1221205,0.11217152,0.14324008,0.314
-0.04157874,0.027038876,-0.1220819,0.112355866,0.14351569,0.314
-0.04112756,0.026671035,-0.12203586,0.11258173,0.14380372,0.314
-0.040610775,0.026284441,-0.12203222,0.112811044,0.14420427,0.314
-0.040168352,0.025939807,-0.12199199,0.11299393,0.1443841,0.314
-0.039748892,0.025618643,-0.12198724,0.11316136,0.14465638,0.314
-0.039280586,0.025273113,-0.12197588,0.113319516,0.1448804,0.314
-0.038850494,0.025019512,-0.12204256,0.113412194,0.14519149,0.314
-0.038407337,0.024761083,-0.12213019,0.11351543,0.14552738,0.314
-0.03797994,0.024546823,-0.12224561,0.113571726,0.14580137,0.314
-0.03754089,0.024349483,-0.1224085,0.11359014,0.14612228,0.314
-0.036971685,0.024152441,-0.12268116,0.11357405,0.14656629,0.314
-0.03650289,0.023967192,-0.12287529,0.11356143,0.14685766,0.314
-0.036033664,0.02379759,-0.12308706,0.113528006,0.1471637,0.314
-0.03558162,0.02362705,-0.123308435,0.11351068,0.14749363,0.314
-0.03515411,0.023472307,-0.12352296,0.11349024,0.14776836,0.314
-0.034598906,0.023275305,-0.12382729,0.113457896,0.14818077,0.314
-0.034151502,0.023059398,-0.12400327,0.11343997,0.14838585,0.314
-0.03370979,0.02289264,-0.1242419,0.11339153,0.14865723,0.314
-0.033288028,0.022771474,-0.1245231,0.11330147,0.1489581,0.314
-0.032806657,0.022652254,-0.12490459,0.11317817,0.14935443,0.314
-0.03240576,0.022517612,-0.1251837,0.113076806,0.14960241,0.314
-0.03195342,0.022411717,-0.12557474,0.11291667,0.14993204,0.314
-0.031700585,0.02230616,-0.1257291,0.11282007,0.14996038,0.314
-0.031285357,0.022233505,-0.1261439,0.11262635,0.15026972,0.314
-0.030948583,0.02216553,-0.12646475,0.112449825,0.15045235,0.314
-0.030614842,0.02213637,-0.12681703,0.1122277,0.1506444,0.314
-0.030281944,0.02211683,-0.12718627,0.112001695,0.15085776,0.314
-0.029894168,0.022164369,-0.12766244,0.11164706,0.15110055,0.314
-0.029600723,0.022221452,-0.128,0.11131736,0.15117855,0.314
-0.029307483,0.022283401,-0.12836497,0.11097782,0.15131702,0.314
-0.028916022,0.022388997,-0.12887356,0.11056019,0.1515769,0.314
-0.028659765,0.02246019,-0.129171,0.110253476,0.15168695,0.314
-0.02825739,0.022578925,-0.12969479,0.10982557,0.15196994,0.314
-0.027913658,0.022659216,-0.13009451,0.109465435,0.15216045,0.314
-0.02748656,0.02278057,-0.13063006,0.10902355,0.15244539,0.314
-0.027150912,0.022881223,-0.13099974,0.1086477,0.15256202,0.314
-0.026794374,0.022969676,-0.13141537,0.10828128,0.15276128,0.314
-0.026414985,0.023065275,-0.13185702,0.10790894,0.15298209,0.314
-0.026023803,0.023165142,-0.13231067,0.10752691,0.1532142,0.314
-0.025616938,0.023237761,-0.13276587,0.107189395,0.15346852,0.314
-0.025106577,0.023333175,-0.13335179,0.10677518,0.15379833,0.314
-0.024696961,0.02340231,-0.13375005,0.10643234,0.15395565,0.314
-0.024268499,0.023458533,-0.1342039,0.106100656,0.15418975,0.314
-0.023833504,0.023515543,-0.13466518,0.105763316,0.15441823,0.314
-0.023394562,0.02357955,-0.13514718,0.10542176,0.15466562,0.314
-0.022869583,0.02364442,-0.13574229,0.10503595,0.15498798,0.314
-0.022434551,0.023677021,-0.13617776,0.10472448,0.15520509,0.314
-0.022037363,0.023726134,-0.13657075,0.10441259,0.15536395,0.314
-0.021625502,0.023754617,-0.13698952,0.10410839,0.1555733,0.314
-0.021121409,0.023798337,-0.13753183,0.103747286,0.15586685,0.314
-0.020706909,0.023823567,-0.1379301,0.10344356,0.15606025,0.314
-0.020303488,0.0238537,-0.13832177,0.1031388,0.1562558,0.314
-0.019905776,0.023849359,-0.13869496,0.102886654,0.15646818,0.314
-0.019443383,0.023839964,-0.13912492,0.10259376,0.15671253,0.314
-0.019112224,0.023818064,-0.13934277,0.102368295,0.15677683,0.314
-0.018781831,0.023759184,-0.13955867,0.10218253,0.15688738,0.314
-0.01846881,0.02367515,-0.13971837,0.1020331,0.15697066,0.314
-0.018172126,0.02355623,-0.13983192,0.10193274,0.15706079,0.314
-0.01785188,0.023401637,-0.13991128,0.101831235,0.15711609,0.314
-0.017572528,0.023254717,-0.13995588,0.10175427,0.15715025,0.314
-0.017337773,0.023132464,-0.13995856,0.10166388,0.15711628,0.314
-0.017091399,0.022991946,-0.14000039,0.10158684,0.15714763,0.314
-0.01680046,0.022825712,-0.14006856,0.10150516,0.15720776,0.314
-0.01656243,0.022691969,-0.14009663,0.101410985,0.1572106,0.314
-0.016333574,0.022569792,-0.1401503,0.10131299,0.15724522,0.314
-0.016109096,0.022428488,-0.14019363,0.101241864,0.15728322,0.314
-0.015858155,0.022267792,-0.14024726,0.10115192,0.15732372,0.314
-0.015685294,0.022152951,-0.14022045,0.10105505,0.15725096,0.314
-0.015499932,0.022020556,-0.1402321,0.10096746,0.15724137,0.314
-0.01531966,0.021888873,-0.14024478,0.100886,0.15723586,0.314
-0.015133381,0.021756476,-0.14027582,0.10080081,0.15725933,0.314
-0.014945494,0.021601507,-0.14031154,0.10071128,0.15728146,0.314
-0.014803702,0.021447888,-0.14035985,0.100669086,0.15734625,0.314
-0.014694027,0.02131755,-0.14037257,0.100612044,0.15734766,0.314
-0.014567713,0.021172429,-0.14042307,0.100561954,0.15740667,0.314
-0.014416695,0.020994965,-0.14048485,0.1005103,0.15748426,0.314
-0.014299589,0.020850515,-0.14052011,0.10045139,0.15751933,0.314
-0.014181025,0.020702735,-0.1405672,0.100401305,0.15758042,0.314
-0.01408271,0.020547168,-0.14058685,0.10036836,0.15761441,0.314
-0.013967066,0.02035114,-0.14061062,0.100341715,0.1576636,0.314
-0.013907156,0.020200325,-0.1405611,0.10030206,0.15760629,0.314
-0.013826154,0.020038284,-0.1405622,0.10026943,0.15761651,0.314
-0.013747454,0.019871976,-0.14055526,0.10024109,0.1576207,0.314
-0.013662166,0.019718206,-0.14057332,0.10020014,0.15764526,0.314
-0.013569728,0.019539395,-0.14059073,0.10018768,0.157684,0.314
-0.013507686,0.019390864,-0.14056838,0.10015171,0.15764682,0.314
-0.01339597,0.019193152,-0.14061199,0.100116745,0.15768902,0.314
-0.013306752,0.019034479,-0.14064616,0.100071006,0.15769945,0.314
-0.0131913675,0.01884365,-0.14070807,0.10001961,0.15772933,0.314
-0.013089217,0.018695496,-0.14077006,0.09994902,0.15773363,0.314
-0.01297082,0.018566357,-0.14087483,0.09985667,0.15776376,0.314
-0.012836178,0.018422507,-0.14100283,0.09978315,0.15781295,0.314
-0.01265645,0.018272405,-0.14120041,0.09966341,0.15787247,0.314
-0.012523325,0.01816988,-0.14132462,0.09953401,0.15784803,0.314
-0.012364184,0.01806668,-0.14149882,0.09939095,0.15787564,0.314
-0.01220523,0.017975235,-0.14165996,0.09924387,0.15789507,0.314
-0.01202799,0.017910853,-0.14183871,0.0990554,0.15791899,0.314
-0.011839447,0.017843401,-0.14199468,0.098870344,0.15792589,0.314
-0.011599023,0.017795077,-0.14217262,0.09861042,0.15791242,0.314
-0.011417068,0.01777419,-0.14227448,0.09835562,0.15781224,0.314
-0.0112121655,0.017744806,-0.14240958,0.098103665,0.15775646,0.314
-0.010955965,0.017711192,-0.14255537,0.09779692,0.15767662,0.314
-0.010779587,0.017693413,-0.14266142,0.0975779,0.15762256,0.314
-0.010531489,0.017670691,-0.14277163,0.09726643,0.15750585,0.314
-0.010304036,0.017636778,-0.14287439,0.09700269,0.15740936,0.314
-0.010109952,0.017624201,-0.14293192,0.096737,0.15725695,0.314
-0.009839694,0.017590588,-0.14301445,0.09642369,0.15710893,0.314
-0.009615422,0.01756824,-0.14308235,0.0961485,0.1569697,0.314
-0.009430285,0.017547578,-0.14313366,0.09593143,0.15686417,0.314
-0.009161731,0.017492255,-0.14313608,0.09566346,0.15668827,0.314
-0.00893628,0.017447038,-0.1431251,0.09541884,0.15650752,0.314
-0.008655524,0.017367158,-0.14306378,0.09514806,0.15627432,0.314
-0.008440104,0.017322015,-0.14300135,0.094886936,0.15602106,0.314
-0.008201364,0.0172686,-0.14296262,0.094636485,0.15581828,0.314
-0.007948027,0.017225964,-0.14292398,0.094362184,0.15560567,0.314
-0.0077005285,0.01717618,-0.14287485,0.09411551,0.15541418,0.314
-0.0074465536,0.017145487,-0.14281937,0.09383761,0.155194,0.314
-0.007126868,0.017118685,-0.14273383,0.09349081,0.1549151,0.314
-0.006872389,0.017128268,-0.14267264,0.09316025,0.15464287,0.314
-0.0065772957,0.017144326,-0.14262278,0.09283036,0.15441538,0.314
-0.006264423,0.017178651,-0.14256693,0.092485465,0.15418391,0.314
-0.005956004,0.01720665,-0.14251712,0.09216966,0.15398937,0.314
-0.0055838577,0.017257256,-0.14242555,0.09177946,0.15372309,0.314
-0.005299227,0.017325832,-0.14237015,0.09143584,0.15348434,0.314
-0.004988563,0.01738299,-0.14230846,0.09111068,0.15327975,0.314
-0.0046800314,0.017451828,-0.14227109,0.090779446,0.15308832,0.314
-0.0043134256,0.01752613,-0.14216642,0.090424776,0.15285595,0.314
-0.0040671807,0.017585084,-0.14214943,0.090175256,0.15273197,0.314
-0.0037055153,0.017668596,-0.14204054,0.08983582,0.15251231,0.314
-0.0034031607,0.01774709,-0.14196701,0.089542806,0.15233324,0.314
-0.0030773364,0.01784782,-0.14184144,0.08920915,0.15208875,0.314
-0.0027823371,0.017936569,-0.14176576,0.088911556,0.15190667,0.314
-0.0024882923,0.018027453,-0.141704,0.08861353,0.15173793,0.314
-0.002194285,0.0181186,-0.14162077,0.08831565,0.15156005,0.314
-0.0018994727,0.018196233,-0.14154682,0.08803495,0.15140854,0.314
-0.0015508336,0.018296063,-0.14141546,0.08768751,0.15119044,0.314
-0.0012570882,0.018390803,-0.14133175,0.08736855,0.15101093,0.314
-0.0010014295,0.01849258,-0.14122553,0.08705177,0.15080273,0.314
-0.00079694,0.018570699,-0.14113046,0.08677687,0.15065664,0.314
-0.00055318465,0.018682994,-0.14102684,0.08640281,0.15046473,0.314
-0.000358521,0.018773992,-0.14093155,0.086094975,0.15030153,0.314
-0.00017252279,0.018862704,-0.1408665,0.08579447,0.15016107,0.314
-5.9142185e-06,0.018955199,-0.140767,0.085495435,0.1499895,0.314
0.00019116378,0.019073183,-0.14065365,0.085123025,0.1497792,0.314
0.0003222871,0.019180499,-0.14057995,0.08482518,0.14960492,0.314
0.0004694312,0.019289687,-0.14050509,0.08450663,0.1494299,0.314
0.0006226392,0.019402694,-0.14043017,0.08417349,0.14925224,0.314
0.0007627836,0.019505668,-0.14035685,0.08385993,0.14908552,0.314
0.0008892279,0.01962354,-0.14027086,0.08352577,0.14889118,0.314
0.0009982291,0.019774018,-0.14013702,0.08312964,0.14862055,0.314
0.0010831243,0.019912027,-0.14005217,0.082768045,0.14839883,0.314
0.0011527472,0.020056253,-0.13997357,0.082392044,0.1481726,0.314
0.0011927617,0.02021792,-0.13987595,0.081985496,0.14790994,0.314
0.0012285839,0.020367233,-0.1397805,0.08159725,0.1476624,0.314
0.0012592779,0.020560868,-0.13962612,0.081110865,0.14731888,0.314
0.0012628338,0.0207289,-0.13951795,0.0807248,0.14703812,0.314
0.0012937525,0.020895584,-0.13942254,0.08031514,0.14677149,0.314
0.0013197301,0.021065934,-0.1393138,0.079901524,0.1464911,0.314
0.0013763269,0.021238009,-0.1391475,0.079432204,0.14616248,0.314
0.0014555324,0.021357715,-0.13901874,0.07905414,0.14592145,0.314
0.0015677527,0.021460801,-0.13881122,0.07865254,0.14563678,0.314
0.0016278307,0.021521816,-0.13870601,0.07842503,0.14548047,0.314
0.0017684617,0.021583168,-0.13843273,0.078075975,0.14519644,0.314
0.0018802701,0.021641672,-0.13822603,0.07778375,0.14496759,0.314
0.0020025594,0.021689808,-0.13799839,0.07750701,0.14473723,0.314
0.0021610828,0.02172844,-0.13763951,0.07720311,0.1444225,0.314
0.002302762,0.021770101,-0.13734396,0.076941274,0.14415659,0.314
0.0024567186,0.021781405,-0.13699098,0.07673689,0.14388752,0.314
0.0025712221,0.021806447,-0.13663046,0.07654577,0.14359413,0.314
0.0027419857,0.021813484,-0.13612072,0.07632855,0.14321488,0.314
0.0028642751,0.021830065,-0.13573071,0.07614772,0.14291117,0.314
0.0029815112,0.02184152,-0.13533111,0.07598231,0.14260654,0.314
0.0030893146,0.021854248,-0.13490683,0.075819895,0.14228246,0.314
0.0032013103,0.02185421,-0.13434528,0.07566433,0.14187191,0.314
0.0032486988,0.02186836,-0.13405755,0.07556206,0.1416444,0.314
0.0033417165,0.02185376,-0.13344407,0.07544786,0.1412131,0.314
0.0034034417,0.021858776,-0.13298038,0.07533582,0.14086851,0.314
0.0034722039,0.021841858,-0.13235244,0.075244494,0.14042944,0.314
0.003514876,0.021850504,-0.1318733,0.07513849,0.14006919,0.314
0.0035506606,0.021849643,-0.1313415,0.07505003,0.1396814,0.314
0.0035757024,0.02185683,-0.13085763,0.07495212,0.13931832,0.314
0.0035703497,0.021815842,-0.13020246,0.07496233,0.13888404,0.314
0.0035705369,0.021826921,-0.12966596,0.074869685,0.13847648,0.314
0.0035580345,0.021822019,-0.12891613,0.074792355,0.1379302,0.314
0.0035457572,0.021831675,-0.12833868,0.07470768,0.13749374,0.314
0.0035323936,0.021830253,-0.12771808,0.07464124,0.13703865,0.314
0.0035145388,0.02181865,-0.12711337,0.0745946,0.13660608,0.314
0.0034790535,0.02182243,-0.12653758,0.07453842,0.13617554,0.314
0.0034384404,0.021804726,-0.1257488,0.07449549,0.13561258,0.314
0.0033985004,0.02180626,-0.12515095,0.074433014,0.13516684,0.314
0.003349802,0.021788029,-0.12437066,0.074384086,0.13460828,0.314
0.003301777,0.021786533,-0.123761795,0.07431727,0.13415544,0.314
0.0032487735,0.02178174,-0.12313789,0.07424615,0.13369356,0.314
0.0031849903,0.021755727,-0.122510135,0.07419951,0.13324985,0.314
0.003081529,0.021706242,-0.12169429,0.07415193,0.13268575,0.314
0.0029741747,0.02167802,-0.12109915,0.07408602,0.13225749,0.314
0.0028370623,0.021599712,-0.12042304,0.07402882,0.13181232,0.314
0.002651139,0.021478545,-0.11970271,0.07397589,0.1313644,0.314
0.0024399117,0.021328855,-0.1189486,0.07391828,0.13090245,0.314
0.0021856755,0.02113945,-0.11804624,0.0738733,0.13034324,0.314
0.0019884477,0.020981526,-0.11731612,0.07383324,0.12988083,0.314
0.0018014389,0.020853585,-0.11667662,0.07381191,0.12945177,0.314
0.0016185476,0.02071505,-0.11600681,0.07376545,0.12899323,0.314
0.0013948556,0.020514378,-0.115184866,0.07375171,0.12845245,0.314
0.0012686732,0.020422297,-0.11469521,0.07368737,0.1280827,0.314
0.0010570342,0.020215636,-0.11388743,0.07368543,0.12753376,0.314
0.0009011686,0.02005614,-0.11324706,0.07365652,0.12707765,0.314
0.00070682314,0.01985266,-0.11247025,0.073642634,0.12652111,0.314
0.0005717695,0.019741302,-0.11193768,0.07360297,0.1260873,0.314
0.00043016532,0.019594194,-0.11135197,0.073566616,0.12563156,0.314
0.00028657724,0.019433612,-0.1107523,0.073552124,0.12516965,0.314
0.00014793016,0.019272655,-0.11015835,0.07353274,0.124701895,0.314
1.639509e-05,0.019112824,-0.10957583,0.073510505,0.12423378,0.314
-0.00013198424,0.018917654,-0.109014295,0.07359619,0.12384385,0.314
-0.00031787014,0.018644365,-0.10826913,0.073697925,0.123333625,0.314
-0.00046533238,0.01842902,-0.10769712,0.07378113,0.12293931,0.314
-0.00060957554,0.018213563,-0.10712602,0.07386551,0.122538686,0.314
-0.0007838576,0.017950194,-0.106437564,0.073972486,0.12205031,0.314
-0.0009209513,0.017743047,-0.10589295,0.07405251,0.12165182,0.314
-0.0010556119,0.01752497,-0.10534191,0.074138686,0.12125627,0.314
-0.0012211724,0.017267365,-0.10468521,0.074246116,0.12076943,0.314
-0.0013455955,0.017089002,-0.104216814,0.07433763,0.120406985,0.314
-0.0014739862,0.016890839,-0.10372106,0.07442272,0.12003028,0.314
-0.0015998504,0.016693873,-0.103220955,0.07450612,0.119638436,0.314
-0.0017513739,0.016456967,-0.10261958,0.07460658,0.119157135,0.314
-0.0018703882,0.01626603,-0.102134444,0.07467995,0.11875917,0.314
-0.0019891215,0.016063673,-0.10163758,0.07475399,0.1183576,0.314
-0.002100556,0.015896577,-0.101206124,0.074834764,0.117987394,0.314
-0.0022181289,0.015707247,-0.100744665,0.07490876,0.11760192,0.314
-0.0023604257,0.01548131,-0.10018376,0.07500224,0.11711726,0.314
-0.0024463874,0.015339518,-0.09983577,0.07505553,0.11681437,0.314
-0.0025795507,0.0151225645,-0.09930837,0.075149305,0.116359346,0.314
-0.0026845466,0.014943378,-0.09888152,0.07522301,0.11599797,0.314
-0.0027813453,0.014798293,-0.09852039,0.075305656,0.11568018,0.314
-0.0028862662,0.014633444,-0.098132975,0.07538224,0.11535362,0.314
-0.0030103899,0.014443628,-0.09767758,0.07548099,0.11496239,0.314
-0.003111755,0.014294274,-0.097320355,0.075562365,0.11465478,0.314
-0.0032102938,0.014150313,-0.09697394,0.075639956,0.11435342,0.314
-0.0033075416,0.0140062,-0.09663612,0.0757204,0.11406807,0.314
-0.0034289886,0.013852469,-0.096265435,0.07582955,0.11374249,0.314
-0.003521445,0.013747023,-0.09600405,0.07592403,0.11350675,0.314
-0.0036274143,0.013619681,-0.09570671,0.07601405,0.113249294,0.314
-0.0037353858,0.013493012,-0.095403396,0.07610868,0.112979256,0.314
-0.0038716749,0.013336921,-0.09503219,0.07622808,0.112648964,0.314
-0.003988144,0.013208344,-0.09472368,0.07632297,0.11236765,0.314
-0.0041082436,0.013068462,-0.09439968,0.076416634,0.112083256,0.314
-0.0042243754,0.012959234,-0.09413357,0.07652372,0.1118328,0.314
-0.0043863053,0.012793975,-0.093748525,0.07665316,0.111483894,0.314
-0.004519562,0.012658733,-0.09344054,0.076754935,0.11120933,0.314
-0.004649057,0.012528883,-0.093137644,0.07685761,0.11093241,0.314
-0.0048087593,0.01237298,-0.09277165,0.07698346,0.11059306,0.314
-0.004936214,0.012246648,-0.0924742,0.077080145,0.110315956,0.314
-0.0050600762,0.012115824,-0.09217212,0.077172376,0.11004364,0.314
-0.005175852,0.012014347,-0.09192639,0.077273965,0.10980524,0.314
-0.005330969,0.011865518,-0.091578946,0.07739117,0.10948149,0.314
-0.0054572825,0.011741619,-0.091298245,0.077480026,0.10922827,0.314
-0.0055826786,0.011624869,-0.091022186,0.0775726,0.108965635,0.314
-0.005702797,0.011516242,-0.09075945,0.07766191,0.10870814,0.314
-0.0058478448,0.011380777,-0.09043758,0.077769674,0.10840132,0.314
-0.0059628165,0.011263205,-0.0901633,0.077848166,0.10815008,0.314
-0.006069291,0.011176064,-0.08994662,0.07794022,0.10793091,0.314
-0.006211644,0.0110447155,-0.08963257,0.07804206,0.107629776,0.314
-0.006304999,0.010958997,-0.08943441,0.07810128,0.10744498,0.314
-0.006451151,0.010825104,-0.08911582,0.078198306,0.10714096,0.314
-0.0065692663,0.010719396,-0.0888611,0.078275,0.106893316,0.314
-0.006685249,0.010608636,-0.08859744,0.078344844,0.10664548,0.314
-0.0067928466,0.010522767,-0.08838321,0.07842746,0.106427886,0.314
-0.0069381,0.0103985695,-0.088082075,0.078521304,0.10613389,0.314
-0.007031642,0.010320599,-0.08789817,0.07857756,0.10595816,0.314
-0.0071748183,0.010201304,-0.08760731,0.07866942,0.10567393,0.314
-0.007294394,0.010103719,-0.08736683,0.07874211,0.10543519,0.314
-0.007414156,0.00999891,-0.087114505,0.07880765,0.1051981,0.314
-0.007563771,0.009882498,-0.0868298,0.07889873,0.10491901,0.314
-0.0076769083,0.009806249,-0.08663454,0.078980625,0.104712725,0.314
-0.0078046443,0.009709526,-0.086402826,0.07905085,0.104490936,0.314
-0.007933484,0.009616208,-0.08617078,0.07912526,0.10425917,0.314
-0.008090735,0.009506347,-0.085895576,0.07921817,0.10398269,0.314
-0.00822053,0.009418082,-0.08567085,0.079292096,0.10375287,0.314
-0.0083857905,0.0093059745,-0.08538797,0.079382345,0.10347026,0.314
-0.008521593,0.009209288,-0.085143685,0.07944515,0.103233315,0.314
-0.008646933,0.009137906,-0.08495149,0.07952555,0.103023246,0.314
-0.008788987,0.009047584,-0.084722124,0.07959166,0.102795064,0.314
-0.0089341095,0.0089598065,-0.08448809,0.0796599,0.10254925,0.314
-0.009078595,0.00887259,-0.084250584,0.07972368,0.10229927,0.314
-0.009221603,0.008782642,-0.08400475,0.07977717,0.10204995,0.314
-0.009397813,0.008681314,-0.08372023,0.07984867,0.101751424,0.314
-0.00953034,0.008613376,-0.083521076,0.07991107,0.10153178,0.314
-0.009709151,0.00851684,-0.08324279,0.0799726,0.101239204,0.314
-0.009854181,0.00844089,-0.08302426,0.08001494,0.10101201,0.314
-0.010000426,0.0083693955,-0.08280841,0.08005784,0.1007761,0.314
-0.010147121,0.008299623,-0.08259415,0.080094896,0.10054111,0.314
-0.010330537,0.008215364,-0.082331814,0.08013334,0.10025386,0.314
-0.010476782,0.008146453,-0.08211318,0.08014872,0.100022115,0.314
-0.010610002,0.008096481,-0.08194108,0.080184095,0.09981722,0.314
-0.010758868,0.008035467,-0.081742525,0.08019978,0.099600375,0.314
-0.010942153,0.00796386,-0.08149735,0.08021239,0.099328026,0.314
-0.0110927215,0.007910221,-0.08130463,0.08022265,0.09910347,0.314
-0.011237601,0.007861259,-0.081120715,0.08022838,0.09888678,0.314
-0.011381301,0.007810764,-0.08092936,0.080216475,0.09867409,0.314
-0.011511396,0.00777614,-0.080780946,0.08022826,0.09848506,0.314
-0.011692789,0.0077223885,-0.08055886,0.08021265,0.09822278,0.314
-0.011841113,0.007680128,-0.080383234,0.08019248,0.098019674,0.314
-0.011991083,0.007641386,-0.08020561,0.08016972,0.09780309,0.314
-0.012137328,0.0076043284,-0.08002677,0.08013337,0.09759205,0.314
-0.012319078,0.0075627044,-0.07981303,0.080083705,0.097338565,0.314
-0.012462629,0.007530251,-0.07963402,0.0800237,0.09713494,0.314
-0.012587969,0.007511648,-0.079498366,0.079992674,0.09695796,0.314
-0.012731463,0.0074857823,-0.079335324,0.079931244,0.09676739,0.314
-0.012904716,0.00745988,-0.079134606,0.07984638,0.096525066,0.314
-0.0130428765,0.007442848,-0.078974485,0.07977066,0.09632806,0.314
-0.01317254,0.0074307206,-0.078818664,0.07968569,0.09613716,0.314
-0.013302222,0.007419715,-0.07864928,0.07957261,0.09594176,0.314
-0.013415173,0.0074193412,-0.07851494,0.079486184,0.095767856,0.314
-0.013537069,0.007417095,-0.078352265,0.07935067,0.09558807,0.314
-0.013664057,0.0074270517,-0.07815688,0.07916465,0.09536808,0.314
-0.013754735,0.007443372,-0.077991985,0.07898149,0.09519066,0.314
-0.013822205,0.0074701733,-0.077822566,0.078756675,0.09502686,0.314
-0.013885595,0.0075026266,-0.07764521,0.07849585,0.09486766,0.314
-0.01396233,0.007551475,-0.077450044,0.07818827,0.094679564,0.314
-0.014014885,0.007596243,-0.07732289,0.07796982,0.09454496,0.314
-0.014079173,0.0076447176,-0.077172376,0.07769751,0.094401784,0.314
-0.014158361,0.0077143027,-0.07698496,0.07733457,0.09421949,0.314
-0.014229256,0.0077767014,-0.076831564,0.07702535,0.09406119,0.314
-0.014293452,0.007845127,-0.07668496,0.07670605,0.09391012,0.314
-0.014356861,0.007919728,-0.0765296,0.076345734,0.09376507,0.314
-0.0144288605,0.008011848,-0.07635576,0.075931594,0.09359262,0.314
-0.014473461,0.008083043,-0.07624238,0.07564572,0.09347093,0.314
-0.014523244,0.0081574945,-0.07610628,0.075308464,0.093344785,0.314
-0.014570615,0.008233893,-0.07596992,0.07497543,0.09320678,0.314
-0.014605651,0.008312312,-0.07583404,0.07463743,0.09307187,0.314
-0.014638386,0.0083932765,-0.07568654,0.0742694,0.09293791,0.314
-0.014666252,0.008494343,-0.07552003,0.073838376,0.09278088,0.314
-0.01466994,0.008572276,-0.07541795,0.07355041,0.09267319,0.314
-0.01467505,0.008655187,-0.07528907,0.07320484,0.09255546,0.314
-0.014666383,0.008762541,-0.07513075,0.072774746,0.09240472,0.314
-0.014653901,0.008832351,-0.07502533,0.0724933,0.09230359,0.314
-0.014609656,0.008946779,-0.0748664,0.072045915,0.09215981,0.314
-0.0145463785,0.009048631,-0.07473076,0.07164439,0.09205646,0.314
-0.014461539,0.0091465525,-0.07462934,0.07131352,0.09196445,0.314
-0.014351825,0.009256902,-0.074499376,0.07090327,0.09187331,0.314
-0.014166707,0.009405955,-0.07433935,0.070375785,0.091764905,0.314
-0.013980523,0.009536142,-0.074207895,0.06993039,0.09167859,0.314
-0.013782509,0.009668613,-0.07408134,0.06948682,0.09159931,0.314
-0.0135873025,0.00980318,-0.073947124,0.06902005,0.091524445,0.314
-0.013389531,0.00993041,-0.073848255,0.068626635,0.09146466,0.314
-0.0131352395,0.010103232,-0.073691174,0.06805304,0.09137464,0.314
-0.01293249,0.010241543,-0.073564105,0.06758892,0.09130622,0.314
-0.012730958,0.01038311,-0.073433995,0.06711859,0.09122859,0.314
-0.012524858,0.010524826,-0.07330795,0.066653244,0.09115567,0.314
-0.012325217,0.010669088,-0.07316817,0.06615558,0.09108215,0.314
-0.012126997,0.010802195,-0.073066674,0.06574211,0.09102503,0.314
-0.011878169,0.010977338,-0.07291506,0.06516525,0.09094594,0.314
-0.011679276,0.011115611,-0.07279762,0.06470888,0.09089099,0.314
-0.011483041,0.01125598,-0.072678454,0.06425259,0.09082474,0.314
-0.011237264,0.011430599,-0.07253099,0.063680075,0.09075103,0.314
-0.011040579,0.011570556,-0.07241398,0.06322693,0.09068785,0.314
-0.010853102,0.011710139,-0.07229077,0.062762134,0.0906232,0.314
-0.010616309,0.0118813515,-0.07215226,0.06221481,0.090545796,0.314
-0.010428664,0.012011539,-0.07206315,0.06182155,0.0904959,0.314
-0.010237837,0.012152919,-0.0719447,0.06135388,0.0904408,0.314
-0.010052531,0.012291491,-0.07183649,0.060914993,0.09037806,0.314
-0.009817161,0.0124645,-0.07170388,0.06036647,0.09030732,0.314
-0.009675257,0.012575074,-0.07160797,0.05999818,0.09025757,0.314
-0.009442694,0.012750329,-0.07147386,0.059441235,0.090184875,0.314
-0.009262199,0.012880516,-0.0713919,0.059057593,0.09013187,0.314
-0.009079738,0.013020324,-0.07128693,0.058615338,0.09007292,0.314
-0.008899766,0.013162901,-0.07117986,0.058169674,0.09000247,0.314
-0.008716219,0.013305816,-0.07107557,0.05772847,0.08993236,0.314
-0.008505797,0.01348006,-0.07094669,0.057189565,0.08983628,0.314
-0.008321801,0.013631135,-0.07083251,0.05670572,0.08976815,0.314
-0.00814561,0.013764392,-0.07075624,0.056316394,0.089713275,0.314
-0.007968857,0.013908691,-0.070657834,0.055867027,0.08964964,0.314
-0.007750425,0.014087764,-0.07054178,0.055320974,0.089564405,0.314
-0.007575282,0.014232962,-0.070447676,0.054878306,0.08949235,0.314
-0.007405697,0.014379171,-0.07034558,0.054425605,0.08941083,0.314
-0.007177158,0.014558131,-0.0702356,0.05387525,0.089341246,0.314
-0.007006918,0.014700822,-0.07013806,0.05342225,0.089277565,0.314
-0.006835762,0.014827602,-0.07007398,0.0530513,0.08922958,0.314
-0.0066632763,0.014968121,-0.06998154,0.05260414,0.08917355,0.314
-0.0064946464,0.015107217,-0.06989329,0.052167088,0.08911245,0.314
-0.006334626,0.015242009,-0.06980682,0.051748972,0.08904332,0.314
-0.0061207972,0.0154050235,-0.06971922,0.05125357,0.088985674,0.314
-0.00596102,0.015541948,-0.06962798,0.0508124,0.08892815,0.314
-0.005799427,0.015664913,-0.06956749,0.050446015,0.088884346,0.314
-0.0056390697,0.015798245,-0.069485,0.05002547,0.088830896,0.314
-0.005442553,0.01596051,-0.06939008,0.049525008,0.08876195,0.314
-0.005284404,0.016094254,-0.06930896,0.049109556,0.08870258,0.314
-0.0051352577,0.016228784,-0.06922033,0.048689123,0.08863015,0.314
-0.0049734963,0.01636642,-0.06913253,0.04824915,0.08857808,0.314
-0.004780629,0.01652996,-0.0690347,0.04773862,0.088511564,0.314
-0.004627852,0.016649479,-0.06897717,0.047383353,0.08846927,0.314
-0.0044747936,0.016778618,-0.068900324,0.04697617,0.08842323,0.314
-0.0043258155,0.016906822,-0.068826504,0.04657906,0.0883703,0.314
-0.0041847914,0.017036036,-0.06874567,0.046176106,0.088306144,0.314
-0.0040321634,0.017171016,-0.068660386,0.045740176,0.088258825,0.314
-0.0038865542,0.01728784,-0.068606555,0.045391873,0.0882196,0.314
-0.0037054594,0.017447224,-0.06851455,0.044893507,0.08815742,0.314
-0.0035604115,0.017575463,-0.06843873,0.04448711,0.088111125,0.314
-0.0034155322,0.017704979,-0.06836312,0.044078544,0.08806238,0.314
-0.0032788315,0.017836776,-0.068277456,0.043657925,0.088001,0.314
-0.003101798,0.017995786,-0.06818547,0.04315417,0.087944776,0.314
-0.0029544856,0.018126871,-0.06810679,0.04272823,0.0879082,0.314
-0.0028149588,0.018238304,-0.068060935,0.04239423,0.08788069,0.314
-0.002677416,0.018362205,-0.06799049,0.041997828,0.08784252,0.314
-0.0025078503,0.018515974,-0.06790571,0.04151144,0.08779146,0.314
-0.0023722914,0.018640472,-0.06783663,0.041116796,0.08774961,0.314
-0.0022450236,0.018763136,-0.06776401,0.0407311,0.08769619,0.314
-0.0021070314,0.018889543,-0.06769002,0.04032448,0.087657444,0.314
-0.0019373348,0.019044435,-0.06760355,0.039839774,0.08760175,0.31369096
-0.0018338173,0.01912963,-0.06756584,0.039580222,0.08758169,0.3135176
-0.0016615567,0.019287927,-0.067474864,0.039078563,0.0875285,0.31317782
-0.0015244441,0.019411115,-0.06740994,0.038696688,0.087487064,0.31291828
-0.0013949865,0.019536026,-0.0673368,0.03830792,0.08743259,0.31264773
-0.0012544491,0.019663855,-0.06726384,0.03789864,0.087397,0.3123755
-0.0010852579,0.019816166,-0.06718316,0.037423186,0.087349765,0.3120554
-0.0009537602,0.019924229,-0.067141496,0.037100863,0.08732431,0.311843
-0.0008200916,0.020045733,-0.06707674,0.03671943,0.087287925,0.31158873
-0.00068554323,0.02016776,-0.06701412,0.036343127,0.08724757,0.31133422
-0.0005187849,0.02031629,-0.06693952,0.035884667,0.08720322,0.31102577
-0.0003916855,0.020439478,-0.06686941,0.03550331,0.08715194,0.31076184
-0.00022462774,0.020593435,-0.06678698,0.035022724,0.087103195,0.31043872
-8.659829e-05,0.020721562,-0.0667144,0.034613445,0.0870682,0.31016767
4.3345935e-05,0.020830302,-0.06667173,0.034289476,0.0870417,0.3099533
0.00017581678,0.02095188,-0.066607274,0.033907898,0.08700715,0.30969986
0.00030780103,0.021073272,-0.066545606,0.033532158,0.086969905,0.30944932
0.00047115303,0.02122633,-0.0664651,0.033055875,0.08692121,0.3091315
0.0005967739,0.021352027,-0.06639249,0.032665838,0.08686869,0.30886286
0.0007334371,0.021479554,-0.06632197,0.032262214,0.08683358,0.3085945
0.00086081726,0.021585936,-0.06628471,0.031954,0.08680472,0.30838844
0.0009947479,0.02170875,-0.06622199,0.03157609,0.08676721,0.30813283
0.0011311866,0.021836316,-0.06615474,0.031184364,0.08672442,0.3078647
0.0013001908,0.021991959,-0.06607514,0.030707447,0.08667565,0.30754003
0.0014284318,0.022114884,-0.06601129,0.030340055,0.086624295,0.30728042
0.0015687259,0.022238858,-0.0659501,0.029956717,0.08659611,0.30702427
0.0017023946,0.022347597,-0.06591319,0.029641092,0.08657294,0.3068138
0.0018421647,0.02247258,-0.0658516,0.029257754,0.08654086,0.30655503
0.0020167835,0.022627736,-0.06577743,0.02878967,0.08649737,0.30623367
0.0021576767,0.022749802,-0.06572394,0.028427556,0.08646413,0.3059846
0.002290297,0.022873962,-0.06566152,0.028060913,0.086415164,0.30572224
0.002435083,0.023004748,-0.06559252,0.027653843,0.08638481,0.30544692
0.0026070818,0.02315773,-0.065521084,0.027192608,0.08634453,0.30513316
0.002739328,0.023267781,-0.065483235,0.026873617,0.086319864,0.3049208
0.002873034,0.023393776,-0.06542002,0.026492486,0.08627869,0.3046597
0.003005505,0.02352138,-0.06535548,0.026111731,0.08623018,0.30439362
0.0031263721,0.023647713,-0.0652867,0.025741944,0.08616453,0.30412415
0.0032580942,0.02377644,-0.06521863,0.025353512,0.08611691,0.30385363
0.0033812446,0.023885405,-0.065180376,0.025046462,0.086078875,0.3036425
0.0035402172,0.02404303,-0.06510044,0.024580324,0.08601341,0.30331457
0.0036723136,0.024173854,-0.065031566,0.024190847,0.085960634,0.3030389
0.0038367137,0.024334734,-0.064950004,0.023718832,0.08589423,0.3027013
0.0039756605,0.024469264,-0.06488008,0.023323366,0.08584063,0.30241546
0.0041063344,0.024605928,-0.0648022,0.022924608,0.08577146,0.30211774
0.004252767,0.024748318,-0.06472214,0.022492683,0.08572373,0.30181107
0.004431354,0.024916125,-0.064638026,0.02199821,0.08566653,0.30145785
0.0045719105,0.025033658,-0.06459641,0.021663157,0.08563969,0.30122718
0.004722685,0.025166992,-0.064533874,0.021269264,0.08560623,0.30094963
0.004911004,0.025333414,-0.06445686,0.020778086,0.08556539,0.3006048
0.005068517,0.025471946,-0.06439181,0.020368544,0.08553283,0.30031592
0.0052157356,0.025612166,-0.06431907,0.019959716,0.085481465,0.30001605
0.005381521,0.025754293,-0.06424982,0.019533219,0.08545725,0.29971576
0.0055369,0.025874862,-0.06421136,0.019195585,0.085439615,0.2994777
0.005708113,0.02601639,-0.06414821,0.018785894,0.085412525,0.29917875
0.0059248046,0.026196215,-0.06406609,0.018267166,0.08537565,0.2987954
0.006103242,0.026343733,-0.06399635,0.01783292,0.08535165,0.29848018
0.0062663318,0.026488706,-0.06392209,0.017409792,0.08531108,0.2981659
0.00643994,0.026632894,-0.06385228,0.016975135,0.08529386,0.29786003
0.0066485847,0.02680403,-0.0637764,0.016470293,0.0852692,0.29750296
0.0068104016,0.026926506,-0.06373518,0.016112633,0.08526482,0.2972618
0.006980379,0.027065491,-0.06367199,0.015691938,0.08525276,0.29697356
0.00714987,0.027201593,-0.06361374,0.015283446,0.085242055,0.2966945
0.007355857,0.027367828,-0.06354236,0.014781562,0.085229896,0.2963552
0.007513594,0.027505314,-0.06347368,0.01436985,0.08520129,0.29606345
0.0076890364,0.027645646,-0.0634069,0.013936616,0.085197814,0.29576874
0.007851715,0.027765313,-0.063367896,0.01358558,0.085198075,0.29553378
0.008027232,0.027904822,-0.06330317,0.013164549,0.08518774,0.29523903
0.008203647,0.02804755,-0.063234136,0.012728393,0.08517738,0.2949367
0.008363182,0.02818878,-0.06315792,0.01229864,0.08514799,0.2946318
0.008570067,0.028357223,-0.063078515,0.011778564,0.08513919,0.29428223
0.008736937,0.02849411,-0.06301122,0.011341511,0.08514204,0.29400012
0.008888311,0.028608913,-0.062972225,0.010985835,0.08515196,0.29378363
0.00908217,0.028773014,-0.06289255,0.010461417,0.0851499,0.29345158
0.009238747,0.028905747,-0.06282712,0.010034583,0.08515005,0.2931827
0.00939596,0.02903601,-0.06276532,0.009618455,0.085151844,0.2929199
0.009534533,0.029163051,-0.062698334,0.009217299,0.085132904,0.29265875
0.00969126,0.029297879,-0.062626615,0.008773583,0.085137926,0.2923821
0.00987808,0.029460708,-0.062542826,0.008247405,0.08513392,0.2920507
0.009983751,0.029541636,-0.062516995,0.007992346,0.08514428,0.29190454
0.010164096,0.029693497,-0.062446196,0.007506594,0.08514477,0.29160368
0.010312476,0.0298141,-0.062392384,0.0071201115,0.085151844,0.29136643
0.010448241,0.029938076,-0.062325217,0.0067237476,0.08513766,0.291111
0.0106290355,0.03009121,-0.06225127,0.006225643,0.085144095,0.2908079
0.010776891,0.030218778,-0.062185206,0.0058000074,0.08515499,0.29055324
0.010909325,0.030323172,-0.062149584,0.005463234,0.085171685,0.29036766
0.011047298,0.030440858,-0.062095124,0.005078586,0.085178874,0.29014125
0.011214955,0.030588338,-0.06202301,0.0045974758,0.08518093,0.28985372
0.011354725,0.030709282,-0.061963644,0.004200849,0.0851868,0.289617
0.011477201,0.030829513,-0.06189565,0.0038092013,0.085171424,0.28937504
0.0116410395,0.030974185,-0.06182595,0.003331273,0.08517992,0.28909892
0.011777329,0.031095428,-0.06176312,0.0029235294,0.085191414,0.28886282
0.011900142,0.031195557,-0.061728686,0.002600419,0.085205935,0.28868967
0.012028121,0.031309914,-0.061674107,0.0022253531,0.08521024,0.28847355
0.012159918,0.03142528,-0.061618805,0.0018460576,0.085218474,0.28825384
0.012314174,0.03156703,-0.06154892,0.0013774498,0.08522349,0.28798708
0.012427518,0.031685125,-0.06147909,0.0009908177,0.0852053,0.2877518
0.012553063,0.031803824,-0.061415415,0.00059213233,0.0852108,0.28752398
0.012666145,0.03190167,-0.061380424,0.00027418733,0.08522356,0.2873607
0.012786751,0.03201483,-0.061323147,-0.000102188584,0.08522929,0.28714925
0.0129352035,0.032154854,-0.06125025,-0.0005699728,0.08523749,0.2868854
0.013062397,0.03227288,-0.0611851,-0.00096869544,0.08524909,0.28665602
0.013173644,0.032390904,-0.061108142,-0.0013666695,0.08523996,0.28641474
0.013297543,0.032509897,-0.061036613,-0.0017785494,0.08525523,0.2861789
0.013440907,0.032646712,-0.06096036,-0.0022398767,0.08526646,0.28591558
0.0135491965,0.03274321,-0.06091739,-0.002561284,0.08528398,0.28574556
0.013664074,0.032858312,-0.060846776,-0.0029540926,0.08529049,0.2855174
0.013780937,0.032973826,-0.060776103,-0.003349409,0.08530015,0.28528813
0.013915241,0.03311352,-0.06068939,-0.003828179,0.08530678,0.28501448
0.014009045,0.033222184,-0.060616326,-0.0041970876,0.085296854,0.28479725
0.01411655,0.033335753,-0.060544517,-0.00459581,0.08531052,0.28457686
0.014212637,0.033431128,-0.060499538,-0.004922327,0.08533024,0.28441727
0.014336685,0.0335685,-0.060415786,-0.005402127,0.08534406,0.284162
0.014434457,0.03368054,-0.06034663,-0.005793625,0.08535308,0.2839552
0.014532752,0.033788864,-0.06028341,-0.006169196,0.08536569,0.28375942
0.014615327,0.033902768,-0.060198702,-0.006569285,0.08535472,0.2835331
0.014703778,0.034013305,-0.060126435,-0.0069570215,0.08535851,0.2833281
0.014805517,0.034148097,-0.060037762,-0.007431244,0.08536091,0.28308302
0.014878734,0.034243207,-0.05998641,-0.007763357,0.08537153,0.2829332
0.01495457,0.034351274,-0.05991583,-0.008146752,0.08537479,0.28274423
0.015045379,0.034481652,-0.059833348,-0.00860849,0.08538126,0.28252304
0.015123725,0.034585115,-0.059771307,-0.00897083,0.08539156,0.28234914
0.015191662,0.034689922,-0.05969521,-0.009335133,0.08538063,0.2821528
0.015276633,0.03479937,-0.05961913,-0.00972652,0.08539276,0.2819459
0.015354416,0.034890816,-0.059566256,-0.010037278,0.085403726,0.2817876
0.015458514,0.035024785,-0.059465505,-0.010498549,0.08539765,0.28151318
0.015545729,0.03513349,-0.059381455,-0.010870096,0.085390545,0.28128228
0.015642004,0.03524114,-0.059300113,-0.011236628,0.085391484,0.2810487
0.015723193,0.035352014,-0.059201874,-0.011620528,0.085372545,0.28079256
0.015826544,0.035472017,-0.059110314,-0.012014009,0.08535799,0.28053066
0.015920758,0.03558259,-0.059017282,-0.012400043,0.085356295,0.28027496
0.016007114,0.035672914,-0.058951516,-0.012701255,0.085359365,0.28007826
0.016098408,0.035775553,-0.058866333,-0.013049858,0.08535372,0.279838
0.016196068,0.035875533,-0.05878539,-0.013387079,0.08535405,0.27960014
0.016307577,0.035997223,-0.058678634,-0.013789097,0.08533451,0.27929673
0.016392248,0.036099263,-0.058583952,-0.0141449785,0.0853238,0.27904144
0.016484592,0.036200475,-0.05849213,-0.014487403,0.085311525,0.2787834
0.016570909,0.036287207,-0.058418598,-0.014772165,0.085303746,0.2785662
0.016593406,0.036371354,-0.05831929,-0.015068307,0.08524688,0.27835038
0.016509559,0.0364543,-0.058178157,-0.015390463,0.08510753,0.2781403
0.016446937,0.03652632,-0.058055997,-0.015665473,0.084989354,0.2779484
0.016382178,0.036602493,-0.05792929,-0.015970243,0.08488009,0.27775154
0.016312893,0.036673166,-0.057807636,-0.016244879,0.0847623,0.27756676
0.016238628,0.036732044,-0.057701726,-0.016473867,0.08465003,0.27741778
0.016150888,0.036817204,-0.057552245,-0.016806355,0.084504575,0.27719223
0.016076548,0.036884915,-0.057430774,-0.017067758,0.08438135,0.27701074
0.016007114,0.036954727,-0.057305675,-0.017333394,0.084255576,0.27681673
0.01593764,0.03703008,-0.057175487,-0.017636104,0.08414182,0.2766144
0.015843948,0.03711572,-0.057021685,-0.01797546,0.08399431,0.27638417
0.01576448,0.0371831,-0.056898125,-0.018242816,0.08387273,0.27620244
0.015680745,0.037236925,-0.05679335,-0.018456513,0.08375793,0.2760623
0.015580053,0.0373189,-0.05664132,-0.01878451,0.083608836,0.27584073
0.015497667,0.03738362,-0.056520846,-0.019045258,0.0834907,0.27566737
0.01541906,0.037448376,-0.05639987,-0.019303499,0.0833723,0.27548882
0.0153411655,0.03751624,-0.056277912,-0.019586109,0.08326585,0.27530882
0.015240212,0.037596606,-0.056128334,-0.019913001,0.08312338,0.27509126
0.015160819,0.037661847,-0.056007355,-0.020178502,0.08300989,0.27491295
0.015077795,0.03771545,-0.055902548,-0.020398285,0.082902424,0.27477074
0.014978039,0.037794657,-0.055752862,-0.020719562,0.0827594,0.27455035
0.014895803,0.037855893,-0.055635214,-0.020966329,0.082642876,0.27438015
0.014822736,0.037922487,-0.055511724,-0.02123419,0.08252975,0.2741893
0.014747723,0.03799061,-0.055387713,-0.021515414,0.082422175,0.2739992
0.014659795,0.038075846,-0.05523578,-0.021871204,0.082297675,0.27376235
0.014582574,0.038134947,-0.055123318,-0.02211305,0.08219107,0.2735972
0.01450277,0.03818256,-0.055027544,-0.022309791,0.0820918,0.27346894
0.01442858,0.038242605,-0.054914575,-0.022555418,0.08198759,0.27329943
0.014333541,0.038318776,-0.054769214,-0.022866718,0.081852354,0.2730802
0.014262907,0.038383983,-0.054646607,-0.023129208,0.081741445,0.27288634
0.014171012,0.038461428,-0.054500546,-0.02344779,0.081610434,0.27266178
0.014101127,0.038526185,-0.054383215,-0.023721023,0.08151521,0.27247736
0.014025852,0.038581733,-0.05427599,-0.023951322,0.08141526,0.2723189
0.013949006,0.0386274,-0.05418402,-0.024142934,0.08132295,0.27219397
0.013877436,0.038686357,-0.054072704,-0.024386372,0.08122339,0.2720229
0.013810209,0.038748752,-0.053955536,-0.024641676,0.08112142,0.27183506
0.013724227,0.03882459,-0.05381334,-0.024956664,0.08099921,0.2716103
0.013657187,0.038888898,-0.053696077,-0.0252284,0.08090597,0.27142057
0.013582512,0.038934715,-0.053602148,-0.025419638,0.08081231,0.27128777
0.013511839,0.038992807,-0.053491384,-0.025662402,0.08071562,0.2711148
0.013450078,0.03905064,-0.053385228,-0.025904996,0.08062901,0.27094316
0.013360578,0.039119665,-0.05325302,-0.026198328,0.08051432,0.27074003
0.013298591,0.039176337,-0.05314675,-0.02643469,0.08042542,0.27056754
