Der-mark/objtrans/data/qtarget_trajectory.csv
q0,q1,q2,q3,q4,q5
0.0,0.0,0.0,0.0,0.0,0.0
-0.004,-0.004,0.004,0.004,-0.004,0.004
0.0,0.0,0.0,0.0,-0.008,0.008
0.004,0.004,-0.004,-0.004,-0.012,0.012
0.00044858176,0.008,-0.008,-0.008,-0.016,0.016
0.004448582,0.012,-0.012,-0.012,-0.020000001,0.020000001
0.005622581,0.016,-0.016,-0.016,-0.024000002,0.024000002
0.009020708,0.020000001,-0.020000001,-0.020000001,-0.020000001,0.028000003
0.013020707,0.024000002,-0.024000002,-0.024000002,-0.016,0.032
0.011025438,0.028000003,-0.028000003,-0.028000003,-0.015962288,0.036000002
0.015025439,0.032,-0.032,-0.032,-0.011962287,0.040000003
0.016179075,0.035579074,-0.036000002,-0.036000002,-0.012081106,0.044000003
0.017438278,0.03468161,-0.040000003,-0.040000003,-0.011248269,0.048000004
0.019728012,0.03232517,-0.044000003,-0.044000003,-0.0130081205,0.052000005
0.022056079,0.031456005,-0.048000004,-0.048000004,-0.014482707,0.056000005
0.02243979,0.031074092,-0.052000005,-0.052000005,-0.016025137,0.060000006
0.024866788,0.029086241,-0.056000005,-0.056000005,-0.020025138,0.06275499
0.024870832,0.02891151,-0.060000006,-0.060000006,-0.021420825,0.063979566
0.027316919,0.027634455,-0.064,-0.064,-0.024668662,0.061192136
0.028075173,0.025993634,-0.068,-0.068,-0.027523655,0.05996389
0.029773375,0.024782566,-0.072000004,-0.072000004,-0.0292358,0.058697015
0.033773374,0.020782566,-0.076000005,-0.076000005,-0.0332358,0.054697014
0.034273006,0.018460725,-0.080000006,-0.080000006,-0.0372358,0.053801544
0.038273007,0.014460724,-0.08400001,-0.08400001,-0.0412358,0.050561976
0.035792135,0.014643624,-0.08800001,-0.08800001,-0.04444216,0.049056064
0.039792135,0.010842771,-0.09200001,-0.09200001,-0.04844216,0.047635943
0.041437697,0.009491674,-0.09600001,-0.09600001,-0.051228583,0.047384776
0.040885694,0.009373165,-0.10000001,-0.10000001,-0.0539742,0.045287814
0.040822733,0.007941551,-0.10400001,-0.10400001,-0.05656773,0.045433648
0.043134104,0.00561633,-0.10800001,-0.10800001,-0.06056773,0.044612695
0.04357097,0.00442675,-0.11200001,-0.11200001,-0.06456773,0.044421643
0.04462303,0.004054379,-0.11600001,-0.11600001,-0.06856773,0.04236376
0.044223256,0.002411052,-0.12000001,-0.12000001,-0.070553266,0.04417377
0.04499918,0.0018722223,-0.12400001,-0.12400001,-0.0740082,0.04273714
0.04548605,-0.00014366291,-0.128,-0.128,-0.07704943,0.044059042
0.046245504,-0.00046671738,-0.132,-0.132,-0.079838,0.042547286
0.046515875,-0.0020413573,-0.13424051,-0.13599999,-0.082043834,0.043700673
0.04681776,-0.0012718923,-0.13461761,-0.13999999,-0.08575236,0.039700672
0.04694207,-0.0048069814,-0.13296205,-0.14399998,-0.08531192,0.043700673
0.047036957,-0.0024025922,-0.13398643,-0.14799997,-0.089185245,0.039700672
0.047011994,-0.0044313166,-0.1331685,-0.15199997,-0.09029219,0.041513573
0.04630487,-0.004453233,-0.13251147,-0.15599996,-0.09161337,0.040373664
0.045965027,-0.004387896,-0.13255005,-0.15999995,-0.092792355,0.03932127
0.045893755,-0.005393462,-0.1318839,-0.16399994,-0.0938614,0.039879117
0.04534134,-0.0051359124,-0.13167693,-0.16799994,-0.094689,0.038526036
0.045225263,-0.005978407,-0.1311275,-0.17199993,-0.095383726,0.03899015
0.04340406,-0.0048464905,-0.13019358,-0.17599992,-0.09562107,0.036510263
0.044517506,-0.006668573,-0.12933722,-0.17999992,-0.09536483,0.038700204
0.043361425,-0.0060709757,-0.12710887,-0.18399991,-0.093876354,0.0375369
0.042294286,-0.0054555605,-0.12632318,-0.1879999,-0.0936062,0.035932656
0.04203687,-0.0060747373,-0.12342353,-0.1919999,-0.09119505,0.03697453
0.041870147,-0.006372526,-0.12049204,-0.19599989,-0.08831969,0.037756853
0.04093608,-0.0061974013,-0.120409384,-0.19999988,-0.08875253,0.03646074
0.040221356,-0.006040188,-0.11887691,-0.20399988,-0.08735597,0.035919327
0.03865282,-0.006038354,-0.11796524,-0.20799987,-0.08706597,0.034910392
0.038816433,-0.005796807,-0.11565188,-0.21199986,-0.08394383,0.03509905
0.038142063,-0.0058226534,-0.114411354,-0.21599986,-0.08263686,0.034631487
0.038106013,-0.0061491146,-0.11235668,-0.21999985,-0.080269404,0.035314243
0.037459757,-0.0052413954,-0.11112628,-0.22399984,-0.0779983,0.03388589
0.03688095,-0.005649008,-0.1099863,-0.22799984,-0.07662059,0.033838123
0.035807557,-0.0054336074,-0.10913996,-0.23199983,-0.075492926,0.032822978
0.035378926,-0.0055864598,-0.10785823,-0.23599982,-0.073518924,0.03266528
0.034839272,-0.0053899805,-0.10666933,-0.23999982,-0.07160525,0.032086544
0.03396614,-0.004955342,-0.10538107,-0.24399981,-0.069529004,0.031229172
0.03335091,-0.0050869333,-0.10441872,-0.2479998,-0.06778905,0.030784518
0.032827508,-0.0049453853,-0.10334066,-0.2519998,-0.06587419,0.030219037
0.033457667,-0.0052388124,-0.10130846,-0.2559998,-0.06289118,0.03137684
0.031219026,-0.004665976,-0.10129865,-0.2599998,-0.06203688,0.028800039
0.030001223,-0.004384003,-0.100339465,-0.26399982,-0.06009539,0.027785791
0.029145796,-0.00445211,-0.0991972,-0.26799983,-0.05796938,0.027333314
0.028648142,-0.00393705,-0.098238744,-0.27199984,-0.055826973,0.02649503
0.027072003,-0.004005886,-0.09740755,-0.27599984,-0.053910848,0.025483627
0.026435738,-0.0035850604,-0.09657376,-0.27999985,-0.05177207,0.02472788
0.025183124,-0.0038366013,-0.09573061,-0.28399986,-0.04971346,0.024195602
0.023450896,-0.003585079,-0.095059946,-0.28799987,-0.04621522,0.025017226
0.022688713,-0.0043326463,-0.09423323,-0.29199988,-0.045316335,0.02331446
0.021585375,-0.0035805497,-0.09333756,-0.29599988,-0.041762006,0.024035467
0.018787054,-0.0028276856,-0.09366,-0.2999999,-0.03879161,0.023476763
0.018481987,-0.0039578616,-0.09136484,-0.3039999,-0.034960534,0.025802357
0.0155077,-0.0039841197,-0.091657154,-0.3079999,-0.03291635,0.02350768
0.015001322,-0.0033964794,-0.090721086,-0.31199992,-0.029616876,0.0247375
0.013140142,-0.0033639509,-0.0899205,-0.314,-0.026667593,0.023691958
0.011740795,-0.0029954545,-0.08911478,-0.314,-0.02316286,0.025142437
0.00863531,-0.0017999603,-0.08890093,-0.314,-0.020023031,0.023703637
0.007301431,-0.0028253836,-0.08849955,-0.314,-0.01803245,0.021954227
0.0054526785,-0.0014616151,-0.08764772,-0.314,-0.014643624,0.022189036
0.004262313,-0.0012249342,-0.08721012,-0.314,-0.012310337,0.02260917
0.0028050956,-0.00049943273,-0.085927,-0.314,-0.008415306,0.024171757
0.0022633837,-0.0011177299,-0.08608367,-0.314,-0.00768651,0.02260801
0.0012168678,-0.0005145364,-0.08499246,-0.314,-0.0043016346,0.024124593
0.00067706493,-0.0013128802,-0.08468402,-0.314,-0.0026616387,0.023600886
-0.0005507329,0.00018820667,-0.08413876,-0.314,-0.00022342987,0.024940416
-0.00092093257,4.7800306e-05,-0.08338157,-0.314,0.002291495,0.025084604
-0.0013410475,0.0005028203,-0.08257065,-0.314,0.004918977,0.027184112
-0.0019137154,3.1442643e-05,-0.083066724,-0.314,0.005125226,0.023184111
-0.0018207537,-0.00028573503,-0.08166089,-0.314,0.008470911,0.027184112
-0.0022677258,4.2672153e-05,-0.081343696,-0.314,0.01036997,0.026221408
-0.002321272,-0.00063401845,-0.08085959,-0.314,0.0120496815,0.026987223
-0.0023903896,-0.0004923207,-0.079976164,-0.314,0.014750942,0.029167881
-0.0025042007,-0.0008900701,-0.079700135,-0.314,0.016211528,0.028554488
-0.0025371031,-0.0004577712,-0.078779824,-0.314,0.019088492,0.030103186
-0.002804347,-0.0005029887,-0.07855057,-0.314,0.020664068,0.029197339
-0.0029020063,-0.0005402707,-0.07812344,-0.314,0.022537377,0.029007336
-0.0028274986,-0.00078105024,-0.07735138,-0.314,0.024944237,0.030764157
-0.002726414,-0.00092649116,-0.0765879,-0.314,0.027373478,0.03207898
-0.0026589062,-0.0014774486,-0.07617359,-0.314,0.028836235,0.03250331
-0.002394376,-0.00082705385,-0.075081214,-0.314,0.03175797,0.03446473
-0.002633471,-0.001159148,-0.07507203,-0.314,0.032637578,0.03280879
-0.0022454914,-0.0014180258,-0.07395985,-0.314,0.034950223,0.035815004
-0.0023176223,-0.0006633462,-0.07386484,-0.314,0.036019422,0.033732828
-0.0019427998,-0.0017540876,-0.07283458,-0.314,0.03777396,0.037095845
-0.0022026321,-0.0012500322,-0.07294338,-0.314,0.03845173,0.03376794
-0.0013986174,-0.0027066316,-0.071646556,-0.314,0.039832737,0.03776794
-0.0017351661,-0.00103888,-0.07158691,-0.314,0.04139937,0.03564862
-0.0013436865,-0.0017521974,-0.07071123,-0.314,0.04260381,0.03763123
-0.0013630012,-0.0008301794,-0.070360065,-0.314,0.044006564,0.036460027
-0.00068290427,-0.0041400227,-0.06979316,-0.314,0.04310996,0.040158246
-0.0009479208,-0.000869988,-0.06923661,-0.314,0.046184227,0.03748929
-0.0006421224,-0.0020942297,-0.0685754,-0.314,0.04669738,0.03822475
-0.00065578497,0.00015579071,-0.06809645,-0.314,0.048925467,0.03751942
-0.0002787166,-0.0010736166,-0.06749452,-0.314,0.04923738,0.039069355
-0.00013175966,-0.00028938462,-0.066927426,-0.314,0.050686963,0.039471224
8.459567e-06,-0.00057510094,-0.06634997,-0.314,0.051434513,0.039414663
0.00018453837,-0.0007946941,-0.06587419,-0.314,0.05201549,0.039904833
0.00029743245,-0.0007704758,-0.06547567,-0.314,0.052623045,0.04003955
0.0003816538,-0.00021873222,-0.06487643,-0.314,0.053623408,0.04110347
0.00042840603,-0.00030111946,-0.06442547,-0.314,0.054070454,0.04115127
0.00051008206,-0.00047921957,-0.064022504,-0.314,0.054423478,0.04095135
0.0005461288,-0.00016200446,-0.06356926,-0.314,0.05501003,0.04171185
0.0005614384,-0.00012223328,-0.063198835,-0.314,0.055369746,0.041586753
0.0005658927,0.00013119816,-0.062641494,-0.314,0.055819828,0.042985424
0.0005704594,0.0002808502,-0.062398374,-0.314,0.056150384,0.042502705
0.0005757747,0.00044891858,-0.06204468,-0.314,0.056482892,0.04261324
0.0005507329,0.0006481302,-0.061668176,-0.314,0.056792792,0.042772476
0.00053722004,0.00078965956,-0.06116199,-0.314,0.057036467,0.043918375
0.00052194786,0.0008204284,-0.06082312,-0.314,0.05720914,0.04381263
0.0005345998,0.00088256504,-0.060456753,-0.314,0.057405997,0.044010267
0.00053590996,0.0008694265,-0.060232352,-0.314,0.057567548,0.043124896
0.0004635544,0.0011669338,-0.05961162,-0.314,0.057765342,0.044705864
0.0004474588,0.0012191137,-0.05930648,-0.314,0.057906236,0.044378486
0.0004344325,0.0012659034,-0.05874259,-0.314,0.05798746,0.045538753
0.00035054804,0.0016437391,-0.058334675,-0.314,0.058231514,0.045430165
0.00055694656,0.0012067237,-0.057533115,-0.314,0.05821673,0.047539257
-0.00033302995,0.0036539347,-0.05876561,-0.314,0.059099704,0.043539256
0.00015470531,0.0023918494,-0.056780476,-0.314,0.058630873,0.046965502
0.00023537064,0.0023074409,-0.056420173,-0.314,0.05876978,0.046523396
0.000373868,0.0016956193,-0.055785667,-0.314,0.05856795,0.048069216
0.00014721895,0.0024913803,-0.055505157,-0.314,0.058859434,0.047181707
0.00028384474,0.0016692674,-0.054871846,-0.314,0.058536697,0.048607256
1.2352539e-06,0.002912562,-0.05418101,-0.314,0.058920372,0.049640823
-0.00016930366,0.0034796153,-0.05433755,-0.314,0.059215184,0.046681695
-0.00023080397,0.0034558084,-0.053995855,-0.314,0.059156865,0.046696443
-0.00011611319,0.0034344725,-0.05361652,-0.314,0.059343614,0.046477094
8.9461806e-05,0.0025650833,-0.053059276,-0.314,0.059073687,0.047497522
-0.00020080246,0.003513603,-0.052654173,-0.314,0.059293788,0.047314815
0.00010930063,0.002424415,-0.052087475,-0.314,0.05900938,0.048352797
-0.0017915381,0.006424415,-0.052081164,-0.314,0.058856845,0.04793693
-0.0003825334,0.0035806808,-0.051261652,-0.314,0.059025593,0.048537448
-0.00064159837,0.0044238674,-0.051311344,-0.314,0.059278667,0.046478067
3.8142898e-05,0.0026286799,-0.050210606,-0.314,0.05894949,0.05005927
-0.0005226591,0.0039004597,-0.05003041,-0.314,0.058953907,0.048917826
-0.00036001828,0.0034779308,-0.049520142,-0.314,0.05885786,0.049554016
-0.0007453404,0.0044980575,-0.049458664,-0.314,0.058975246,0.0481601
-0.0006112225,0.0044124136,-0.0496254,-0.314,0.059176255,0.045824286
-0.00047270648,0.00392816,-0.04867905,-0.314,0.05890442,0.048238594
-0.00065325835,0.0039649922,-0.047400307,-0.314,0.05844012,0.052238595
-0.0006175672,0.004112473,-0.0475634,-0.314,0.058609426,0.049773555
-0.0006168186,0.004361731,-0.04761541,-0.314,0.058778133,0.047783162
-0.00064131763,0.0048996625,-0.04780508,-0.314,0.05913815,0.044824183
-0.0008391443,0.0063768676,-0.048973825,-0.314,0.0601354,0.040824182
-0.00046742856,0.00416091,-0.046110187,-0.314,0.05856499,0.044824183
-0.00079710846,0.005878352,-0.046868593,-0.314,0.059377488,0.043206085
1.3288285e-05,0.0018906011,-0.04367546,-0.314,0.057516605,0.047206085
0.00022807147,0.0009599365,-0.042757187,-0.314,0.05729392,0.051206086
-0.0003051621,0.0042994446,-0.044877484,-0.314,0.05855863,0.047206085
-0.00066351466,0.0048666853,-0.044490065,-0.314,0.058187682,0.04741139
-0.0007728527,0.005658665,-0.044821937,-0.314,0.058561027,0.044126417
-0.00081348483,0.00588771,-0.044661265,-0.314,0.05856612,0.043305095
-3.0432013e-05,0.0036676347,-0.04301249,-0.314,0.05814441,0.047305096
-0.00018682171,0.0041359803,-0.042984713,-0.314,0.058104135,0.047588665
0.00012936402,0.002621493,-0.041507732,-0.314,0.05754217,0.051588666
-0.00074966374,0.0061124125,-0.043656822,-0.314,0.05841991,0.047588665
0.00094814546,0.0021124124,-0.040410984,-0.314,0.05775684,0.051588666
-0.0002155506,0.004962136,-0.042294007,-0.314,0.058188915,0.047588665
0.00053905416,0.0023208414,-0.0402268,-0.314,0.057774622,0.051588666
-0.000607105,0.00584661,-0.041992288,-0.314,0.057909753,0.047588665
0.00024259498,0.003502486,-0.04035639,-0.314,0.057750255,0.04856511
-0.00023432256,0.005230147,-0.041179832,-0.314,0.057881713,0.044565108
0.0014126729,0.0012301467,-0.03745399,-0.314,0.05788782,0.04856511
0.000187458,0.0039876383,-0.0397788,-0.314,0.057640206,0.046811096
-0.0006888934,0.0066439803,-0.041272998,-0.314,0.057848252,0.042811096
-4.3607957e-05,0.0047494485,-0.039726544,-0.314,0.05747169,0.044649716
0.00047886395,0.0036704044,-0.038903046,-0.314,0.057680633,0.046348665
0.0011105243,0.001364386,-0.036700886,-0.314,0.057724018,0.050348666
0.00056870014,0.0032070372,-0.037622526,-0.314,0.057554483,0.04912576
0.0006685305,0.003047803,-0.037332676,-0.314,0.05746267,0.04892775
0.0005077987,0.0036924891,-0.037521668,-0.314,0.05766042,0.04726698
0.00041747597,0.0042004003,-0.037888743,-0.314,0.057595737,0.044651885
0.0006771398,0.0033540316,-0.036669645,-0.314,0.057618607,0.04810335
0.00073624443,0.0034155322,-0.036688138,-0.314,0.057517953,0.04672474
0.0009381137,0.0027765725,-0.03568059,-0.314,0.057563063,0.04931962
0.00078071334,0.003382143,-0.035974596,-0.314,0.057530828,0.04720424
0.0010388425,0.0028116086,-0.035295717,-0.314,0.057530046,0.048290398
0.0008591702,0.003359684,-0.03542897,-0.314,0.057624143,0.047131475
0.0013257567,0.0028415166,-0.036014013,-0.314,0.057364296,0.043238726
0.0009850905,0.0035565,-0.03578214,-0.314,0.057508823,0.043675777
0.001178313,0.002757445,-0.03424261,-0.314,0.057695754,0.047675777
0.0010463288,0.003412837,-0.034949508,-0.314,0.057658058,0.044833582
0.0013212649,0.00309594,-0.034413677,-0.314,0.057382375,0.04478076
0.0014802747,0.0024673117,-0.033910614,-0.314,0.05773599,0.046217505
0.0012311292,0.0033283536,-0.034174353,-0.314,0.05749602,0.044216927
0.0012960732,0.0032582812,-0.033982687,-0.314,0.05754861,0.04400529
0.0013302484,0.003374432,-0.034050267,-0.314,0.057497967,0.042834576
0.0015213748,0.0027008483,-0.03294004,-0.314,0.057668764,0.04567699
0.0014717778,0.003092459,-0.03338232,-0.314,0.057555497,0.04339508
0.0014718152,0.0032628481,-0.03347863,-0.314,0.0574785,0.042249367
0.0015521062,0.003297173,-0.03378458,-0.314,0.057532854,0.040520586
0.0015833616,0.003044434,-0.032820188,-0.314,0.05757807,0.042770416
0.0016624924,0.002851249,-0.03247561,-0.314,0.057627518,0.04312445
0.0016101254,0.0029151074,-0.031940468,-0.314,0.05764724,0.04405017
0.0014668741,0.0030091733,-0.030887682,-0.314,0.057737898,0.046681847
0.0017186775,0.0031481571,-0.032815788,-0.314,0.057588886,0.042681847
0.0017564085,0.0030975495,-0.032543436,-0.314,0.057573725,0.04002903
0.0015986338,0.0033712878,-0.03221793,-0.314,0.057681303,0.04060926
0.001550272,0.0031889577,-0.031095877,-0.314,0.057735957,0.043430228
0.001974523,0.0025382822,-0.03140145,-0.314,0.057725366,0.041487858
0.002113582,0.0030092855,-0.033245523,-0.314,0.05773251,0.037487857
0.001762173,0.0030515087,-0.030687308,-0.314,0.05762759,0.041487858
0.0019458504,0.0029322885,-0.03164854,-0.314,0.05772061,0.03883743
0.0018394695,0.001693935,-0.027648538,-0.314,0.05831914,0.04283743
0.0023932343,0.0035061166,-0.03164854,-0.314,0.058469992,0.03883743
0.0020354246,0.0020065273,-0.02888909,-0.314,0.058002394,0.04283743
0.002252828,0.0035020744,-0.03288909,-0.314,0.05802789,0.03883743
0.0022141235,0.002289586,-0.03036652,-0.314,0.057876326,0.039566003
0.0023053072,0.0027372318,-0.031618875,-0.314,0.05799637,0.035566002
0.0022967353,0.002252641,-0.030292217,-0.314,0.057962455,0.03847932
0.002422169,0.0024940378,-0.03126013,-0.314,0.058051545,0.034664206
0.0022367323,0.002559843,-0.030587947,-0.314,0.057931688,0.036399167
0.0023427764,0.0026399842,-0.030909503,-0.314,0.058046937,0.03450321
0.00227641,0.0024833325,-0.030234048,-0.314,0.057998426,0.036212306
0.0023115957,0.0022398392,-0.029504558,-0.314,0.058061946,0.037754416
0.0023811439,0.0022355344,-0.029613394,-0.314,0.058099866,0.036679305
0.00222569,0.0027726048,-0.030093754,-0.314,0.058071233,0.034662146
0.0024992411,0.0030717216,-0.031272557,-0.314,0.05849859,0.030662145
0.0025421004,0.00239694,-0.029977996,-0.314,0.058287736,0.03327721
0.0026464225,0.0022015092,-0.02985011,-0.314,0.058390748,0.032954287
0.0024713918,0.0018261438,-0.02782674,-0.314,0.058211,0.036954287
0.0026034508,0.0020645463,-0.028927026,-0.314,0.05831802,0.03460117
0.001981972,0.0029291443,-0.028073622,-0.314,0.058273364,0.0373524
0.0030457815,0.0014761199,-0.029020233,-0.314,0.05841437,0.0333524
0.0018637627,0.004310075,-0.029651124,-0.314,0.05915881,0.030760188
0.003969821,0.0004630678,-0.029963454,-0.314,0.059172776,0.029924078
0.0029423952,0.0018601319,-0.028838182,-0.314,0.058743466,0.032360844
0.0026372517,0.0016924378,-0.027035583,-0.314,0.05872127,0.036360845
0.003212652,0.0004972429,-0.026656792,-0.314,0.058639705,0.0372708
0.0031353557,0.0035919105,-0.030656792,-0.314,0.06011957,0.0332708
0.0035464305,0.0008932706,-0.028295085,-0.314,0.059576433,0.03264443
0.0034407608,0.001976432,-0.029808879,-0.314,0.059944954,0.028695941
0.0035511844,0.00024431688,-0.026526062,-0.314,0.059438128,0.03269594
0.003310274,0.0009720269,-0.027082428,-0.314,0.059330434,0.034886736
0.0035091862,0.0004513517,-0.026570026,-0.314,0.05951299,0.035893273
0.0032924567,0.0044513517,-0.030570026,-0.314,0.061534148,0.031893272
0.0037334398,0.00045135152,-0.026639087,-0.314,0.06019166,0.035109643
0.003845735,0.0015349251,-0.02924471,-0.314,0.060894556,0.031109642
0.004321754,-0.002465075,-0.02524471,-0.314,0.061110914,0.035109643
0.0039800024,0.0015349251,-0.02924471,-0.314,0.06176428,0.031109642
0.0021613075,0.0055349255,-0.03324471,-0.314,0.06299638,0.027109642
0.0038648625,0.0019328617,-0.029347122,-0.314,0.061414935,0.027785528
0.004142007,-1.1397991e-05,-0.026037952,-0.314,0.061039228,0.03178553
0.0044295574,-0.0016906037,-0.023601672,-0.314,0.06129324,0.03578553
0.0037426853,0.0023093964,-0.027601672,-0.314,0.06119169,0.03178553
0.0045006773,0.00028384477,-0.027105842,-0.314,0.06202627,0.03201423
0.0043135565,0.0032279242,-0.031105842,-0.314,0.06367131,0.028014228
0.004886299,-0.0006774019,-0.027105842,-0.314,0.062577896,0.03201423
0.0049452917,0.00031341577,-0.027700145,-0.314,0.06331467,0.029717078
0.0047524436,-0.0014288248,-0.023700144,-0.314,0.062085595,0.033717077
0.0049253027,-0.00035011757,-0.025634307,-0.314,0.063083306,0.033955734
0.0050450093,-0.0009617706,-0.02458652,-0.314,0.063108414,0.03618165
0.0047727316,0.0030382297,-0.02858652,-0.314,0.06624161,0.03218165
0.0053796866,-0.00053688325,-0.02605607,-0.314,0.06434049,0.032288227
0.0053631044,-0.002157583,-0.022493731,-0.314,0.06373417,0.036288228
0.0056896587,-0.0020912166,-0.023463642,-0.314,0.064508736,0.03774506
0.005650767,-0.001174963,-0.024927018,-0.314,0.06504892,0.034194063
0.005991995,0.00036136585,-0.028927019,-0.314,0.06668611,0.030194063
0.0060018017,-0.00079362735,-0.026444366,-0.314,0.06626908,0.030274024
0.0057813665,-0.0031925887,-0.022444366,-0.314,0.06492453,0.034274023
0.006049228,-0.002701129,-0.022344677,-0.314,0.06587332,0.038274024
0.0062359,-0.0023687915,-0.023429954,-0.314,0.06649468,0.036622893
0.006351938,-0.000901805,-0.026480937,-0.314,0.06754658,0.032622892
0.0068506408,-0.0031125597,-0.023386663,-0.314,0.067516714,0.036122583
0.006588469,-0.0015975857,-0.025334144,-0.314,0.0679514,0.032122582
0.0068227546,-0.003141195,-0.022711938,-0.314,0.06784641,0.036122583
0.0069873044,-0.0019606734,-0.025325889,-0.314,0.068622075,0.032122582
0.007123331,-0.0032231142,-0.022884518,-0.314,0.06847751,0.036122583
0.0072098733,-0.0042433343,-0.020914823,-0.314,0.068402536,0.040122584
0.0076103173,-0.0026887392,-0.024914823,-0.314,0.06960578,0.036122583
0.0077069663,-0.0029067413,-0.024447253,-0.314,0.06992829,0.032122582
0.007736986,-0.0026846405,-0.024585154,-0.314,0.07017668,0.03129853
0.0077759153,-0.001321714,-0.027364194,-0.314,0.0706898,0.027298529
0.007930396,-0.0040864022,-0.023364194,-0.314,0.07020843,0.03129853
0.008022103,-0.005194531,-0.019385401,-0.314,0.070450984,0.03529853
0.007988827,-0.0054979525,-0.018379498,-0.314,0.07050549,0.03929853
0.00806092,-0.0035183567,-0.021668285,-0.314,0.07075108,0.036116704
0.0085667735,-0.0024691834,-0.025343332,-0.314,0.07205288,0.032116704
0.008382945,-0.0026827313,-0.023627799,-0.314,0.07176783,0.031141281
0.008865403,-0.003608605,-0.023215001,-0.314,0.07251968,0.031893957
0.00816528,-0.005974065,-0.019215,-0.314,0.07144738,0.035893958
0.009237175,-0.004003528,-0.022755248,-0.314,0.07308925,0.032286167
0.008288843,-0.0053138444,-0.018755248,-0.314,0.07205097,0.036286168
0.009236164,-0.002996278,-0.022755248,-0.314,0.0739178,0.032286167
0.0093721915,-0.004472454,-0.020693714,-0.314,0.07373165,0.03574467
0.008956774,-0.0064104996,-0.016693713,-0.314,0.07297916,0.03974467
0.00970204,-0.0049605262,-0.020015601,-0.314,0.07434059,0.036792498
0.009725585,-0.005216559,-0.019142358,-0.314,0.07453554,0.038401574
0.009750738,-0.0017050337,-0.023142358,-0.314,0.07507826,0.034401573
0.010031401,-0.003019411,-0.022993425,-0.314,0.07530588,0.030474547
0.0101213865,-0.003750265,-0.021508846,-0.314,0.07535402,0.03336824
0.010383671,-0.006153288,-0.018033592,-0.314,0.075653665,0.03736824
0.010467331,-0.0069235764,-0.016700555,-0.314,0.07586279,0.041368242
0.01016915,-0.003820618,-0.02010001,-0.314,0.075478144,0.03736824
0.010354624,-0.0026065202,-0.022421356,-0.314,0.07527331,0.033388756
0.01026505,-0.0008101908,-0.024765536,-0.314,0.074923925,0.029782956
0.01050495,-0.0025168713,-0.022220984,-0.314,0.07532744,0.033782955
0.010305326,0.00027448684,-0.02574413,-0.314,0.07472502,0.029782955
0.010571952,-0.0037255134,-0.02174413,-0.314,0.07583719,0.033782955
0.010564316,-0.0012536258,-0.023066998,-0.314,0.075073056,0.034346335
0.010675039,-0.005253626,-0.019066997,-0.314,0.07736915,0.038346335
0.010585728,-0.0020290425,-0.020958357,-0.314,0.07534945,0.038693503
0.010870022,-0.0029562074,-0.020067967,-0.314,0.0756416,0.040699996
0.010238399,0.0010437928,-0.024067968,-0.314,0.07440737,0.036699995
0.010963114,-0.0015237518,-0.021789659,-0.314,0.075333096,0.038748715
0.0107855005,0.0024762484,-0.02578966,-0.314,0.07442522,0.034748714
0.011317106,-0.0015237518,-0.021789659,-0.314,0.0758258,0.038748715
0.011195116,-0.0008484086,-0.022315163,-0.314,0.075278215,0.039276764
0.011577106,-0.003887546,-0.018564373,-0.314,0.076255485,0.043276764
0.010376597,0.000112454174,-0.022564374,-0.314,0.07340072,0.039276764
0.01138336,-0.0005564412,-0.022058774,-0.314,0.07526452,0.04116003
0.011271477,0.0020626374,-0.025233358,-0.314,0.07454347,0.037160028
0.010923287,0.0060626375,-0.029233359,-0.314,0.0733332,0.033160027
0.011961867,0.0020626374,-0.025233358,-0.314,0.076586835,0.037160028
0.011776206,-0.0015022659,-0.021233357,-0.314,0.075681545,0.04116003
0.012078804,-0.004101562,-0.017233357,-0.314,0.07651549,0.04516003
0.011945023,-0.0014920472,-0.019567339,-0.314,0.07561918,0.048100993
0.0117583135,0.0016595353,-0.023091834,-0.314,0.074681215,0.044100992
0.011983765,0.0015345882,-0.023200123,-0.314,0.07474923,0.043386806
0.011980022,0.005145776,-0.027200123,-0.314,0.073613144,0.039386805
0.012447133,0.0011457759,-0.023200123,-0.314,0.07502537,0.043386806
0.012625868,-0.0015118108,-0.01964003,-0.314,0.07583951,0.047386806
0.012597869,-0.0012466821,-0.019334307,-0.314,0.07566624,0.051386807
0.011812739,0.002753318,-0.023334308,-0.314,0.07249798,0.047386806
0.0125203105,0.0040196427,-0.025460307,-0.314,0.0738496,0.043386806
0.012632682,0.005409108,-0.027334271,-0.314,0.07335984,0.040617157
0.01305637,0.0022057013,-0.023613406,-0.314,0.07452131,0.044617157
0.012817256,0.0041200346,-0.0248159,-0.314,0.07372772,0.045929167
0.012958261,0.001178388,-0.0208159,-0.314,0.0746655,0.049929168
0.013094813,0.0028646493,-0.022761237,-0.314,0.074054874,0.050457735
0.013354401,0.0015960885,-0.021297337,-0.314,0.074498475,0.053462863
0.013720296,0.0029553464,-0.023777394,-0.314,0.073983945,0.050313022
0.013900268,0.003937555,-0.025055667,-0.314,0.07358357,0.048934974
0.013878222,0.004695173,-0.025446607,-0.314,0.073198736,0.048781615
0.013864671,0.0006951727,-0.021446606,-0.314,0.07483821,0.052781615
0.014039402,0.0033298507,-0.02279891,-0.314,0.07353281,0.05421408
0.013971614,0.0031264094,-0.021656813,-0.314,0.073572345,0.05661158
0.014208182,0.005321368,-0.025065755,-0.314,0.07262895,0.05261158
0.014763894,0.0037283865,-0.023909586,-0.314,0.07315109,0.054353964
0.014198787,0.006466666,-0.025767451,-0.314,0.07203742,0.05173052
0.01418183,0.0077381097,-0.027438572,-0.314,0.071473174,0.04941346
0.0151798725,0.0037381095,-0.023438571,-0.314,0.073640764,0.053413462
0.012251364,0.0077381097,-0.027438572,-0.314,0.0698989,0.04941346
0.014912048,0.003761476,-0.023438571,-0.314,0.07272122,0.053413462
0.0128449565,0.007761476,-0.027438572,-0.314,0.069399565,0.04941346
0.015069747,0.003761476,-0.023438571,-0.314,0.073399566,0.053413462
0.013294473,0.007761476,-0.027438572,-0.314,0.07002322,0.04941346
0.013971314,0.006269513,-0.023438571,-0.314,0.071808,0.053413462
0.012057843,0.010269513,-0.027438572,-0.314,0.06838382,0.04941346
0.012893505,0.008904781,-0.023916379,-0.314,0.07064728,0.053413462
0.013749868,0.0074103945,-0.023586044,-0.314,0.07155436,0.057413463
0.013667144,0.006637355,-0.02158687,-0.314,0.07176327,0.061413463
0.013342536,0.008107149,-0.023490313,-0.314,0.0712189,0.060344722
0.013004191,0.008902011,-0.0239493,-0.314,0.070846304,0.05973593
0.012936589,0.01030308,-0.026613504,-0.314,0.07044519,0.05573593
0.01277013,0.009636945,-0.024648095,-0.314,0.070575036,0.05898363
0.012604645,0.010303792,-0.025426373,-0.314,0.070275396,0.05789388
0.012425459,0.009119003,-0.022161487,-0.314,0.07047996,0.06189388
0.012424224,0.009906417,-0.023840936,-0.314,0.07023759,0.061374206
0.012127689,0.0102833165,-0.02362649,-0.314,0.06994985,0.062110823
0.011946295,0.008726682,-0.019626489,-0.314,0.07013836,0.06611082
0.011785864,0.011435802,-0.02362649,-0.314,0.06937501,0.06211082
0.011142786,0.012917499,-0.026153073,-0.314,0.068511724,0.058339316
0.011516467,0.012933482,-0.027290473,-0.314,0.06869615,0.056460507
0.010927853,0.012965636,-0.025375297,-0.314,0.0681852,0.06045915
0.012659594,0.008965636,-0.021375297,-0.314,0.0701887,0.064459145
0.010982803,0.011904859,-0.022812275,-0.314,0.068300195,0.065859385
0.011246248,0.01240547,-0.024591684,-0.314,0.068199694,0.0628595
0.010846814,0.015112196,-0.028591685,-0.314,0.06708827,0.058859497
0.009739882,0.018741949,-0.032591686,-0.314,0.06539527,0.054859497
0.01108443,0.014741948,-0.028591685,-0.314,0.067459896,0.058859497
0.011191784,0.011151171,-0.024591684,-0.314,0.06777241,0.0628595
0.011314673,0.011580887,-0.021398647,-0.314,0.067623846,0.0668595
0.0103624845,0.013654492,-0.023433436,-0.314,0.06627709,0.067093246
0.009895637,0.015842002,-0.027433436,-0.314,0.06558591,0.063093245
0.010140402,0.016202433,-0.029045722,-0.314,0.06531348,0.059093244
0.009805351,0.018045008,-0.03222057,-0.314,0.064214565,0.055093244
0.010871219,0.014220908,-0.028220568,-0.314,0.06602076,0.059093244
0.009789854,0.014876862,-0.024301926,-0.314,0.06491214,0.063093245
0.009805276,0.013898285,-0.02156561,-0.314,0.06505401,0.067093246
0.009099613,0.01582673,-0.024862034,-0.314,0.06406619,0.06588982
0.008887001,0.017017582,-0.02792322,-0.314,0.06364126,0.06188982
0.008873189,0.017528899,-0.029583296,-0.314,0.06348191,0.05788982
0.008407276,0.017345447,-0.027762657,-0.314,0.06303509,0.060982633
0.008737911,0.01605963,-0.025509303,-0.314,0.0636088,0.064801
0.008772722,0.015188669,-0.023454791,-0.314,0.06386914,0.06841766
0.00799418,0.016921084,-0.026592318,-0.314,0.062870465,0.06441766
0.008223487,0.01572327,-0.023867754,-0.314,0.06322753,0.067846976
0.007732832,0.018211802,-0.027867755,-0.314,0.06228286,0.063846976
0.007805674,0.01675324,-0.026382118,-0.314,0.062560715,0.06336116
0.0072518713,0.018271508,-0.02986194,-0.314,0.061776187,0.05936116
0.00741047,0.01677656,-0.026057605,-0.314,0.06216963,0.06336116
0.0051904316,0.02053257,-0.030057605,-0.314,0.060056087,0.05936116
0.0066819363,0.016921869,-0.026057605,-0.314,0.061591387,0.06336116
0.005942248,0.018209672,-0.028070796,-0.314,0.06077489,0.06019342
0.006429646,0.016232563,-0.024070796,-0.314,0.061639335,0.06419342
0.0052957647,0.01872896,-0.028070796,-0.314,0.05980664,0.06019342
0.0055374987,0.017505318,-0.025572304,-0.314,0.060191024,0.06419342
0.0051432303,0.017659498,-0.027497733,-0.314,0.06032114,0.06065855
0.004718867,0.017826969,-0.027155701,-0.314,0.059964564,0.061128434
0.004303113,0.018647434,-0.029982937,-0.314,0.05938512,0.057128433
0.0040314337,0.018057773,-0.027962113,-0.314,0.05930704,0.059399497
0.003516635,0.017943718,-0.026565215,-0.314,0.058900755,0.062092748
0.0034348094,0.017536236,-0.026093462,-0.314,0.058898248,0.06277767
0.0026844533,0.018157866,-0.02824223,-0.314,0.058443077,0.058777668
0.003144302,0.017653473,-0.027827432,-0.314,0.058473658,0.059038915
-0.0005886699,0.021653473,-0.03182743,-0.314,0.056254297,0.055038914
0.0014345706,0.018188296,-0.02825333,-0.314,0.057489693,0.057233997
0.00076480483,0.020146575,-0.03225333,-0.314,0.05605201,0.053233996
0.002503733,0.016146574,-0.028253328,-0.314,0.058607478,0.057233997
0.0012319153,0.01769944,-0.027939467,-0.314,0.05684755,0.058208942
0.00011757307,0.015117212,-0.023939466,-0.314,0.05853161,0.062208943
-0.0005442572,0.01817048,-0.027939467,-0.314,0.0561015,0.058208942
-0.00057088985,0.017970668,-0.028955063,-0.314,0.056052875,0.054712784
-0.0020087918,0.019225454,-0.032581992,-0.314,0.05515635,0.050712783
-0.0014259239,0.017629292,-0.02877376,-0.314,0.055907942,0.05392121
-0.002786492,0.018508038,-0.030158887,-0.314,0.054821443,0.05105559
-0.0032258094,0.017063325,-0.026158886,-0.314,0.055332955,0.055055592
-0.002950106,0.017259542,-0.027323002,-0.314,0.055202205,0.055794634
-0.004640504,0.016801078,-0.02458811,-0.314,0.054926105,0.059794635
-0.003841243,0.018580994,-0.02858811,-0.314,0.0539692,0.055794634
-0.004459166,0.017844973,-0.029826287,-0.314,0.0539899,0.051794633
-0.005039376,0.018389642,-0.032638513,-0.314,0.053494006,0.047794633
-0.0046262047,0.016714796,-0.028638512,-0.314,0.054267235,0.051794633
-0.0038462214,0.017142454,-0.032638513,-0.314,0.054401316,0.047794633
-0.0066774073,0.016807629,-0.028638512,-0.314,0.05283472,0.051794633
-0.006746637,0.01706864,-0.028292391,-0.314,0.052469086,0.05219475
-0.007477753,0.016607106,-0.025848905,-0.314,0.052186925,0.056194752
-0.007821975,0.017332233,-0.029700777,-0.314,0.051583003,0.05219475
-0.008413546,0.017059881,-0.028029207,-0.314,0.051216997,0.05223765
-0.008930085,0.018837437,-0.032029208,-0.314,0.0503244,0.048237648
-0.009468185,0.018302463,-0.03565311,-0.314,0.04998508,0.044237647
-0.009563711,0.016924752,-0.03165311,-0.314,0.050347757,0.047896992
-0.010067186,0.01646932,-0.028848326,-0.314,0.050166626,0.04960717
-0.010452957,0.015269222,-0.025172437,-0.314,0.0505975,0.05360717
-0.010672251,0.015624112,-0.02753844,-0.314,0.050055005,0.051543325
-0.0116856955,0.016726026,-0.03064838,-0.314,0.048731793,0.047543325
-0.011622137,0.016730256,-0.033511102,-0.314,0.04849736,0.043543324
-0.012704025,0.016921645,-0.032430317,-0.314,0.047742996,0.0431511
-0.013173531,0.016195806,-0.029822841,-0.314,0.04774558,0.0471511
-0.013614497,0.015459898,-0.027266404,-0.314,0.04768535,0.0511511
-0.013484009,0.015365046,-0.028459935,-0.314,0.047540043,0.04963618
-0.014673983,0.017584821,-0.032459933,-0.314,0.04537237,0.04563618
-0.0141624585,0.01578885,-0.032071944,-0.314,0.046410616,0.04293991
-0.0145724295,0.0152838575,-0.029046977,-0.314,0.046228997,0.04693991
-0.013614121,0.01664143,-0.030479882,-0.314,0.04551555,0.048110764
-0.015019982,0.014997505,-0.027262438,-0.314,0.04515231,0.050930347
-0.014647275,0.013904611,-0.024611617,-0.314,0.045426086,0.053643174
-0.013562055,0.01475592,-0.028611617,-0.314,0.045267712,0.049643174
-0.012908983,0.015470679,-0.031727124,-0.314,0.04440742,0.045643173
-0.012129187,0.015884785,-0.03326308,-0.314,0.043727435,0.041643173
-0.012574381,0.014809223,-0.02926308,-0.314,0.04372324,0.045643173
-0.0115944,0.015196417,-0.030224165,-0.314,0.04291423,0.042425334
-0.014142639,0.013383711,-0.026224164,-0.314,0.043065008,0.046425335
-0.011373366,0.014702618,-0.027166013,-0.314,0.041983902,0.046930168
-0.012727814,0.013553502,-0.023166012,-0.314,0.042087514,0.05093017
-0.008727813,0.01606139,-0.027166013,-0.314,0.03982035,0.046930168
-0.009624443,0.014562473,-0.026544366,-0.314,0.04048308,0.046180222
-0.007998653,0.01510018,-0.029474858,-0.314,0.039732944,0.04218022
-0.011168278,0.01110018,-0.025474858,-0.314,0.043732945,0.046180222
-0.0071682776,0.015100181,-0.029070819,-0.314,0.039732944,0.04218022
-0.008501867,0.013778055,-0.025070818,-0.314,0.03918981,0.046180222
-0.008179729,0.015223219,-0.02392598,-0.314,0.036863018,0.047848593
-0.0075656245,0.012200794,-0.021093316,-0.314,0.040460244,0.051848594
-0.006700558,0.014007399,-0.02375649,-0.314,0.037915938,0.047848593
-0.0056813485,0.012268658,-0.022285966,-0.314,0.039589696,0.049528938
-0.004847127,0.014839805,-0.025535917,-0.314,0.035943996,0.045528937
-0.0045129177,0.013443452,-0.023673577,-0.314,0.037342332,0.04547662
-0.004006467,0.014121115,-0.024284257,-0.314,0.036017474,0.043838155
-0.004305471,0.01346711,-0.021820351,-0.314,0.03625393,0.047838155
-0.0037358166,0.013502556,-0.021895759,-0.314,0.035824325,0.047578335
-0.003403872,0.01335631,-0.021317925,-0.314,0.035577428,0.048241887
-0.0026493422,0.013370273,-0.021986736,-0.314,0.035432264,0.04617214
-0.0017693037,0.0134628415,-0.022825656,-0.314,0.03504234,0.04412466
-0.0017227574,0.013390037,-0.02192591,-0.314,0.034749214,0.045515176
-0.0015435906,0.013329734,-0.021179128,-0.314,0.034366846,0.04663962
-0.0022446865,0.012947931,-0.018709721,-0.314,0.034232765,0.050639622
-0.00089463685,0.0131842,-0.02043712,-0.314,0.033860695,0.047264393
-0.00038028753,0.013168067,-0.021126369,-0.314,0.033876978,0.045975845
0.00050547795,0.013380155,-0.021312797,-0.314,0.033038095,0.044461057
0.0017521039,0.013804631,-0.022987641,-0.314,0.032022573,0.041300923
1.1603814e-05,0.01270309,-0.019199047,-0.314,0.033577826,0.045300923
0.0010992948,0.012998277,-0.020237273,-0.314,0.03284555,0.046119772
0.0007193628,0.012777205,-0.017405132,-0.314,0.032149132,0.050119773
0.0010503714,0.012794311,-0.01751638,-0.314,0.031995248,0.05016786
0.0021550562,0.01328388,-0.020204892,-0.314,0.031653423,0.046167858
0.0027087464,0.013288185,-0.020826539,-0.314,0.031575788,0.044023257
0.0028318965,0.013233273,-0.019819085,-0.314,0.031200385,0.04534804
0.0014772428,0.012330196,-0.01590485,-0.314,0.03182639,0.04934804
0.0027360716,0.01294546,-0.017743664,-0.314,0.030893182,0.048539806
0.003313568,0.013090844,-0.018247215,-0.314,0.030498803,0.047403302
0.0043447367,0.013480659,-0.020161716,-0.314,0.02988859,0.043996643
0.0043098885,0.013345343,-0.019009007,-0.314,0.029709069,0.045736246
0.0045523336,0.013370498,-0.019101106,-0.314,0.029575774,0.045428444
0.0032230206,0.012847127,-0.015101105,-0.314,0.029109824,0.049428444
0.0057420633,0.013622825,-0.019101106,-0.314,0.02887026,0.045428444
0.0063634673,0.013946235,-0.021530986,-0.314,0.028064543,0.041428443
0.0059884763,0.013727896,-0.019462734,-0.314,0.028077308,0.044316795
0.0039731897,0.012708555,-0.015462734,-0.314,0.02853798,0.048316795
0.005392713,0.013480733,-0.016518243,-0.314,0.027764678,0.048920263
0.0068963827,0.014180071,-0.019354014,-0.314,0.026637534,0.044920262
0.0072238347,0.01443236,-0.019178292,-0.314,0.025873853,0.044317245
0.0073976307,0.014249955,-0.019031277,-0.314,0.026049405,0.044378486
0.005722075,0.0134309875,-0.015031276,-0.314,0.026751814,0.048378486
0.0073969937,0.014223567,-0.01764185,-0.314,0.02562493,0.046342712
0.0072084884,0.014286302,-0.01675923,-0.314,0.025298038,0.047704067
0.009128585,0.015325181,-0.01939006,-0.314,0.022852289,0.044247847
0.010663586,0.016383378,-0.021430893,-0.314,0.020172851,0.041936103
0.006679054,0.013129288,-0.017430892,-0.314,0.024172852,0.045936104
0.010171995,0.015844623,-0.019369734,-0.314,0.021107372,0.044510733
0.00886574,0.014828426,-0.01687873,-0.314,0.023200067,0.047504183
0.009410409,0.015535848,-0.016991511,-0.314,0.021635458,0.04715599
0.008749103,0.01301033,-0.015527631,-0.314,0.025635459,0.050824862
0.011192908,0.01652951,-0.018881794,-0.314,0.021635458,0.04682486
0.0127147315,0.01758224,-0.021137336,-0.314,0.017635457,0.04282486
0.014714821,0.01801847,-0.025137337,-0.314,0.013635457,0.03882486
0.01121488,0.016546242,-0.021137336,-0.314,0.017635457,0.04282486
0.010005611,0.016569637,-0.017137336,-0.314,0.019123117,0.04682486
0.011220944,0.01593865,-0.017531838,-0.314,0.020223983,0.046387967
0.011995331,0.017029935,-0.017294614,-0.314,0.018138662,0.046337735
0.015447171,0.01960928,-0.021294614,-0.314,0.014138661,0.042337734
0.0137114255,0.018595554,-0.019384671,-0.314,0.015436803,0.04339654
0.014426372,0.018625086,-0.020241652,-0.314,0.014859194,0.04269256
0.013170312,0.018100856,-0.017670056,-0.314,0.016476095,0.0452399
0.014129574,0.01895531,-0.018873727,-0.314,0.015087903,0.04343015
0.013499001,0.018433662,-0.017653005,-0.314,0.016086543,0.044951525
0.017207885,0.021275965,-0.021653006,-0.314,0.012086542,0.040951524
0.014978826,0.019376753,-0.019316714,-0.314,0.014300713,0.042626046
0.012740709,0.017157463,-0.015316714,-0.314,0.017531408,0.046626046
0.014823633,0.019027254,-0.018251987,-0.314,0.014969992,0.04384265
0.01806874,0.022776825,-0.022251988,-0.314,0.010969993,0.03984265
0.016918538,0.021248601,-0.021512737,-0.314,0.011039475,0.039094474
0.016474523,0.020691207,-0.020219041,-0.314,0.0123335635,0.040417384
0.018451815,0.023262728,-0.023964461,-0.314,0.008333564,0.036417384
0.016189706,0.02006344,-0.01996446,-0.314,0.012333564,0.040417384
0.016902892,0.02080889,-0.019709222,-0.314,0.012310469,0.040527474
0.016357437,0.02017098,-0.018286724,-0.314,0.013511016,0.04244012
0.019249937,0.023945669,-0.022286724,-0.314,0.009511016,0.03844012
0.017628318,0.021587547,-0.020133456,-0.314,0.011324106,0.039192658
0.020614957,0.025587548,-0.024133457,-0.314,0.0073241056,0.035192657
0.017359933,0.021587547,-0.020133456,-0.314,0.011324106,0.039192658
0.017138,0.019957244,-0.017463282,-0.314,0.01354886,0.04319266
0.017895805,0.021577103,-0.019097513,-0.314,0.011734844,0.039757688
0.018705305,0.022435337,-0.020483216,-0.314,0.010241992,0.037512872
0.02010993,0.024350606,-0.023993544,-0.314,0.0062419917,0.03351287
0.018906163,0.022653265,-0.020121587,-0.314,0.010222602,0.037411433
0.019106273,0.022362083,-0.020021478,-0.314,0.010389698,0.0376754
0.019715136,0.023808407,-0.021702144,-0.314,0.008361535,0.034654062
0.019450007,0.023141561,-0.020640973,-0.314,0.009502604,0.036085226
0.020020878,0.02324345,-0.020761522,-0.314,0.009112752,0.03566483
0.019965705,0.023187002,-0.02047341,-0.314,0.009338128,0.03589728
0.020427275,0.023623494,-0.021062566,-0.314,0.008605365,0.034581743
0.020555591,0.023805376,-0.02119268,-0.314,0.008378229,0.03417647
0.020988226,0.024045387,-0.021485994,-0.314,0.007899141,0.033316474
0.020991184,0.023909809,-0.021167636,-0.314,0.008136645,0.033748664
0.021183284,0.024028506,-0.021195319,-0.314,0.007988117,0.033328306
0.021408098,0.024035243,-0.02130183,-0.314,0.0077881934,0.033204556
0.021989001,0.02415192,-0.021935586,-0.314,0.0070389225,0.03230627
0.02105871,0.024993345,-0.020805055,-0.314,0.007876981,0.031440925
0.02213416,0.024576806,-0.021821119,-0.314,0.0069152857,0.031094303
0.02184227,0.024613751,-0.021137262,-0.314,0.0074313194,0.031544384
0.022423884,0.023910932,-0.021171043,-0.314,0.0073264726,0.03281298
0.022224559,0.0246757,-0.021240553,-0.314,0.007094284,0.031120656
0.023097804,0.024952807,-0.022318082,-0.314,0.005897592,0.029011453
0.023429524,0.024886927,-0.022700522,-0.314,0.005420637,0.028703988
0.023369221,0.024716165,-0.022242807,-0.314,0.005791548,0.029373756
0.023611067,0.024797691,-0.022081232,-0.314,0.0057402663,0.028722445
0.023920028,0.024902873,-0.022736063,-0.314,0.005022513,0.027848488
0.024061222,0.02495453,-0.022359163,-0.314,0.005162171,0.027555922
0.024334548,0.025007421,-0.022621261,-0.314,0.0047424114,0.026913816
0.024466382,0.024946893,-0.02237975,-0.314,0.004799607,0.026923139
0.024723612,0.025022505,-0.022643289,-0.314,0.0043728855,0.026176188
0.024865216,0.024973094,-0.022540933,-0.314,0.004305284,0.026070407
0.025191247,0.025051365,-0.022797769,-0.314,0.00382511,0.025172642
0.025293399,0.025012998,-0.022739807,-0.314,0.0037243438,0.025122484
0.025475502,0.025012285,-0.022811694,-0.314,0.0034934648,0.02462644
0.025632828,0.025029093,-0.022831552,-0.314,0.0032777083,0.02423176
0.025737375,0.024979346,-0.022761537,-0.314,0.0031895195,0.024089968
0.026004488,0.024995629,-0.02298463,-0.314,0.0027688243,0.023338115
0.026175776,0.024991399,-0.023010252,-0.314,0.0025329671,0.022916336
0.02635777,0.024984887,-0.02310982,-0.314,0.0022327271,0.02246165
0.026523853,0.024947753,-0.023144575,-0.314,0.00202427,0.022025535
0.026710749,0.02496385,-0.023260368,-0.314,0.0016626047,0.021507142
0.026859054,0.024931883,-0.02335685,-0.314,0.00139523,0.021096742
0.027029632,0.024897559,-0.023366863,-0.314,0.0011755805,0.020608483
0.027212111,0.024876146,-0.02353991,-0.314,0.0007791412,0.02019093
0.02737449,0.024841074,-0.023501974,-0.314,0.00060306245,0.01962676
0.02738048,0.024771413,-0.02338571,-0.314,0.0006383231,0.01935216
0.027705273,0.024750002,-0.023611216,-0.314,5.2853604e-05,0.018693998
0.02774409,0.024669075,-0.023508392,-0.314,3.133035e-05,0.018444292
0.02797542,0.024657657,-0.023700248,-0.314,-0.0004708723,0.017840555
0.02801154,0.024562543,-0.023615783,-0.314,-0.0004914785,0.017555363
0.028320014,0.024551427,-0.02383433,-0.314,-0.0010997251,0.01680774
0.028323347,0.024444934,-0.023737473,-0.314,-0.0011017466,0.01659831
0.028592331,0.024445532,-0.02394711,-0.314,-0.0016948333,0.015866295
0.028590346,0.024316018,-0.023860887,-0.314,-0.0016865049,0.015656566
0.028767025,0.02432665,-0.024044862,-0.314,-0.0022291525,0.0151053835
0.02884694,0.024155473,-0.023942843,-0.314,-0.002243545,0.014694608
0.02904207,0.024202077,-0.024175575,-0.314,-0.0028786862,0.013920071
0.029189853,0.024041083,-0.024214748,-0.314,-0.0031686884,0.013589248
0.029432148,0.024142971,-0.024446411,-0.314,-0.0038864228,0.012589074
0.029426197,0.023802532,-0.02436264,-0.314,-0.0038049717,0.0127262985
0.02973396,0.02394346,-0.024586987,-0.314,-0.0046174834,0.0114734955
0.029716406,0.023594148,-0.024456874,-0.314,-0.004504084,0.01158725
0.029987559,0.023736464,-0.024701921,-0.314,-0.005301604,0.010304129
0.029969556,0.023381872,-0.024562955,-0.314,-0.0052222675,0.010427054
0.030053178,0.023540733,-0.024645362,-0.314,-0.0057047433,0.009230213
0.030191561,0.023095783,-0.024643695,-0.314,-0.005864783,0.009422911
0.030310258,0.023349268,-0.024787059,-0.314,-0.006464533,0.00792276
0.030404026,0.02281875,-0.024727581,-0.314,-0.0064929808,0.008391593
0.030488098,0.023184083,-0.024935232,-0.314,-0.007201114,0.0065253223
0.030588154,0.02326123,-0.025034463,-0.314,-0.007768036,0.0055642626
0.030684952,0.022999657,-0.025083631,-0.314,-0.007994704,0.0052717337
0.030696591,0.023011673,-0.025097257,-0.314,-0.008331758,0.004457182
0.030808026,0.022747854,-0.02518305,-0.314,-0.008589943,0.0041810106
0.030821428,0.022850342,-0.025211966,-0.314,-0.009026547,0.0031212813
0.03092414,0.022524912,-0.025267327,-0.314,-0.009215202,0.003033504
0.030955693,0.0226822,-0.025339628,-0.314,-0.009741511,0.0018405177
0.030793278,0.022359839,-0.025265941,-0.314,-0.009634568,0.0022485608
0.0310078,0.022586748,-0.025474418,-0.314,-0.010450094,0.00042256666
0.030842839,0.022165192,-0.025382299,-0.314,-0.010243078,0.001112845
0.031085357,0.022542616,-0.025610803,-0.314,-0.011243477,-0.0012467382
0.03106567,0.020797063,-0.025506068,-0.314,-0.0099315895,0.002753262
0.03106518,0.021902384,-0.025711024,-0.314,-0.011412126,-0.0011392343
0.031005366,0.022288455,-0.025752291,-0.314,-0.012071841,-0.0029567876
0.031126345,0.021786945,-0.025970874,-0.314,-0.012204369,-0.0027037305
0.031088803,0.021826847,-0.02594003,-0.314,-0.012550724,-0.003470669
0.030988634,0.021313919,-0.026006153,-0.314,-0.012374102,-0.0026732236
0.030773401,0.021369843,-0.026027098,-0.314,-0.012575673,-0.003381357
0.031042276,0.020526843,-0.026247421,-0.314,-0.012548909,-0.002222658
0.030728186,0.021199342,-0.026256217,-0.314,-0.013224064,-0.004751807
0.030814951,0.02182681,-0.026365573,-0.314,-0.014325886,-0.0076823174
0.030765578,0.019808268,-0.026693458,-0.314,-0.012805167,-0.0036823172
0.030822963,0.020873984,-0.0265908,-0.314,-0.014344002,-0.0066856416
0.03070801,0.021081245,-0.026605755,-0.314,-0.01482895,-0.007947221
0.030774338,0.020789763,-0.026848182,-0.314,-0.015091009,-0.008337822
0.0304802,0.020664928,-0.026917597,-0.314,-0.015116239,-0.008097847
0.03057887,0.020518983,-0.027035302,-0.314,-0.0154485945,-0.008418225
0.030426895,0.020663993,-0.027063861,-0.314,-0.015879715,-0.00957494
0.030361915,0.020762626,-0.02713545,-0.314,-0.016342128,-0.010723739
0.030445913,0.020594183,-0.02730876,-0.314,-0.016655823,-0.010917653
0.03037101,0.02051988,-0.027454201,-0.314,-0.016888143,-0.010870545
0.030135864,0.020887835,-0.027326558,-0.314,-0.017497944,-0.012980965
0.030268786,0.020855606,-0.0276355,-0.314,-0.018151727,-0.014042585
0.030017583,0.021014465,-0.027459234,-0.314,-0.018381875,-0.014799303
0.02998187,0.021199828,-0.027338592,-0.314,-0.0190158,-0.017038994
0.029953534,0.02066695,-0.02810044,-0.314,-0.018527316,-0.013038993
0.030098582,0.020822966,-0.027962131,-0.314,-0.019458992,-0.015035142
0.030194033,0.020839361,-0.027974576,-0.314,-0.020104876,-0.016918594
0.029844461,0.02094709,-0.028229523,-0.314,-0.020296002,-0.014951033
0.03007414,0.02093788,-0.028242065,-0.314,-0.020962361,-0.017558508
0.029808564,0.021359287,-0.028330496,-0.314,-0.021688124,-0.018028969
0.030172063,0.020985832,-0.028540824,-0.314,-0.022136014,-0.01906362
0.03003772,0.021120586,-0.028576797,-0.314,-0.022679897,-0.019901508
0.030423416,0.020798523,-0.028762793,-0.314,-0.023232987,-0.020818548
0.0298902,0.021400237,-0.028841326,-0.314,-0.024103444,-0.021801187
0.030142227,0.02122749,-0.02901269,-0.314,-0.024731044,-0.022666086
0.029748296,0.02165178,-0.02923331,-0.314,-0.025734795,-0.023961708
0.029826118,0.021556478,-0.029285697,-0.314,-0.026120713,-0.024765762
0.030559743,0.021017013,-0.029491141,-0.314,-0.026838506,-0.025379399
0.029930217,0.02171631,-0.02979677,-0.314,-0.028350204,-0.026872287
0.030392198,0.021269526,-0.029898321,-0.314,-0.028624073,-0.027698351
0.030368168,0.021328855,-0.030150427,-0.314,-0.029594023,-0.02891402
0.030574715,0.02116891,-0.030383945,-0.314,-0.030486112,-0.02998058
0.03076801,0.021024311,-0.030672131,-0.314,-0.03153278,-0.031192882
0.03055656,0.021157045,-0.030908007,-0.314,-0.032448694,-0.032594737
0.030905912,0.020818736,-0.031200198,-0.314,-0.033352915,-0.03367934
0.030653734,0.020992981,-0.031515017,-0.314,-0.034483936,-0.03526098
0.031101717,0.020587595,-0.031761695,-0.314,-0.035428915,-0.036240436
0.030708421,0.020860996,-0.0321373,-0.314,-0.036755234,-0.038134366
0.03097692,0.020525683,-0.032313175,-0.314,-0.037338868,-0.039136678
0.030624723,0.020687688,-0.03265107,-0.314,-0.03844554,-0.041045826
0.030732637,0.020508016,-0.03292608,-0.314,-0.039278075,-0.042382997
0.030631125,0.020570414,-0.03312239,-0.314,-0.040173367,-0.043741528
0.030486,0.020648047,-0.03331232,-0.314,-0.041080453,-0.04525083
0.030549634,0.020683793,-0.034014914,-0.314,-0.042776145,-0.047123745
0.030475108,0.020589916,-0.03395439,-0.314,-0.04303972,-0.048256654
0.030242583,0.020604776,-0.03430093,-0.314,-0.043898594,-0.050121
0.030178538,0.020495737,-0.034225356,-0.314,-0.044215057,-0.051201593
0.030027986,0.020520106,-0.03439876,-0.314,-0.044713702,-0.05252808
0.029773002,0.020519394,-0.034390222,-0.314,-0.04496556,-0.053855162
0.029499976,0.020536875,-0.034453914,-0.314,-0.04520348,-0.055206787
0.029186148,0.020447,-0.034273513,-0.314,-0.04513436,-0.056494046
0.028844247,0.02021934,-0.033899438,-0.314,-0.044768356,-0.057701107
0.028589746,0.020507341,-0.03425543,-0.314,-0.04527855,-0.05908977
0.02828599,0.020847445,-0.034482192,-0.314,-0.04566207,-0.06026518
0.027931286,0.020529913,-0.034094475,-0.314,-0.04519575,-0.0616859
0.027529756,0.020778758,-0.034043044,-0.314,-0.04517402,-0.0626721
0.027056992,0.020801067,-0.033718776,-0.314,-0.044801258,-0.06375801
0.026647417,0.020835806,-0.03343693,-0.314,-0.04456585,-0.064913
0.026447454,0.020775877,-0.033534925,-0.314,-0.044369783,-0.065926634
0.025812838,0.020860735,-0.03301281,-0.314,-0.044051837,-0.06728866
0.025650421,0.020907525,-0.03317624,-0.314,-0.043955356,-0.06818893
0.02516366,0.021080721,-0.03299314,-0.314,-0.043810364,-0.06936913
0.024810903,0.021137131,-0.03274673,-0.314,-0.043495975,-0.07024943
0.024014844,0.021314181,-0.03250273,-0.314,-0.04325851,-0.07192752
0.024499435,0.020956336,-0.032522906,-0.314,-0.042838432,-0.07195267
0.022514468,0.02213768,-0.03161805,-0.314,-0.042845804,-0.073915124
0.023135161,0.021487491,-0.031842396,-0.314,-0.04232642,-0.07425873
0.023423983,0.021125639,-0.031947896,-0.314,-0.041905332,-0.074782416
0.022705369,0.021596942,-0.03151152,-0.314,-0.041701254,-0.07559683
0.022014154,0.021896696,-0.03095826,-0.314,-0.041392088,-0.07658805
0.021629658,0.021688087,-0.030899677,-0.314,-0.040987622,-0.078182414
0.02104939,0.021887375,-0.030365994,-0.314,-0.04067877,-0.07922326
0.021433478,0.021679891,-0.030642128,-0.314,-0.04025347,-0.07916024
0.021654474,0.021788105,-0.030585457,-0.314,-0.03990352,-0.07878127
0.020813309,0.02185346,-0.030080466,-0.314,-0.039537776,-0.080592625
0.020643106,0.02188715,-0.029932274,-0.314,-0.039099846,-0.08104104
0.020261828,0.021782978,-0.029678656,-0.314,-0.038722888,-0.08229852
0.019557811,0.022039684,-0.02911993,-0.314,-0.038462307,-0.08346105
0.01947097,0.022264762,-0.028913215,-0.314,-0.038134314,-0.0834677
0.018693363,0.022205094,-0.028416852,-0.314,-0.037860163,-0.085471794
0.019118626,0.022452967,-0.028449137,-0.314,-0.037450098,-0.08433752
0.018449683,0.022311812,-0.02803046,-0.314,-0.037171885,-0.0862537
0.02048709,0.022666927,-0.028984878,-0.314,-0.036800884,-0.0822537
0.018986342,0.022409173,-0.028135756,-0.314,-0.036430795,-0.08561031
0.018475996,0.022577915,-0.02768504,-0.314,-0.03624779,-0.086654596
0.01855378,0.02242261,-0.027712554,-0.314,-0.03575723,-0.08692551
0.018571036,0.02324607,-0.027228657,-0.314,-0.03604392,-0.08627034
0.01850321,0.022787083,-0.027320046,-0.314,-0.0353257,-0.08715418
0.0183783,0.023089118,-0.026997888,-0.314,-0.035242092,-0.0873337
0.018611088,0.02289455,-0.027134215,-0.314,-0.0346054,-0.08724969
0.017917816,0.023225931,-0.026702328,-0.314,-0.034542587,-0.08836281
0.01900251,0.022816505,-0.027110353,-0.314,-0.03368267,-0.08696998
0.017682184,0.023448763,-0.026277779,-0.314,-0.034126516,-0.08910183
0.019550174,0.023241205,-0.026677191,-0.314,-0.03346772,-0.086338505
0.018251445,0.023527594,-0.026149198,-0.314,-0.03333124,-0.08830386
0.01655968,0.023776365,-0.025795937,-0.314,-0.03358503,-0.09166985
0.018282626,0.023803841,-0.025899885,-0.314,-0.032918822,-0.088587515
0.019189259,0.02366482,-0.026210925,-0.314,-0.032332655,-0.08736533
0.01847682,0.023940504,-0.025642112,-0.314,-0.032375067,-0.08855866
0.018155955,0.024200205,-0.025362236,-0.314,-0.032261632,-0.08907261
0.01843093,0.024178868,-0.025382599,-0.314,-0.031925306,-0.08886792
0.018394059,0.024341471,-0.025102422,-0.314,-0.03181767,-0.08902953
0.01854476,0.024529641,-0.02512445,-0.314,-0.031428345,-0.08869731
0.018683031,0.02469756,-0.025192726,-0.314,-0.031021256,-0.08843192
0.018634183,0.024766022,-0.024875136,-0.314,-0.031004244,-0.08878689
0.01878451,0.024945883,-0.024713954,-0.314,-0.030714823,-0.088474244
0.018425016,0.024966432,-0.024907852,-0.314,-0.030509884,-0.08948932
0.01894625,0.025194991,-0.024332076,-0.314,-0.030472675,-0.08850412
0.018886324,0.025293324,-0.024369491,-0.314,-0.030173633,-0.08872545
0.019330563,0.025808757,-0.024380663,-0.314,-0.028898785,-0.086715214
0.019394834,0.025650946,-0.024403946,-0.314,-0.029363086,-0.08772015
0.01923661,0.025785927,-0.024133746,-0.314,-0.029350905,-0.08817135
0.019554704,0.02584402,-0.024246564,-0.314,-0.028903538,-0.087690145
0.018996522,0.026391534,-0.023406876,-0.314,-0.02926277,-0.088479675
0.019677144,0.02625442,-0.023900414,-0.314,-0.028556263,-0.08752269
0.019391764,0.026575658,-0.02354895,-0.314,-0.028303994,-0.08772711
0.02042821,0.026464075,-0.02389289,-0.314,-0.028219042,-0.0867094
0.018789975,0.026943613,-0.023230368,-0.314,-0.02712351,-0.087975286
0.020386137,0.026833862,-0.02364657,-0.314,-0.02739212,-0.08643461
0.020253817,0.027030343,-0.023426397,-0.314,-0.027026841,-0.08645035
0.020613534,0.027147917,-0.023328533,-0.314,-0.026856417,-0.08597504
0.020206353,0.027424723,-0.023436785,-0.314,-0.026402593,-0.08661865
0.021060245,0.027414728,-0.023532799,-0.314,-0.02615502,-0.0854729
0.02173656,0.027490417,-0.02392452,-0.314,-0.025274476,-0.08425655
0.021685017,0.027770517,-0.024175068,-0.314,-0.024272354,-0.08396955
0.01983956,0.028294787,-0.022229724,-0.314,-0.02608637,-0.08717527
0.022630543,0.0278428,-0.024018792,-0.314,-0.024545362,-0.08327708
0.021819586,0.028179869,-0.023204371,-0.314,-0.024677759,-0.084356606
0.023113936,0.028284157,-0.023710411,-0.314,-0.024027457,-0.082432635
0.02228344,0.028459746,-0.023389434,-0.314,-0.024021467,-0.08387627
0.022648586,0.028680071,-0.023329787,-0.314,-0.023582919,-0.08318731
0.022706306,0.028901404,-0.023489095,-0.314,-0.022973081,-0.08310471
0.02295736,0.029046675,-0.023302948,-0.314,-0.022852756,-0.082755744
0.023616495,0.029198838,-0.023639327,-0.314,-0.022114566,-0.081729725
0.022562606,0.029411485,-0.022831852,-0.314,-0.022148835,-0.08330178
0.023796055,0.029678037,-0.023629801,-0.314,-0.021727802,-0.08176076
0.02406182,0.02977753,-0.023633134,-0.314,-0.021097172,-0.08130326
0.023960194,0.030019639,-0.023213318,-0.314,-0.020971233,-0.081364505
0.024096407,0.030232063,-0.02330046,-0.314,-0.020562124,-0.08129323
0.0246961,0.030407881,-0.02353218,-0.314,-0.020068249,-0.0804939
0.025788432,0.030507226,-0.024174845,-0.314,-0.019260753,-0.079046
0.023752298,0.031123463,-0.022790132,-0.314,-0.019593148,-0.081825174
0.025636423,0.031026779,-0.023889821,-0.314,-0.018597538,-0.0793708
0.026422976,0.03116333,-0.024418674,-0.314,-0.017861573,-0.07841994
0.026525838,0.03146046,-0.024432544,-0.314,-0.017189132,-0.07824115
0.026538042,0.031652488,-0.023947466,-0.314,-0.016849233,-0.07795831
0.026980896,0.03189205,-0.024424046,-0.314,-0.016253565,-0.077663705
0.027022144,0.032136966,-0.024150534,-0.314,-0.015928507,-0.077536345
0.027676338,0.032330673,-0.024736602,-0.314,-0.01518062,-0.07689123
0.027613228,0.032647908,-0.024532935,-0.314,-0.014795822,-0.07701188
0.027608065,0.032984044,-0.024498554,-0.314,-0.0142726395,-0.0771102
0.028114814,0.033177417,-0.024781127,-0.314,-0.0136162555,-0.07653385
0.028064167,0.033498544,-0.024587773,-0.314,-0.0133655,-0.07670096
0.028719861,0.033657964,-0.024971692,-0.314,-0.012390797,-0.07578263
0.028553402,0.03401439,-0.02478036,-0.314,-0.012171729,-0.07616808
0.02932921,0.034196343,-0.025247732,-0.314,-0.010758026,-0.07487123
0.02937222,0.034498345,-0.025140733,-0.314,-0.010514776,-0.07492312
0.029543284,0.034765195,-0.02500667,-0.314,-0.010148524,-0.0746503
0.029582588,0.035116754,-0.024972778,-0.314,-0.009573986,-0.07458236
0.029727822,0.035441622,-0.024918182,-0.314,-0.008817397,-0.074213885
0.029888028,0.03575429,-0.024671338,-0.314,-0.008553972,-0.07389553
0.029797593,0.03612595,-0.024544876,-0.314,-0.0082717175,-0.07410196
0.030127032,0.036383707,-0.024326593,-0.314,-0.0074272016,-0.07322067
0.03009252,0.036836665,-0.024217611,-0.314,-0.007099356,-0.07327669
0.030214509,0.037003163,-0.02384144,-0.314,-0.0067819725,-0.07294993
0.030505953,0.037354685,-0.023679586,-0.314,-0.005801954,-0.07206895
0.030299291,0.037736785,-0.023463512,-0.314,-0.005932422,-0.07261615
0.03071265,0.03796849,-0.023148749,-0.314,-0.0049240864,-0.071399845
0.030530432,0.038435638,-0.023057677,-0.314,-0.0047944416,-0.07184266
0.030740837,0.038765933,-0.02281922,-0.314,-0.0041307774,-0.071244836
0.030938325,0.03915103,-0.022691278,-0.314,-0.0032751632,-0.07064462
0.031012852,0.039351255,-0.02226463,-0.314,-0.0032589366,-0.070553064
0.031103624,0.03973699,-0.022131858,-0.314,-0.0026399093,-0.070280336
0.031191666,0.039952483,-0.021862164,-0.314,-0.0022545313,-0.07011902
0.03126956,0.04040679,-0.021780357,-0.314,-0.0015694933,-0.06989353
0.031470343,0.040785078,-0.021443883,-0.314,-0.0012503316,-0.0694367
0.031460684,0.041054513,-0.02133185,-0.31331143,-0.00078067597,-0.0695556
0.031738803,0.041297555,-0.020899476,-0.31224468,-0.000500799,-0.06899952
0.03185926,0.041525476,-0.02065881,-0.3113545,-6.260455e-05,-0.06882957
0.032063935,0.041780945,-0.020298867,-0.31033358,0.00017806269,-0.068472065
0.032302227,0.041985027,-0.02017274,-0.30956906,0.0007920178,-0.06813114
0.032591872,0.042202577,-0.019602505,-0.3084509,0.00082611805,-0.06752289
0.033100005,0.0422375,-0.019460658,-0.3079364,0.00152261,-0.0666603
0.032941822,0.042662017,-0.01957166,-0.30697533,0.002200985,-0.06726143
0.03305337,0.04298232,-0.019114207,-0.30578762,0.0021821943,-0.06708382
0.033396766,0.043135192,-0.018889206,-0.30500042,0.0027307186,-0.06654739
0.03376652,0.043227535,-0.018509163,-0.3041479,0.0031527614,-0.06593051
0.03416232,0.043289933,-0.018129678,-0.303348,0.0036233903,-0.06525268
0.034241077,0.04369397,-0.01811899,-0.30237418,0.0040197177,-0.0653578
0.034453727,0.043914594,-0.017901514,-0.30149865,0.0044207233,-0.06510508
0.034617152,0.04415816,-0.017700842,-0.3005714,0.0047576088,-0.06499986
0.034823366,0.044439275,-0.017585477,-0.29965934,0.005165353,-0.06484853
0.035164706,0.044501,-0.017201522,-0.29884216,0.005579909,-0.06431161
0.03542171,0.04472297,-0.017067647,-0.297996,0.006037324,-0.06405964
0.035673138,0.044836726,-0.01671169,-0.2971209,0.006410107,-0.06372215
0.036322355,0.045029234,-0.016860537,-0.29648286,0.007047756,-0.06291577
0.03633396,0.04522751,-0.016373588,-0.29538354,0.007442848,-0.0629598
0.036506593,0.045356836,-0.016113326,-0.29460216,0.007700266,-0.06281183
0.036724783,0.045582026,-0.015994424,-0.29372618,0.0081848195,-0.06268456
0.037030563,0.045677252,-0.015604011,-0.29285264,0.008389346,-0.062257875
0.037065223,0.046000514,-0.0155845275,-0.29192632,0.008875734,-0.06252014
0.037589904,0.04598337,-0.015194227,-0.29118726,0.009236126,-0.06169313
0.03760443,0.046331447,-0.0152189685,-0.2902594,0.009714355,-0.062021285
0.03888987,0.045895968,-0.01478669,-0.289956,0.010679681,-0.05979485
0.038389634,0.046524033,-0.01482676,-0.28871578,0.0107319355,-0.06108151
0.038808793,0.046583924,-0.014736193,-0.28802323,0.011495917,-0.06064687
0.039619755,0.04645261,-0.0144871045,-0.28746662,0.012276406,-0.05939461
0.038598314,0.04734053,-0.014380592,-0.28587377,0.0116938185,-0.06152871
0.039536953,0.047084164,-0.014159559,-0.28547964,0.012572566,-0.060087528
0.03952464,0.04740046,-0.01405679,-0.28452024,0.012785926,-0.06041487
0.04040844,0.04709745,-0.013677849,-0.28406945,0.013568624,-0.05900826
0.040177785,0.047576237,-0.013683389,-0.28299624,0.013720895,-0.059777256
0.040564153,0.04776269,-0.013704519,-0.28217658,0.014420944,-0.059490588
0.041122973,0.0476511,-0.013383393,-0.2815502,0.014947534,-0.058703374
0.041407716,0.04775258,-0.013189459,-0.28074527,0.015374704,-0.05848175
0.041796107,0.047767065,-0.012963933,-0.28002757,0.015849825,-0.058052685
0.04203945,0.047975298,-0.012923545,-0.27916637,0.016358932,-0.057986356
0.042284854,0.04808351,-0.0127942925,-0.27841634,0.016876316,-0.05784331
0.042438027,0.048321206,-0.012656114,-0.27746436,0.017061677,-0.057903405
0.042800438,0.04834022,-0.012476872,-0.27677023,0.017617688,-0.057527047
0.043035507,0.04850155,-0.012341443,-0.27591714,0.017946376,-0.057422142
0.04326081,0.048573345,-0.012171223,-0.27520382,0.018394358,-0.057279516
0.0437926,0.048497695,-0.0120210275,-0.27462232,0.019065697,-0.056580383
0.044176392,0.0485705,-0.01190396,-0.2738468,0.019560432,-0.05620354
0.044213783,0.04882088,-0.011797617,-0.27294677,0.019818936,-0.05645908
0.04443946,0.048956048,-0.0116500985,-0.2721245,0.02012494,-0.056346733
0.04468247,0.049034428,-0.011566439,-0.27143443,0.020698093,-0.056201965
0.045118134,0.048964467,-0.011460376,-0.2709025,0.021387886,-0.05565069
0.045081414,0.04928436,-0.0113204,-0.26986745,0.021440439,-0.056073796
0.046315502,0.048539057,-0.01120511,-0.2701817,0.022870556,-0.05375721
0.0458777,0.04927519,-0.011128637,-0.26858702,0.0227848,-0.05512919
0.046117563,0.049288552,-0.010955366,-0.26795825,0.023031738,-0.054920044
0.045960538,0.049714115,-0.0108613,-0.2668107,0.023061233,-0.05563409
0.046383854,0.049686488,-0.010812095,-0.266182,0.023798788,-0.0551469
0.046992153,0.049385313,-0.010666187,-0.26596782,0.02459758,-0.054068863
0.046650104,0.049946528,-0.010442626,-0.2645356,0.024137583,-0.055218525
0.047249984,0.04965793,-0.010353875,-0.26435083,0.025150746,-0.054131877
0.0475786,0.04965853,-0.010318727,-0.26371762,0.025824443,-0.053794432
0.0478237,0.049669422,-0.01016522,-0.26308176,0.026202092,-0.053532243
0.047991317,0.04976532,-0.010088972,-0.26233786,0.026734445,-0.053505044
0.048162196,0.04990786,-0.009923954,-0.26143405,0.026985351,-0.053487737
0.048370615,0.04989038,-0.009856707,-0.26093745,0.027586803,-0.053268086
0.048601307,0.05000436,-0.009705221,-0.26000756,0.027933344,-0.053153582
0.04875317,0.050176807,-0.009567173,-0.25902706,0.02826046,-0.053217947
0.04911573,0.0500638,-0.009431708,-0.25851676,0.028776158,-0.052651305
0.0491864,0.050237186,-0.009357836,-0.25765067,0.029232115,-0.052857798
0.04953463,0.05014162,-0.009168394,-0.25705546,0.029610137,-0.05231747
0.049592648,0.050309952,-0.009069444,-0.2561904,0.03001597,-0.052532684
0.049953453,0.050061144,-0.009132516,-0.25609845,0.031023258,-0.051829606
0.050305534,0.04998089,-0.008902124,-0.255404,0.03129183,-0.0512715
0.0502672,0.050360974,-0.0085934615,-0.25395843,0.031144276,-0.051876187
0.050472815,0.050077613,-0.008851759,-0.25425348,0.03260561,-0.051329404
0.05063823,0.050338514,-0.008432206,-0.25276336,0.032253638,-0.051503163
0.05090193,0.050192118,-0.0084183,-0.2524247,0.032995198,-0.05104348
0.050881755,0.05048831,-0.008135709,-0.25119022,0.032972664,-0.051511884
0.05118316,0.050429504,-0.007944414,-0.25045165,0.033320744,-0.051079925
0.051641513,0.0500647,-0.008068931,-0.25042212,0.034424644,-0.05007846
0.05161456,0.050295014,-0.007856974,-0.24942587,0.034551498,-0.05047473
0.051800556,0.05031523,-0.007745933,-0.2486649,0.03501625,-0.050325748
0.05194744,0.050375532,-0.007612694,-0.24783964,0.03540625,-0.05029112
0.052098285,0.05041049,-0.00749383,-0.24708953,0.035815757,-0.050211247
0.05229196,0.05037598,-0.0073664123,-0.24644192,0.036281627,-0.049948003
0.052463323,0.05044306,-0.007260911,-0.2455411,0.036711495,-0.049917217
0.052585687,0.050388258,-0.0071616233,-0.24513505,0.037195187,-0.049654935
0.052838016,0.05030954,-0.007031698,-0.24445811,0.037669037,-0.049267706
0.052958395,0.050441712,-0.0069086975,-0.24343212,0.038025387,-0.04942108
0.053095546,0.050470646,-0.0067888596,-0.2426858,0.038435075,-0.049338974
0.053237524,0.050510664,-0.0066692843,-0.24189058,0.038845178,-0.049272027
0.05341173,0.050482173,-0.0065710633,-0.2412308,0.039310303,-0.049053334
0.053528406,0.05055135,-0.006406102,-0.24037631,0.039608296,-0.049059864
0.05380888,0.05039642,-0.006343048,-0.23983231,0.040235616,-0.04849936
0.05347413,0.051001728,-0.006124428,-0.23844066,0.04001765,-0.049963895
0.0539832,0.05056378,-0.006115894,-0.23820475,0.04094708,-0.048648022
0.05419439,0.050468963,-0.0061090807,-0.23768611,0.041617334,-0.04821877
0.05441718,0.050380435,-0.0059935483,-0.23699014,0.042085305,-0.047865212
0.054253872,0.050822653,-0.005756755,-0.23564851,0.042044804,-0.04886992
0.054393113,0.050786234,-0.005601189,-0.23499893,0.042402428,-0.04865865
0.054845102,0.050418954,-0.0056501306,-0.2346528,0.04326467,-0.047539067
0.05490451,0.05045687,-0.0056992974,-0.23412485,0.04389573,-0.047495574
0.05487999,0.050689656,-0.005493067,-0.23309384,0.043960895,-0.047986772
0.055226274,0.050504744,-0.0054075173,-0.23229218,0.044584323,-0.04733995
0.055180717,0.050655074,-0.005314967,-0.23164217,0.04484084,-0.047641035
0.055324156,0.050673492,-0.0052575655,-0.23083039,0.045310237,-0.047567107
0.055480022,0.050627526,-0.0051765824,-0.2301836,0.04575818,-0.04730061
0.055565443,0.05067693,-0.0050956733,-0.22942941,0.04615492,-0.04730789
0.055694353,0.050657243,-0.0050168983,-0.22875944,0.046578236,-0.047131717
0.05581328,0.050644368,-0.004954612,-0.2281013,0.047017757,-0.04697585
0.055906963,0.05065286,-0.0048883767,-0.22744735,0.04742576,-0.046886113
0.056016233,0.050657917,-0.004807431,-0.22673316,0.04782138,-0.046792343
0.056125045,0.050655633,-0.004734476,-0.22603619,0.048237395,-0.0466773
0.056222744,0.05069636,-0.004646156,-0.22524591,0.048603326,-0.046667114
0.05640275,0.05056056,-0.004579715,-0.22469833,0.04909099,-0.046209496
0.056436624,0.050716758,-0.004496242,-0.22379003,0.049382057,-0.046498243
0.056560375,0.050639123,-0.0044696843,-0.22325073,0.049893375,-0.04619778
0.056643397,0.05067678,-0.004420649,-0.22250867,0.050311,-0.046187166
0.05674128,0.050672513,-0.0043245237,-0.22180693,0.050669443,-0.046076518
0.056836396,0.050665963,-0.004261564,-0.2211508,0.051056415,-0.045957636
0.05693574,0.050644368,-0.0042050607,-0.22049527,0.051475275,-0.045811463
0.05704549,0.05063321,-0.0041818153,-0.21980369,0.051940627,-0.045669056
0.05713308,0.050633438,-0.004111949,-0.21911655,0.05232172,-0.045572184
0.057227112,0.05061843,-0.0040575233,-0.21847129,0.052713364,-0.04543097
0.05732391,0.050612062,-0.004030292,-0.21778333,0.05315903,-0.04531218
0.057421077,0.0505923,-0.0040192306,-0.21712999,0.053627074,-0.04516386
0.057507623,0.0505719,-0.003965479,-0.21650329,0.054008283,-0.045020193
0.057610106,0.050532073,-0.0039991303,-0.21586445,0.054559387,-0.0448365
0.057653267,0.0506051,-0.003830837,-0.21511875,0.05471896,-0.044895716
0.057920195,0.050193913,-0.004108674,-0.21493974,0.055734742,-0.043829735
0.057857156,0.050511785,-0.0038430584,-0.21387255,0.055698246,-0.044475414
0.057923116,0.050515413,-0.0037529226,-0.21319573,0.05600796,-0.044417188
0.058065277,0.050391067,-0.0039008905,-0.21265404,0.056742292,-0.04399608
0.058114763,0.050450206,-0.0037908785,-0.21190886,0.056997355,-0.044036
0.058191236,0.05042397,-0.0037629546,-0.21131444,0.057382226,-0.043875102
0.05824731,0.050435346,-0.0037649944,-0.21062556,0.05783796,-0.043860074
0.05835414,0.050376095,-0.0037216675,-0.21003957,0.05820142,-0.043551803
0.05847628,0.050253578,-0.003767615,-0.20952585,0.058720183,-0.04314941
0.058508396,0.050315943,-0.003710157,-0.20879166,0.05905954,-0.04324221
0.058533587,0.05036318,-0.0036803053,-0.20806734,0.059455156,-0.04337129
0.05863716,0.05026728,-0.003672351,-0.2075428,0.059865672,-0.043053534
0.058718503,0.050241828,-0.0036907673,-0.20691438,0.060321063,-0.04289327
0.05879677,0.050205853,-0.0036669422,-0.20631897,0.060721435,-0.04266864
0.058855087,0.050220937,-0.003655282,-0.20562044,0.061133858,-0.042656925
0.058927108,0.050180513,-0.0036118801,-0.20503305,0.061502185,-0.042452622
0.05899007,0.050209787,-0.003601493,-0.20428737,0.061918166,-0.042465966
0.059076276,0.049980666,-0.003554909,-0.2041482,0.062263656,-0.041763503
0.05908155,0.050481614,-0.0036260106,-0.20237613,0.06283045,-0.043012973
0.059193548,0.05006515,-0.0035444654,-0.20263617,0.0630915,-0.041863
0.059275147,0.049952477,-0.0034273793,-0.20226358,0.063266754,-0.041479867
0.059328746,0.049928375,-0.0035916108,-0.20158179,0.06405286,-0.04135986
0.059384562,0.05005766,-0.0035413213,-0.20064484,0.064376414,-0.041619446
0.059454408,0.050047483,-0.0034166176,-0.20007144,0.06453247,-0.041479923
0.05950917,0.049986657,-0.003452702,-0.19953035,0.065044835,-0.041281495
0.059588414,0.04998156,-0.003400971,-0.19889297,0.06534844,-0.041143112
0.059651375,0.04986646,-0.0034165613,-0.19849339,0.06579519,-0.040797167
0.059696365,0.04987432,-0.0034223632,-0.1978137,0.06625279,-0.04078014
0.05975162,0.04993006,-0.0034049766,-0.19703345,0.066652864,-0.040842425
0.059874427,0.0497231,-0.0033204367,-0.19686925,0.06681389,-0.04012974
0.059809674,0.050038762,-0.0034512982,-0.1955069,0.067645214,-0.04109196
0.059942104,0.049815293,-0.0033493903,-0.19536279,0.06777608,-0.040305298
0.05997497,0.04993069,-0.003350513,-0.19442433,0.06824218,-0.040611394
0.060067426,0.04976985,-0.0032993064,-0.194156,0.0685039,-0.040066876
0.060141917,0.04964419,-0.0032757807,-0.19379742,0.06884696,-0.03964704
0.060151275,0.049890753,-0.0034264997,-0.19249336,0.06967016,-0.04031149
