Der-mark/objtrans/data/qvel_trajectory.csv
q0,q1,q2,q3,q4,q5
0.0,0.0,0.0,0.0,0.0,0.0
0.0,0.0,0.0,0.0,0.0,0.0
0.0,0.0,0.0,0.0,0.0,0.0
-0.00011199999426025897,-0.00011999999696854502,0.00011999999696854502,0.00011999999696854502,-0.00011999999696854502,0.00011999999696854502
-0.0001108799988287501,-0.00011879999510711059,0.00011879999510711059,0.00011879999510711059,-0.00019060782506130636,0.00019060782506130636
-0.00014442738029174507,-0.00015226818504743278,0.00015226818504743278,0.00015226818504743278,-0.0003143654321320355,0.0003143654321320355
-0.00017295188445132226,-9.446764306630939e-05,0.00012983439955860376,0.00012983439955860376,-0.00043730821926146746,0.00043730821926146746
-0.00012864718155469745,5.578397394856438e-05,-2.0770879928022623e-05,-2.0770879928022623e-05,-0.000612913107033819,0.0006375748198479414
-0.00013502514048013836,0.00015078435535542667,-0.00011612138769123703,-0.00011612138769123703,-0.0007814681157469749,0.000782545015681535
2.4252163711935282e-05,0.0004292289668228477,-0.00039491261122748256,-0.00039491261122748256,-0.0010324636241421103,0.001168109942227602
0.00015169536345638335,0.0006652164156548679,-0.0006312432233244181,-0.0006312432233244181,-0.00116916059050709,0.0014733100542798638
0.00027128972578793764,0.0009539919556118548,-0.000920358463190496,-0.000920358463190496,-0.0013389508239924908,0.0018272313755005598
0.00043869303772225976,0.0012906920164823532,-0.0012374429497867823,-0.0012374429497867823,-0.0014318316243588924,0.002216451335698366
0.0006068888469599187,0.0016708995681256056,-0.0016240265686064959,-0.0016240265686064959,-0.0015440264251083136,0.002677623648196459
0.0007841949118301272,0.00201737554743886,-0.0020179629791527987,-0.0020179629791527987,-0.001640818314626813,0.003144277725368738
0.0010240470292046666,0.002302896697074175,-0.0025481260381639004,-0.0025481260381639004,-0.0018138514133170247,0.0037605108227580786
0.0012451596558094025,0.00260927714407444,-0.0030253571458160877,-0.0030253571458160877,-0.0019463564967736602,0.0043093361891806126
0.0014679747400805354,0.0029094191268086433,-0.0035865765530616045,-0.0035865765530616045,-0.0021097492426633835,0.004967617802321911
0.0017220962326973677,0.003177466569468379,-0.004146143794059753,-0.004146143794059753,-0.0023106588050723076,0.005575110204517841
0.00195950735360384,0.0034538316540420055,-0.004733000881969929,-0.004733000881969929,-0.002504741307348013,0.006203788332641125
0.0022610710002481937,0.003689013421535492,-0.005453611724078655,-0.005453611724078655,-0.0027987451758235693,0.006704083643853664
0.0025514683220535517,0.00391449173912406,-0.006117147859185934,-0.00613865302875638,-0.0030833445489406586,0.007238531485199928
0.0028506640810519457,0.004124939441680908,-0.006890003569424152,-0.006884799804538488,-0.0033650300465524197,0.007784122601151466
0.0032259710133075714,0.004240039736032486,-0.007553974632173777,-0.007548823021352291,-0.0037463954649865627,0.008176744915544987
0.003527911612764001,0.004412037320435047,-0.008411253802478313,-0.008368022739887238,-0.004083754029124975,0.008704262785613537
0.0038364569190889597,0.004571577999740839,-0.009264876134693623,-0.009222077205777168,-0.004430645611137152,0.009198150597512722
0.004172906745225191,0.004669447895139456,-0.010094838216900826,-0.010052467696368694,-0.0048745679669082165,0.00959460437297821
0.004547880031168461,0.0047459411434829235,-0.010908262804150581,-0.0108663160353899,-0.005305524915456772,0.009993412531912327
0.004926448687911034,0.004802894312888384,-0.011836382560431957,-0.011767501011490822,-0.005793791729956865,0.010386677458882332
0.0053089880384504795,0.004847972188144922,-0.012784730643033981,-0.012716537341475487,-0.0063132597133517265,0.010757063515484333
0.00567220151424408,0.004854796454310417,-0.013803389854729176,-0.013733903877437115,-0.0068795206025242805,0.011141153983771801
0.0060671791434288025,0.004875978920608759,-0.014772554859519005,-0.014703763648867607,-0.007427135482430458,0.011498592793941498
0.006449216976761818,0.004873357713222504,-0.01579769141972065,-0.01573500968515873,-0.008028783835470676,0.011858883313834667
0.006862600799649954,0.004871823824942112,-0.01685374788939953,-0.01679169200360775,-0.008691157214343548,0.01216968148946762
0.007255936972796917,0.004840785171836615,-0.017960799857974052,-0.017899364233016968,-0.009354851208627224,0.012510571628808975
0.007667205762118101,0.00481958594173193,-0.019079716876149178,-0.01901889592409134,-0.010046697221696377,0.012808466330170631
0.008060663007199764,0.004725886974483728,-0.020297277718782425,-0.02025488018989563,-0.010806160047650337,0.013187146745622158
0.008490713313221931,0.004747797269374132,-0.021399086341261864,-0.021357113495469093,-0.01149168610572815,0.01338844932615757
0.00888228788971901,0.004640572238713503,-0.022632623091340065,-0.022616244852542877,-0.012262650765478611,0.013782475143671036
0.00928544346243143,0.0045861126855015755,-0.023812850937247276,-0.023859823122620583,-0.01304309256374836,0.01401529647409916
0.00968944188207388,0.004521744791418314,-0.02495625428855419,-0.025109684094786644,-0.013810340315103531,0.01431252621114254
0.010083118453621864,0.004412855487316847,-0.026101864874362946,-0.026416491717100143,-0.014585127122700214,0.01461020391434431
0.010475056245923042,0.00435015419498086,-0.02724672108888626,-0.027744067832827568,-0.015404210425913334,0.014860282652080059
0.010851873084902763,0.0042535411193966866,-0.028361273929476738,-0.02910025417804718,-0.016198253259062767,0.015147039666771889
0.011228565126657486,0.004181130789220333,-0.029475122690200806,-0.030484767630696297,-0.017017550766468048,0.015387275256216526
0.011589736677706242,0.004037906881421804,-0.030535699799656868,-0.03197147697210312,-0.017818506807088852,0.015704412013292313
0.011949190869927406,0.003970838617533445,-0.0316225104033947,-0.03341005742549896,-0.018644100055098534,0.0159013569355011
0.012303316965699196,0.003868398256599903,-0.032679371535778046,-0.034878335893154144,-0.01945679634809494,0.016150645911693573
0.01258501224219799,0.0037856732960790396,-0.03367873281240463,-0.03650285676121712,-0.020265061408281326,0.016334882006049156
0.012923798523843288,0.0036779972724616528,-0.03469579666852951,-0.038022782653570175,-0.02106102928519249,0.016576500609517097
0.013299209997057915,0.0035525981802493334,-0.03574031963944435,-0.039456941187381744,-0.021863749250769615,0.016856350004673004
0.013611842878162861,0.0034590770956128836,-0.03670209273695946,-0.04103110358119011,-0.022620808333158493,0.017067108303308487
0.013914013281464577,0.003363418160006404,-0.03762953355908394,-0.04263141006231308,-0.023352108895778656,0.017278842628002167
0.014215417206287384,0.003256901167333126,-0.03847784548997879,-0.044328950345516205,-0.024004347622394562,0.017517192289233208
0.014499831013381481,0.0031590843573212624,-0.039350200444459915,-0.04599282145500183,-0.024693720042705536,0.01772261969745159
0.014783618971705437,0.0030583373736590147,-0.04018225148320198,-0.0476691760122776,-0.02533903531730175,0.017939824610948563
0.015100420452654362,0.0029492804314941168,-0.04101407155394554,-0.049250517040491104,-0.02597450464963913,0.01819395273923874
0.015339765697717667,0.0028617731295526028,-0.04183898866176605,-0.05097806826233864,-0.02662837505340576,0.01835872232913971
0.015595825389027596,0.002767928410321474,-0.04262331500649452,-0.052700042724609375,-0.02720986120402813,0.01854991726577282
0.01584089919924736,0.0026751509867608547,-0.04336407780647278,-0.054475318640470505,-0.027765952050685883,0.01873801462352276
0.016076887026429176,0.002595725003629923,-0.044096656143665314,-0.0562857948243618,-0.028304193168878555,0.018903959542512894
0.016300303861498833,0.002516864100471139,-0.04480993002653122,-0.058110546320676804,-0.028822891414165497,0.019060617312788963
0.016516346484422684,0.00242703128606081,-0.045501671731472015,-0.059958938509225845,-0.029325950890779495,0.019225217401981354
0.016722338274121284,0.0023489927407354116,-0.04617704078555107,-0.061848487704992294,-0.029798436909914017,0.019370093941688538
0.016918722540140152,0.0022733735386282206,-0.04683353379368782,-0.06374327838420868,-0.030247274786233902,0.01950644515454769
0.01712733320891857,0.002207899931818247,-0.04751716926693916,-0.0655372366309166,-0.030725911259651184,0.019636565819382668
0.017303403466939926,0.0021366600412875414,-0.04813385754823685,-0.06747891008853912,-0.031125355511903763,0.01975896954536438
0.017469294369220734,0.0020598929841071367,-0.048724185675382614,-0.06945857405662537,-0.031492482870817184,0.01987912505865097
0.017642248421907425,0.001984180649742484,-0.04929974675178528,-0.0714448094367981,-0.03183969482779503,0.020006388425827026
0.017781587317585945,0.001918358844704926,-0.049874674528837204,-0.07345306873321533,-0.03218058496713638,0.020095257088541985
0.017929771915078163,0.0018495587864890695,-0.050422053784132004,-0.07550537586212158,-0.03248538821935654,0.020200569182634354
0.01804903894662857,0.001785461907275021,-0.050957027822732925,-0.07756659388542175,-0.03276759013533592,0.020277760922908783
0.01817917637526989,0.0017207094933837652,-0.05146631971001625,-0.07963930070400238,-0.03301408141851425,0.02037026174366474
0.018242890015244484,0.0016665318980813026,-0.05197816714644432,-0.08180217444896698,-0.033244796097278595,0.02039490081369877
0.018388785421848297,0.001609676517546177,-0.05244931951165199,-0.08389860391616821,-0.033433664590120316,0.020528824999928474
0.018463900312781334,0.0015516404528170824,-0.05291813611984253,-0.08601303398609161,-0.033613819628953934,0.02060737833380699
0.018455831333994865,0.0015062021557241678,-0.05338329076766968,-0.0882660374045372,-0.0337146557867527,0.020643632858991623
0.018508868291974068,0.0014456615317612886,-0.05384103208780289,-0.09042811393737793,-0.03386607766151428,0.020674103870987892
0.018551237881183624,0.001399037428200245,-0.05426175892353058,-0.0927027091383934,-0.03391685709357262,0.020737070590257645
0.018551601096987724,0.0013580246595665812,-0.05470225587487221,-0.09492822736501694,-0.03398391231894493,0.020772816613316536
0.018563026562333107,0.001308016711845994,-0.05511356145143509,-0.09716134518384933,-0.034010179340839386,0.020834095776081085
0.018542669713497162,0.0012658291961997747,-0.05554578825831413,-0.099398672580719,-0.03405282646417618,0.02085496298968792
0.01848183386027813,0.0012141750194132328,-0.05595182627439499,-0.10168986767530441,-0.03402244299650192,0.02087346464395523
0.018460098654031754,0.0011772834695875645,-0.056300897151231766,-0.10394298285245895,-0.03388229385018349,0.020944401621818542
0.018398446962237358,0.0011347357649356127,-0.056665871292352676,-0.1061970517039299,-0.0337725505232811,0.021005792543292046
0.018304891884326935,0.0011098688701167703,-0.05702340602874756,-0.10841906070709229,-0.03363136202096939,0.021043686196208
0.018204376101493835,0.0010531534207984805,-0.05737964063882828,-0.11062813550233841,-0.033487360924482346,0.021063154563307762
0.01809045486152172,0.0010545053519308567,-0.057718418538570404,-0.1128036230802536,-0.03330583497881889,0.02110791951417923
0.01796640455722809,0.0010311328805983067,-0.05805622786283493,-0.11496315151453018,-0.033117152750492096,0.021138086915016174
0.017851078882813454,0.0010404367931187153,-0.05837969109416008,-0.11709439009428024,-0.032890550792217255,0.021196555346250534
0.017672935500741005,0.001016305759549141,-0.058688435703516006,-0.11921346187591553,-0.032600369304418564,0.0212213397026062
0.0175107941031456,0.0009941330645233393,-0.05899117514491081,-0.12131067365407944,-0.032315585762262344,0.021261759102344513
0.01732409931719303,0.0009545369539409876,-0.05929619073867798,-0.12339075654745102,-0.03202030435204506,0.021268172189593315
0.017151452600955963,0.0009814219083637,-0.05956926941871643,-0.1254396289587021,-0.03167466074228287,0.021386610344052315
0.016969647258520126,0.00096940464572981,-0.059847574681043625,-0.127473846077919,-0.03133496642112732,0.02140798419713974
0.016785910353064537,0.0009649790008552372,-0.060113776475191116,-0.1294873058795929,-0.03097011148929596,0.021478576585650444
0.016603462398052216,0.0009768560994416475,-0.06037042662501335,-0.1314781904220581,-0.03058898076415062,0.021537847816944122
0.016413744539022446,0.0009640953503549099,-0.06062706187367439,-0.1334511637687683,-0.030195577070116997,0.021571878343820572
0.016226710751652718,0.0009786557639017701,-0.06087489053606987,-0.13540253043174744,-0.02979234792292118,0.021630749106407166
0.016040276736021042,0.0009622297948226333,-0.06111881136894226,-0.13733625411987305,-0.029383361339569092,0.021680524572730064
0.01585507206618786,0.000955362746026367,-0.06134479120373726,-0.13925057649612427,-0.028935056179761887,0.021772801876068115
0.01567186787724495,0.0009541995823383331,-0.061562035232782364,-0.1411457657814026,-0.028475938364863396,0.02188773639500141
0.01548839919269085,0.0009376796660944819,-0.061771538108587265,-0.14302262663841248,-0.027991285547614098,0.02198360487818718
0.015306096524000168,0.0009119434980675578,-0.06197567284107208,-0.14488106966018677,-0.02749498002231121,0.022068841382861137
0.015118742361664772,0.0009051627130247653,-0.062169693410396576,-0.14672008156776428,-0.026985876262187958,0.022144030779600143
0.01494243461638689,0.0008630176889710128,-0.062376968562603,-0.14854231476783752,-0.026506053283810616,0.02221342921257019
0.014766562730073929,0.0008416080963797867,-0.06255324184894562,-0.15034517645835876,-0.025954339653253555,0.022343574091792107
0.014589344151318073,0.0007992166792973876,-0.06272992491722107,-0.15213024616241455,-0.025392824783921242,0.022413305938243866
0.014420667663216591,0.0007759667350910604,-0.06290827691555023,-0.15389768779277802,-0.02488408423960209,0.022550087422132492
0.014246401377022266,0.0007433335413224995,-0.06307262927293777,-0.15564705431461334,-0.024280857294797897,0.022632980719208717
0.014082692563533783,0.0007253219373524189,-0.06320730596780777,-0.157378688454628,-0.02365093119442463,0.02281193435192108
0.013912663795053959,0.0007243432919494808,-0.06336497515439987,-0.15909336507320404,-0.023059001192450523,0.022844305261969566
0.013751831836998463,0.0006980756879784167,-0.06349591910839081,-0.1607905626296997,-0.022435666993260384,0.023004330694675446
0.013592937029898167,0.0006764926365576684,-0.06361716240644455,-0.16247086226940155,-0.02179112285375595,0.023111019283533096
0.013443011790513992,0.0006411688518710434,-0.06373002380132675,-0.16413438320159912,-0.021153101697564125,0.02327541448175907
0.013269534334540367,0.0007017097668722272,-0.0638485923409462,-0.1657811999320984,-0.020451538264751434,0.02332128956913948
0.01312304474413395,0.0006738215452060103,-0.06395160406827927,-0.16741159558296204,-0.01980496384203434,0.023482151329517365
0.012985646724700928,0.000667777843773365,-0.06402631849050522,-0.16902567446231842,-0.01907372660934925,0.023633815348148346
0.012848200276494026,0.0006205462850630283,-0.06411580741405487,-0.17062361538410187,-0.018450675532221794,0.023813942447304726
0.012709146365523338,0.0006057918071746826,-0.06420132517814636,-0.1722055971622467,-0.017782529816031456,0.023968514055013657
0.012570785358548164,0.00057780317729339,-0.06429378688335419,-0.17377175390720367,-0.017147628590464592,0.024133237078785896
0.0124428141862154,0.0005491309566423297,-0.06435660272836685,-0.17532223463058472,-0.016463804990053177,0.024299414828419685
0.012316645123064518,0.000532396777998656,-0.06441500782966614,-0.17685720324516296,-0.01577354222536087,0.024462511762976646
0.012192780151963234,0.0005240424070507288,-0.06447019428014755,-0.17837682366371155,-0.015082639642059803,0.02463628724217415
0.012068435549736023,0.000504782481584698,-0.06453293561935425,-0.1798812448978424,-0.014415438286960125,0.02480267360806465
0.011949615553021431,0.0004859089676756412,-0.0645759180188179,-0.18137063086032867,-0.013726579956710339,0.02496359311044216
0.011836616322398186,0.00047555871424265206,-0.06460104137659073,-0.1828451305627823,-0.013015415519475937,0.025133250281214714
0.011722266674041748,0.0004644391010515392,-0.06463346630334854,-0.184304878115654,-0.012323718518018723,0.02530350536108017
0.011611723341047764,0.0004570900637190789,-0.06465248018503189,-0.18575002253055573,-0.011621401645243168,0.02548140659928322
0.011501345783472061,0.00044374028220772743,-0.06467856466770172,-0.18718072772026062,-0.010935266502201557,0.025640085339546204
0.011392121203243732,0.000437693961430341,-0.06469724327325821,-0.18859711289405823,-0.010249401442706585,0.02582048997282982
0.011284004896879196,0.0004345343622844666,-0.06471209228038788,-0.18999934196472168,-0.009567134082317352,0.02600775472819805
0.01117708720266819,0.0004315012483857572,-0.06472095102071762,-0.19138754904270172,-0.00888700969517231,0.026198947802186012
0.011071103624999523,0.00042850873433053493,-0.06473623216152191,-0.1927618682384491,-0.00821883138269186,0.026382045820355415
0.010966422036290169,0.00042881161789409816,-0.06473860144615173,-0.19412244856357574,-0.007545288652181625,0.026565231382846832
0.010861409828066826,0.00043513672426342964,-0.0647369995713234,-0.1954694241285324,-0.006876380182802677,0.02674931287765503
0.010756918229162693,0.0004494395398069173,-0.06471515446901321,-0.19680292904376984,-0.006197236943989992,0.026941731572151184
0.010653831996023655,0.00045785537804476917,-0.06470493972301483,-0.19812309741973877,-0.005535302683711052,0.027125170454382896
0.010551822371780872,0.000470067432615906,-0.0646832212805748,-0.19943006336688995,-0.004870851989835501,0.027314793318510056
0.010450066067278385,0.00048376875929534435,-0.06466637551784515,-0.20072396099567413,-0.004215499386191368,0.027493247762322426
0.010350045748054981,0.0004936094046570361,-0.06464347243309021,-0.20200492441654205,-0.003566835541278124,0.027686474844813347
0.010248514823615551,0.0005215299315750599,-0.06464260071516037,-0.20327307283878326,-0.00292179174721241,0.02787434123456478
0.010155227035284042,0.0004961214726790786,-0.06453238427639008,-0.2045285552740097,-0.0022894549183547497,0.02811763808131218
0.010058502666652203,0.0004993795300833881,-0.0645059123635292,-0.20577146112918854,-0.0016576240304857492,0.028316756710410118
0.009963314048945904,0.0005136851104907691,-0.0644725114107132,-0.2070019394159317,-0.0010303521994501352,0.02853141911327839
0.009859348647296429,0.0005476326332427561,-0.06444036960601807,-0.20822010934352875,-0.00040011951932683587,0.02870204672217369
0.00976319145411253,0.0005661154864355922,-0.06439785659313202,-0.20942610502243042,0.0002173344837501645,0.028906848281621933
0.009659926407039165,0.0006043163011781871,-0.06434471160173416,-0.21062004566192627,0.0008431698079220951,0.02904546819627285
0.009565265849232674,0.000620524981059134,-0.06432246416807175,-0.21180203557014465,0.001444558845832944,0.02925839275121689
0.009475097991526127,0.0006294419290497899,-0.06426049023866653,-0.21297220885753632,0.0020400178618729115,0.029491567984223366
0.009383461438119411,0.0006409871275536716,-0.06418735533952713,-0.2141306847333908,0.0026332996785640717,0.02970566786825657
0.009291859343647957,0.0006650775321759284,-0.06412002444267273,-0.2152775675058365,0.0032211460638791323,0.02994997426867485
0.00919191911816597,0.0007124332478269935,-0.06404326856136322,-0.2164129912853241,0.003815272357314825,0.030139323323965073
0.009099913761019707,0.0007414980791509151,-0.06397318094968796,-0.217537060379982,0.004393178038299084,0.030374417081475258
0.009000228717923164,0.0008010734454728663,-0.0638943687081337,-0.21864987909793854,0.004981789272278547,0.030557380989193916
0.008929545059800148,0.0007303431630134583,-0.0637919008731842,-0.21975158154964447,0.00552758201956749,0.03072318807244301
0.008838147856295109,0.0007598340744152665,-0.06370538473129272,-0.22084225714206696,0.00609321566298604,0.030911538749933243
0.008752248249948025,0.0007776241982355714,-0.06360407173633575,-0.22192202508449554,0.006650851108133793,0.031140189617872238
0.008640876039862633,0.0008464030688628554,-0.06353076547384262,-0.2229910045862198,0.007211280055344105,0.03130437433719635
0.008556289598345757,0.0008754358277656138,-0.0634407103061676,-0.22404928505420685,0.007765034679323435,0.03150990232825279
0.008463097736239433,0.0009180409251712263,-0.06334750354290009,-0.22509698569774628,0.008310003206133842,0.031681522727012634
0.008379296399652958,0.0009392375941388309,-0.06324508041143417,-0.22613421082496643,0.008846619166433811,0.0318889282643795
0.008284280076622963,0.0009751024190336466,-0.06311806291341782,-0.22716106474399567,0.009369309060275555,0.03208230435848236
0.008191936649382114,0.001016163849271834,-0.06300545483827591,-0.22817765176296234,0.009893164969980717,0.0322592630982399
0.008115820586681366,0.001041075331158936,-0.06292610615491867,-0.2291840761899948,0.010424084961414337,0.03244100138545036
0.008031021803617477,0.0010712919756770134,-0.06281652301549911,-0.23018042743206024,0.010939889587461948,0.03260645642876625
0.007944054901599884,0.001103140995837748,-0.06269252300262451,-0.23116682469844818,0.011445512063801289,0.03278554603457451
0.007856293581426144,0.001134688500314951,-0.06255355477333069,-0.2321433573961258,0.011940550059080124,0.03300473093986511
0.0077643017284572124,0.0011635188711807132,-0.062380820512771606,-0.23311011493206024,0.012416092678904533,0.03332361951470375
0.00768078351393342,0.0011972374049946666,-0.06225782632827759,-0.23406721651554108,0.0129082091152668,0.03349076956510544
0.0075982133857905865,0.0012154042487964034,-0.06212431937456131,-0.23501473665237427,0.013382975943386555,0.033774834126234055
0.007513036020100117,0.001274345675483346,-0.062018126249313354,-0.23595277965068817,0.01388175692409277,0.03379817306995392
0.007427566684782505,0.0013496974715963006,-0.06192175671458244,-0.23688144981861115,0.014387497678399086,0.03378739580512047
0.007346102502197027,0.001385099720209837,-0.06177881732583046,-0.23780083656311035,0.014855202287435532,0.03396684303879738
0.007273306604474783,0.0013910470297560096,-0.06162139028310776,-0.23871102929115295,0.015310565941035748,0.03410128876566887
0.0072024306282401085,0.0013894621515646577,-0.06145463511347771,-0.23961211740970612,0.015758292749524117,0.03429650515317917
0.007133163511753082,0.0013828217051923275,-0.06128288432955742,-0.240504190325737,0.016199491918087006,0.03450017422437668
0.0070520611479878426,0.0014247818617150187,-0.06113595515489578,-0.24138735234737396,0.016644438728690147,0.03463362529873848
0.006970077287405729,0.0014519791584461927,-0.0609748438000679,-0.24226167798042297,0.017071792855858803,0.03474938124418259
0.006894715595990419,0.0014991153730079532,-0.06083396077156067,-0.2431272566318512,0.01752159558236599,0.034819088876247406
0.006820631679147482,0.0014827834675088525,-0.06064191460609436,-0.2439841777086258,0.017918109893798828,0.03498260676860809
0.006757074501365423,0.0015862518921494484,-0.060523878782987595,-0.24483253061771393,0.01839248277246952,0.035135041922330856
0.006691645365208387,0.0015978416195139289,-0.060350820422172546,-0.24567240476608276,0.018810709938406944,0.03533252328634262
0.006618458312004805,0.0016660998808220029,-0.06022053584456444,-0.24650387465953827,0.019250718876719475,0.035477545112371445
0.006563577335327864,0.0016422804910689592,-0.060032837092876434,-0.2473270297050476,0.019657379016280174,0.035657256841659546
0.006495224311947823,0.001677821041084826,-0.05987364798784256,-0.24814195930957794,0.020068591460585594,0.03579830005764961
0.00644032284617424,0.0016722623258829117,-0.05968527868390083,-0.24894873797893524,0.020465314388275146,0.035980552434921265
0.006339186802506447,0.0018038905691355467,-0.05958303064107895,-0.24974744021892548,0.020883647724986076,0.03603960946202278
0.006279287859797478,0.0018225295934826136,-0.05940826237201691,-0.250538170337677,0.021278735250234604,0.036191195249557495
0.006240490823984146,0.0017737423768267035,-0.059198249131441116,-0.2513209879398346,0.02166088856756687,0.03639848530292511
0.006193041335791349,0.0017644731560721993,-0.05900118499994278,-0.2520959973335266,0.02204717881977558,0.03654307499527931
0.006136847659945488,0.0017946825828403234,-0.058826807886362076,-0.25286322832107544,0.022422539070248604,0.03671052306890488
0.006054348777979612,0.0018767841393128037,-0.058695416897535324,-0.25362280011177063,0.022802110761404037,0.036791734397411346
0.005990753415971994,0.0019077524775639176,-0.05853157863020897,-0.25437477231025696,0.02317289635539055,0.036912932991981506
0.00593597861006856,0.0019356458215042949,-0.05835365504026413,-0.2551192343235016,0.02355152554810047,0.037017349153757095
0.0058707064017653465,0.0019585422705858946,-0.05819013714790344,-0.2558562457561493,0.023910585790872574,0.03717442601919174
0.005816689692437649,0.0019646598957479,-0.05800221860408783,-0.25658589601516724,0.024270066991448402,0.03733762726187706
0.00575426546856761,0.001989933429285884,-0.05783907696604729,-0.2573082447052002,0.024622350931167603,0.03747662156820297
0.005701790563762188,0.002007106551900506,-0.05765361338853836,-0.25802338123321533,0.0249794814735651,0.03760147467255592
0.00564650259912014,0.002035096986219287,-0.05748121812939644,-0.2587313652038574,0.025330547243356705,0.03769305348396301
0.005594324320554733,0.002048869850113988,-0.05729911848902702,-0.25943225622177124,0.02567913569509983,0.03780656307935715
0.005546867847442627,0.00206980062648654,-0.05711032450199127,-0.26012614369392395,0.02602407895028591,0.03787916526198387
0.005492679309099913,0.002086928579956293,-0.05694001913070679,-0.2608130872249603,0.026363886892795563,0.038016848266124725
0.005456884857267141,0.0021041755098849535,-0.05669448897242546,-0.26149317622184753,0.026706207543611526,0.03805721923708916
0.005414869170635939,0.0021109317895025015,-0.05649120360612869,-0.26216647028923035,0.027042126283049583,0.038182344287633896
0.005359206814318895,0.0021383855491876602,-0.05632339045405388,-0.26283302903175354,0.027374781668186188,0.03829408064484596
0.0053069028072059155,0.0021529062651097775,-0.05614528805017471,-0.2634929120540619,0.027703948318958282,0.03844360262155533
0.0052910130470991135,0.002150624291971326,-0.05592317134141922,-0.26414620876312256,0.02802472561597824,0.038475461304187775
0.00523362634703517,0.002186451805755496,-0.05574466660618782,-0.26479294896125793,0.028351789340376854,0.0385899655520916
0.005197438411414623,0.0021909496281296015,-0.055546075105667114,-0.2654332220554352,0.028671184554696083,0.038673561066389084
0.00515633262693882,0.0022014607675373554,-0.05535483360290527,-0.2660670876502991,0.028989780694246292,0.03877531364560127
0.005118997767567635,0.002208374673500657,-0.055156394839286804,-0.2666946351528168,0.0293036587536335,0.0388704277575016
0.005074821878224611,0.0022305850870907307,-0.05497429519891739,-0.26731589436531067,0.02961309626698494,0.03894476220011711
0.0050376467406749725,0.0022416419815272093,-0.054780419915914536,-0.2679309546947479,0.029919935390353203,0.0390201210975647
0.005007450468838215,0.002244536066427827,-0.05457603931427002,-0.2685398459434509,0.03022313304245472,0.0390784814953804
0.004970742389559746,0.002255201106891036,-0.05437728762626648,-0.26914265751838684,0.030524730682373047,0.039183132350444794
0.0049368091858923435,0.002265051705762744,-0.054184235632419586,-0.26973944902420044,0.03082192875444889,0.039245735853910446
0.004901291336864233,0.0022797747515141964,-0.05399240925908089,-0.2703302800655365,0.031115273013710976,0.03929571434855461
0.0048680379986763,0.002287687733769417,-0.053806424140930176,-0.2709151804447174,0.03140875697135925,0.03932908549904823
0.004843583330512047,0.0022850914392620325,-0.053637780249118805,-0.2714942395687103,0.031702920794487,0.03934602066874504
0.0048115248791873455,0.0022919524926692247,-0.05344148725271225,-0.27206751704216003,0.031989824026823044,0.03941672295331955
0.004784327931702137,0.0022941259667277336,-0.0532415509223938,-0.2726350426673889,0.032278694212436676,0.03946652635931969
0.00475110812112689,0.0022956617176532745,-0.05306880548596382,-0.27319690585136414,0.03256351128220558,0.0395607128739357
0.004723177291452885,0.0022930337581783533,-0.052904728800058365,-0.2737531363964081,0.03284827247262001,0.039612069725990295
0.004697779193520546,0.0023041104432195425,-0.05271490663290024,-0.2743038237094879,0.03312234207987785,0.03963259235024452
0.004662368446588516,0.0023149012122303247,-0.05249949172139168,-0.274848997592926,0.03339851647615433,0.03969896212220192
0.004666063468903303,0.002292682882398367,-0.05230949819087982,-0.2753887176513672,0.03367182984948158,0.039679378271102905
0.004641867242753506,0.002292776480317116,-0.052121929824352264,-0.2759230434894562,0.03394073247909546,0.039717044681310654
0.004641776904463768,0.0022935348097234964,-0.05198497697710991,-0.27645203471183777,0.03420736640691757,0.03961487486958504
0.004604145884513855,0.0023041025269776583,-0.05176324024796486,-0.27697572112083435,0.034468069672584534,0.039726268500089645
0.0045858705416321754,0.0023099728859961033,-0.05159814655780792,-0.2774941623210907,0.034728895872831345,0.039670225232839584
0.004559366498142481,0.002303661545738578,-0.051369182765483856,-0.2780074179172516,0.034992773085832596,0.03972211480140686
0.004539606627076864,0.002308352617546916,-0.05118691548705101,-0.2785155475139618,0.035252153873443604,0.03971389681100845
0.00451812194660306,0.0023139179684221745,-0.05099675431847572,-0.2790186107158661,0.035507768392562866,0.03976747393608093
0.004497978370636702,0.002322213724255562,-0.05081893876194954,-0.27951663732528687,0.035761259496212006,0.039776504039764404
0.004478707443922758,0.0023292037658393383,-0.050628747791051865,-0.2800096869468689,0.03601457178592682,0.039812758564949036
0.00445588119328022,0.002326501766219735,-0.05044064298272133,-0.28049778938293457,0.03625861182808876,0.03978708013892174
0.004434941802173853,0.0023260849993675947,-0.050251513719558716,-0.28098103404045105,0.03650268539786339,0.03979216143488884
0.004412365145981312,0.0023231569211930037,-0.05006735026836395,-0.28145942091941833,0.036741673946380615,0.039757244288921356
0.004391506314277649,0.002323881955817342,-0.04989304021000862,-0.2819330394268036,0.03697970137000084,0.039717357605695724
0.004371529445052147,0.002325391862541437,-0.04971526563167572,-0.2824019193649292,0.03721698373556137,0.03968150168657303
0.0043487041257321835,0.002313265111297369,-0.049531884491443634,-0.28286612033843994,0.037447359412908554,0.03963132202625275
0.004325950983911753,0.002303894842043519,-0.049334246665239334,-0.2833256721496582,0.03767647221684456,0.03963037580251694
0.004306981340050697,0.00230196095071733,-0.049151018261909485,-0.28378063440322876,0.03790711238980293,0.03960797190666199
0.0042818025685846806,0.0023064459674060345,-0.04896712303161621,-0.284231036901474,0.03813190758228302,0.03957487270236015
0.0042717792093753815,0.002301709959283471,-0.04880553111433983,-0.2846769392490387,0.03836653754115105,0.039500217884778976
0.0042559304274618626,0.0022999770008027554,-0.04863174259662628,-0.28511837124824524,0.03859315812587738,0.039453696459531784
0.0042400481179356575,0.0022719460539519787,-0.048494432121515274,-0.2855553925037384,0.03881319612264633,0.0394042544066906
0.004231980536133051,0.0022787402849644423,-0.048300888389348984,-0.28598806262016296,0.03904515132308006,0.03935236483812332
0.004195679910480976,0.0022436673752963543,-0.04817938059568405,-0.2864163815975189,0.03923531994223595,0.039388708770275116
0.004185760859400034,0.002274968195706606,-0.047947417944669724,-0.28684043884277344,0.039472151547670364,0.039364151656627655
0.004175952635705471,0.0022675800137221813,-0.047771841287612915,-0.2872602343559265,0.03968921676278114,0.03931926190853119
0.004159849137067795,0.0022634011693298817,-0.04763929918408394,-0.2876758575439453,0.03989093378186226,0.03925477713346481
0.004151301458477974,0.002275343518704176,-0.04747668281197548,-0.28808730840682983,0.04012295976281166,0.03914788365364075
0.004153301008045673,0.00223755044862628,-0.04726044461131096,-0.28849464654922485,0.04031912982463837,0.039202772080898285
0.004132207483053207,0.002248217351734638,-0.04708246514201164,-0.28889790177345276,0.04053926467895508,0.03916182368993759
0.004124015104025602,0.0022318135015666485,-0.046890873461961746,-0.2892971336841583,0.04074772447347641,0.039160504937171936
0.004117390140891075,0.002247049706056714,-0.04674583673477173,-0.28969237208366394,0.04097035899758339,0.03911731019616127
0.004114440642297268,0.002233933424577117,-0.04658939689397812,-0.290083646774292,0.0411921851336956,0.03903575986623764
0.00411120755597949,0.0022322912700474262,-0.046438537538051605,-0.29047101736068726,0.04141280800104141,0.03895622491836548
0.004105627536773682,0.002173159271478653,-0.046162910759449005,-0.2908545136451721,0.041598957031965256,0.03897789120674133
0.00409941328689456,0.002175199333578348,-0.04601976275444031,-0.29123419523239136,0.04181116446852684,0.03893456980586052
0.004094831179827452,0.002154086483642459,-0.045829445123672485,-0.29161006212234497,0.04201348125934601,0.03892109915614128
0.004082025960087776,0.002297822153195739,-0.04583458602428436,-0.29198217391967773,0.04229429364204407,0.03874392807483673
0.004081795923411846,0.0022561594378203154,-0.045585229992866516,-0.29235056042671204,0.04249105602502823,0.03874662145972252
0.004087729379534721,0.0021286632400006056,-0.04530792310833931,-0.29271528124809265,0.04264817386865616,0.038827795535326004
0.004091163165867329,0.0020836717449128628,-0.045119207352399826,-0.2930763363838196,0.042855627834796906,0.038806162774562836
0.004093626514077187,0.002072215313091874,-0.04497426375746727,-0.2934337854385376,0.043082479387521744,0.03874480351805687
0.0040710377506911755,0.0021094547118991613,-0.04486524313688278,-0.2937876582145691,0.04330682381987572,0.03864797204732895
0.004131380934268236,0.002009899355471134,-0.04462568089365959,-0.29413798451423645,0.04348842799663544,0.03858068212866783
0.004134230315685272,0.001989681040868163,-0.04445449635386467,-0.29448482394218445,0.043693069368600845,0.038524460047483444
0.004137422889471054,0.0019278234103694558,-0.044211771339178085,-0.2948281764984131,0.0439048632979393,0.038608819246292114
0.004135170951485634,0.0019303234294056892,-0.04405708983540535,-0.29516810178756714,0.044106826186180115,0.03855558857321739
0.004133039619773626,0.0019139926880598068,-0.04387471079826355,-0.295504629611969,0.04430766403675079,0.03854710981249809
0.004145480692386627,0.0019131348235532641,-0.04376517981290817,-0.29583778977394104,0.04454261064529419,0.03845500200986862
0.004154613707214594,0.0018917801789939404,-0.04361526668071747,-0.29616761207580566,0.044757917523384094,0.038405705243349075
0.004164856858551502,0.0018791047623381019,-0.04347717761993408,-0.29649415612220764,0.0449770949780941,0.03833284601569176
0.004167476203292608,0.0017983114812523127,-0.04318438842892647,-0.296817421913147,0.04514368623495102,0.0384153313934803
0.0041770972311496735,0.0017756555462256074,-0.04302098602056503,-0.29713746905326843,0.04535221680998802,0.038388218730688095
0.004186742939054966,0.0017826107796281576,-0.042917802929878235,-0.297454297542572,0.04557294398546219,0.03830393776297569
0.004198335576802492,0.0017829989083111286,-0.042788274586200714,-0.2977679669857025,0.045799482613801956,0.0382579043507576
0.004213320557028055,0.001755717326886952,-0.04263325035572052,-0.2980785071849823,0.04601190611720085,0.038208503276109695
0.004226372577250004,0.0017064245184883475,-0.042412593960762024,-0.29838594794273376,0.0462174229323864,0.03827095404267311
0.004243686329573393,0.0016674661310389638,-0.04223417863249779,-0.2986902892589569,0.04643077403306961,0.03828347846865654
0.0042612068355083466,0.0016689433250576258,-0.04213473200798035,-0.2989915907382965,0.04666566476225853,0.03814781829714775
0.0042810640297830105,0.001655511325225234,-0.04201505705714226,-0.29928988218307495,0.046895984560251236,0.038082532584667206
0.004301479086279869,0.00162989879027009,-0.04187183082103729,-0.2995851933956146,0.04712125286459923,0.038029082119464874
0.004317544400691986,0.0015766264405101538,-0.04168814793229103,-0.2998775541782379,0.04732538387179375,0.038021452724933624
0.004343820735812187,0.0015608823159709573,-0.041542135179042816,-0.3001669943332672,0.04756706580519676,0.03804204240441322
0.004361008759588003,0.001511666807346046,-0.04137207195162773,-0.3004535436630249,0.047772057354450226,0.038011010736227036
0.004383867606520653,0.001487810630351305,-0.04123565927147865,-0.3007372319698334,0.04800141975283623,0.03797537088394165
0.00440970016643405,0.0014348950935527682,-0.04106106981635094,-0.3010180592536926,0.048220667988061905,0.03797389194369316
0.00443529337644577,0.0014028355944901705,-0.04091425985097885,-0.30129608511924744,0.0484515056014061,0.03793054074048996
0.004459618125110865,0.00139062968082726,-0.04079610854387283,-0.3015713393688202,0.04868941381573677,0.03785629943013191
0.004487158730626106,0.001342238625511527,-0.04061220586299896,-0.3018438518047333,0.04891884699463844,0.03785859793424606
0.004510801751166582,0.0012984927743673325,-0.040440142154693604,-0.3021136224269867,0.04913947358727455,0.03785828500986099
0.004548605065792799,0.001239673001691699,-0.04027734324336052,-0.3023807108402252,0.0493708960711956,0.03790091350674629
0.004601737018674612,0.0011434153420850635,-0.0400753915309906,-0.30264511704444885,0.04960949346423149,0.03798605501651764
0.004634392913430929,0.0011100023984909058,-0.03994036093354225,-0.30290687084198,0.04984678328037262,0.03794258087873459
0.0046546803787350655,0.0011095127556473017,-0.039846595376729965,-0.303166002035141,0.050076477229595184,0.03789091482758522
0.00467660604044795,0.001113502192310989,-0.039768852293491364,-0.3034225404262543,0.050306759774684906,0.037813927978277206
0.0047240834683179855,0.0010495942551642656,-0.03961583226919174,-0.3036765158176422,0.05055002123117447,0.03772180527448654
0.004762515891343355,0.0009738854132592678,-0.03940774127840996,-0.3039279580116272,0.05078164488077164,0.03771423175930977
0.004808873403817415,0.0008929061586968601,-0.03922392800450325,-0.3041768968105316,0.05101523920893669,0.03764840587973595
0.004847303964197636,0.0008381549851037562,-0.03905307129025459,-0.30442333221435547,0.05124720558524132,0.03765013441443443
0.004894134122878313,0.0008345898822881281,-0.03900546208024025,-0.30466732382774353,0.051509398967027664,0.03753865137696266
0.004930448718369007,0.000786662450991571,-0.03882386535406113,-0.3049088716506958,0.05173790082335472,0.037511032074689865
0.004993251990526915,0.0007526155095547438,-0.038765616714954376,-0.30514800548553467,0.052021898329257965,0.03742393106222153
0.0050301216542720795,0.0006843780865892768,-0.03857917711138725,-0.30538472533226013,0.05225244536995888,0.037421200424432755
0.005076519213616848,0.0006360906991176307,-0.03843022882938385,-0.30561909079551697,0.052494749426841736,0.037385087460279465
0.005145344417542219,0.0006258969660848379,-0.038366690278053284,-0.3058511018753052,0.05276450142264366,0.03727832809090614
0.005191431380808353,0.000587720365729183,-0.0382210910320282,-0.30608078837394714,0.053010739386081696,0.03724364563822746
0.005245606414973736,0.0005521751591004431,-0.038095466792583466,-0.30630818009376526,0.05326087772846222,0.03722238913178444
0.005291121080517769,0.00047391257248818874,-0.037889327853918076,-0.3065333068370819,0.053495150059461594,0.03728007525205612
0.005330631975084543,0.0004176868824288249,-0.03770112618803978,-0.3067561984062195,0.05373229458928108,0.037292566150426865
0.005387157667428255,0.0003623681259341538,-0.03754151985049248,-0.306976854801178,0.05398499220609665,0.0373217836022377
0.0054415930062532425,0.00035159222898073494,-0.03742856904864311,-0.3071953058242798,0.054238200187683105,0.037308819591999054
0.005488909315317869,0.000361062353476882,-0.03733113035559654,-0.3074115514755249,0.05448503419756889,0.03725485876202583
0.005536908283829689,0.0003181790525559336,-0.03718443959951401,-0.3076256513595581,0.05472669005393982,0.037199657410383224
0.005589503329247236,0.0002679852768778801,-0.037016451358795166,-0.3078376054763794,0.05497268587350845,0.037218980491161346
0.005644409451633692,0.00020083136041648686,-0.036826588213443756,-0.30804744362831116,0.055218879133462906,0.037279997020959854
0.005695464089512825,0.0001592025946592912,-0.03666834533214569,-0.3082551956176758,0.05545874312520027,0.03729851543903351
0.00574929965659976,8.819743379717693e-05,-0.03646889701485634,-0.30846086144447327,0.05570356175303459,0.037362538278102875
0.005800670012831688,7.494082092307508e-05,-0.03636211156845093,-0.308664470911026,0.05593149736523628,0.037300799041986465
0.005854008719325066,2.8348833438940346e-05,-0.0362018346786499,-0.308866024017334,0.05616571754217148,0.037325646728277206
0.005898129194974899,0.00010803369514178485,-0.03620772808790207,-0.309065580368042,0.05636987462639809,0.037141527980566025
0.005949485115706921,7.336802082136273e-05,-0.036079615354537964,-0.30926313996315,0.05659891664981842,0.03712388873100281
0.006000256631523371,5.950640479568392e-05,-0.03596395626664162,-0.30945873260498047,0.05681946501135826,0.03710338473320007
0.006052262149751186,-2.3393404262606055e-05,-0.03578691929578781,-0.3096523582935333,0.057070910930633545,0.03713390976190567
0.006102321203798056,-4.44075558334589e-05,-0.03565603867173195,-0.309844046831131,0.05728825926780701,0.03714790940284729
0.00616125063970685,-0.00010996040509780869,-0.0354689285159111,-0.3100338280200958,0.05752361938357353,0.03728131577372551
0.006207009311765432,-9.909164509736001e-05,-0.03536517918109894,-0.31022170186042786,0.05772800371050835,0.03729282319545746
0.0062586176209151745,-0.00011405742407077923,-0.03523780032992363,-0.31040769815444946,0.05793978273868561,0.03733266517519951
0.0062995231710374355,-7.644838478881866e-05,-0.03516113758087158,-0.31059184670448303,0.058132853358983994,0.037323225289583206
0.006379186641424894,-0.0001892601139843464,-0.03495856374502182,-0.31077414751052856,0.05838082730770111,0.0374261848628521
0.0064324201084673405,-0.00019625203276518732,-0.03484273701906204,-0.31095463037490845,0.05858565866947174,0.03746179863810539
0.006488513201475143,-0.00023302134650293738,-0.03468981385231018,-0.3111332952976227,0.05879722908139229,0.03754037246108055
0.006557010114192963,-0.00032914700568653643,-0.034471265971660614,-0.31131017208099365,0.05903807282447815,0.03767251968383789
0.006597764790058136,-0.0002602972090244293,-0.03443601354956627,-0.31148529052734375,0.05920063331723213,0.03765406832098961
0.0066486927680671215,-0.00023538374807685614,-0.03435589745640755,-0.311658650636673,0.05938715487718582,0.0376681387424469
0.006694580893963575,-0.00016657335800118744,-0.03432149440050125,-0.3118302822113037,0.05955713614821434,0.03763870522379875
0.006754582282155752,-0.00014342484064400196,-0.03424252197146416,-0.31200018525123596,0.059768009930849075,0.0376506969332695
0.0068154907785356045,-0.00016031396808102727,-0.03412127494812012,-0.3121683895587921,0.059979040175676346,0.03770521655678749
0.0068768784403800964,-0.00016891772975213826,-0.03400150686502457,-0.31233492493629456,0.06019219383597374,0.03778665140271187
0.006934016477316618,-0.00021207716781646013,-0.03382403030991554,-0.3124997913837433,0.06038854643702507,0.03791249543428421
0.006986001040786505,-0.00019080092897638679,-0.033727604895830154,-0.3126630187034607,0.06055764481425285,0.03802770376205444
0.007037197705358267,-0.00013215001672506332,-0.03368179872632027,-0.3128246068954468,0.06071839481592178,0.03810176998376846
0.007092284504324198,-7.688744517508894e-05,-0.0336286798119545,-0.3129845857620239,0.06088125333189964,0.03813320770859718
0.007164412643760443,-0.00016307704208884388,-0.03344636410474777,-0.31314295530319214,0.06109334155917168,0.038270194083452225
0.00722490344196558,-0.0001772779069142416,-0.033317387104034424,-0.3132997453212738,0.06127651035785675,0.03838461637496948
0.007287442684173584,-0.0002058784884866327,-0.03317280486226082,-0.3134549558162689,0.06146359443664551,0.038538891822099686
0.007338372990489006,-0.00017498702800367028,-0.033083584159612656,-0.3136086165904999,0.0616082139313221,0.03866385295987129
0.007399727124720812,-0.00017997076793108135,-0.03296682983636856,-0.31376075744628906,0.06178593635559082,0.03876563534140587
0.007465823087841272,-0.00014472052862402052,-0.032904960215091705,-0.3139113485813141,0.06196284294128418,0.03880332037806511
0.007529487367719412,-0.00012618766049854457,-0.03281887620687485,-0.3140604496002197,0.062131427228450775,0.03888251632452011
0.007590508554130793,-8.1780890468508e-05,-0.032756347209215164,-0.314208060503006,0.06229089945554733,0.03895482048392296
0.007647418882697821,-4.467810140340589e-05,-0.03266678377985954,-0.31435418128967285,0.06243796646595001,0.03908812999725342
0.007700940128415823,-1.4232784451451153e-05,-0.032562270760536194,-0.3144988417625427,0.06258057802915573,0.039236992597579956
0.007764750625938177,1.0263556760037318e-06,-0.03245973959565163,-0.314642071723938,0.06273607909679413,0.0394044853746891
0.007827896624803543,9.002199658425525e-05,-0.03245445713400841,-0.31478387117385864,0.06285110861063004,0.039426643401384354
0.00789379421621561,0.0001304182515013963,-0.032390184700489044,-0.3149242401123047,0.06299225986003876,0.03954482451081276
0.007954053580760956,0.00017828179989010096,-0.032342329621315,-0.3150632083415985,0.06312410533428192,0.0396152026951313
0.008022517897188663,0.00019738392438739538,-0.03225298225879669,-0.3152007758617401,0.06327152252197266,0.039771780371665955
0.008087140507996082,0.0002538162807468325,-0.03218340873718262,-0.3153369724750519,0.06339497864246368,0.03994179144501686
0.008153959177434444,0.00026302397600375116,-0.03208836168050766,-0.3154718279838562,0.06354508548974991,0.040095895528793335
0.008221583440899849,0.0002590228396002203,-0.03196697309613228,-0.3156053125858307,0.06370864808559418,0.04027411714196205
0.008302353322505951,0.0003612003638409078,-0.031976353377103806,-0.3157374858856201,0.06378661841154099,0.040425192564725876
0.00833427906036377,0.0003051640233024955,-0.031794123351573944,-0.3158683180809021,0.06399022042751312,0.04052746295928955
0.008399837650358677,0.00038308926741592586,-0.03176351636648178,-0.315997838973999,0.0640985295176506,0.040641624480485916
0.008489806205034256,0.00031487064552493393,-0.03158729150891304,-0.3161260783672333,0.06428851187229156,0.04087243974208832
0.00851469300687313,0.0004538401262834668,-0.03162241727113724,-0.31625303626060486,0.06433723121881485,0.04092967510223389
0.008610709570348263,0.000431185559136793,-0.03147926181554794,-0.31637871265411377,0.0644945502281189,0.041131388396024704
0.008660783059895039,0.0005043428391218185,-0.03145180642604828,-0.3165031373500824,0.0645788162946701,0.04124091938138008
0.008802699856460094,0.00040657183853909373,-0.03125043958425522,-0.31662631034851074,0.06482654064893723,0.04151827096939087
0.008880146779119968,0.0004320299194660038,-0.031204503029584885,-0.3167482614517212,0.06495832651853561,0.04167169705033302
0.008923462592065334,0.0005201242165639997,-0.031145529821515083,-0.31686899065971375,0.06503986567258835,0.041814323514699936
0.008957344107329845,0.0006292996113188565,-0.031123654916882515,-0.3169885277748108,0.06510099023580551,0.04191363975405693
0.009001215919852257,0.0007178547093644738,-0.031061863526701927,-0.31710684299468994,0.06518696993589401,0.04205384850502014
0.009053272195160389,0.0007920268108136952,-0.031014110893011093,-0.31722399592399597,0.06527592241764069,0.04223454371094704
0.009101225063204765,0.0008568967459723353,-0.03091556951403618,-0.3173399567604065,0.0653732568025589,0.042455319315195084
0.009150296449661255,0.0009331614128313959,-0.030864248052239418,-0.3174547553062439,0.06546879559755325,0.042682912200689316
0.009193019941449165,0.0010112356394529343,-0.030786149203777313,-0.31756842136383057,0.06555681675672531,0.04288163781166077
0.009230341762304306,0.0011152531951665878,-0.030756983906030655,-0.3176809549331665,0.0656299740076065,0.04300646483898163
0.00927368551492691,0.001208930043503642,-0.030720055103302002,-0.3177923560142517,0.0657140389084816,0.04322126880288124
0.00931102316826582,0.0013060440542176366,-0.03067595139145851,-0.31790265440940857,0.06579064577817917,0.04339532181620598
0.009344209916889668,0.001433330588042736,-0.03069247677922249,-0.3180118501186371,0.06585267186164856,0.04343818128108978
0.009380688890814781,0.001523426966741681,-0.03063630498945713,-0.31811994314193726,0.06592925637960434,0.04364651069045067
0.009431608952581882,0.0015830268384888768,-0.03056621178984642,-0.31822696328163147,0.0660230964422226,0.04386046901345253
0.009465198032557964,0.0016634248895570636,-0.030484622344374657,-0.3183329105377197,0.06609956920146942,0.04411417618393898
0.009512498043477535,0.0017357416218146682,-0.03043287806212902,-0.318437784910202,0.06618724763393402,0.04432345926761627
0.009503114968538284,0.0019293478690087795,-0.030417215079069138,-0.31854161620140076,0.06620711833238602,0.044461678713560104
0.009527215734124184,0.002045493572950363,-0.030400162562727928,-0.3186444044113159,0.06626258790493011,0.0446057990193367
0.009541241452097893,0.002168055856600404,-0.030361894518136978,-0.3187461793422699,0.06630826741456985,0.044792868196964264
0.00957343727350235,0.0022402633912861347,-0.03026556596159935,-0.3188469409942627,0.0663759857416153,0.045054059475660324
0.009640032425522804,0.0022340749856084585,-0.030115550383925438,-0.3189466893672943,0.06648403406143188,0.04537176340818405
0.00964986439794302,0.0023677609860897064,-0.030096428468823433,-0.31904542446136475,0.06652023643255234,0.0455763079226017
0.00966187659651041,0.00253094220533967,-0.03013780526816845,-0.3191431760787964,0.06654458492994308,0.04568496719002724
0.009661486372351646,0.002701898105442524,-0.030166303738951683,-0.31923994421958923,0.06656225025653839,0.04583476483821869
0.009678083471953869,0.0028292564675211906,-0.03016333281993866,-0.3193357586860657,0.06660077720880508,0.04597833752632141
0.009687653742730618,0.002927020424976945,-0.030119527131319046,-0.3194306194782257,0.06663213670253754,0.04619864374399185
0.009710508398711681,0.0030226774979382753,-0.030042417347431183,-0.31952452659606934,0.0666748434305191,0.04643339663743973
0.009771795943379402,0.003074905602261424,-0.0298957247287035,-0.31961748003959656,0.06676193326711655,0.046678703278303146
0.009764737449586391,0.0032335605937987566,-0.02988405153155327,-0.31970950961112976,0.06676044315099716,0.04692215099930763
0.009777260012924671,0.0033658454194664955,-0.029876146465539932,-0.31980061531066895,0.06678065657615662,0.04705360159277916
0.00978610385209322,0.0035149927716702223,-0.029914798215031624,-0.3198908269405365,0.06679035723209381,0.04714416712522507
0.009800679050385952,0.003631291911005974,-0.029915057122707367,-0.3199801445007324,0.06681150197982788,0.04729154706001282
0.00981074944138527,0.0037379723507910967,-0.029870396479964256,-0.3200685679912567,0.06683074682950974,0.04748563840985298
0.009817623533308506,0.0038452735170722008,-0.029804667457938194,-0.3201560974121094,0.06684500724077225,0.04771338030695915
0.009829649701714516,0.0039497679099440575,-0.029766976833343506,-0.3202427625656128,0.06686501204967499,0.04790125787258148
0.009824601002037525,0.004088477697223425,-0.02976539358496666,-0.3203285336494446,0.06686332076787949,0.048069462180137634
0.009810538031160831,0.004248186945915222,-0.029789812862873077,-0.3204134702682495,0.06684868782758713,0.04819498956203461
0.009802769869565964,0.004377678036689758,-0.029768748208880424,-0.3204975426197052,0.06684321910142899,0.048351649194955826
0.009789886884391308,0.0045306384563446045,-0.029790176078677177,-0.32058078050613403,0.06682910770177841,0.04847538098692894
0.009784513153135777,0.004646062385290861,-0.029737891629338264,-0.320663183927536,0.06683176010847092,0.04873988404870033
0.009771076962351799,0.004787446931004524,-0.02973690815269947,-0.32074475288391113,0.0668218582868576,0.04892706498503685
0.009762236848473549,0.004904203116893768,-0.029689481481909752,-0.3208255171775818,0.06681935489177704,0.04916613921523094
0.009746982716023922,0.005049312487244606,-0.029694152995944023,-0.320905476808548,0.0668054074048996,0.049343083053827286
0.009732679463922977,0.005122350994497538,-0.02960980497300625,-0.3209846317768097,0.06679937988519669,0.04952318221330643
0.009712967090308666,0.005264629144221544,-0.029626421630382538,-0.32106301188468933,0.0667802020907402,0.0496620237827301
0.009694655425846577,0.0053849914111196995,-0.029603032395243645,-0.3211405873298645,0.0667649358510971,0.04982561990618706
0.0096627501770854,0.00554615817964077,-0.029644468799233437,-0.3212173879146576,0.06673422455787659,0.04993554204702377
0.009658862836658955,0.005649179220199585,-0.029620898887515068,-0.3212934136390686,0.06673157960176468,0.0501025952398777
0.009649112820625305,0.005776557605713606,-0.029637591913342476,-0.3213686943054199,0.06672143936157227,0.05023191496729851
0.009603273123502731,0.005920983850955963,-0.02961350977420807,-0.32144322991371155,0.06668156385421753,0.05035461112856865
0.009561484679579735,0.006055789068341255,-0.029611332342028618,-0.3215170204639435,0.06663980334997177,0.05048607662320137
0.009514889679849148,0.006179261486977339,-0.029570098966360092,-0.3215900659561157,0.06659850478172302,0.050653450191020966
0.00946848839521408,0.006310392636805773,-0.029554491862654686,-0.32166236639022827,0.06655550003051758,0.05078212916851044
0.009426416829228401,0.006433972157537937,-0.029565148055553436,-0.3217339515686035,0.06652262061834335,0.05089092254638672
0.009378695860505104,0.006569214630872011,-0.029576517641544342,-0.32180482149124146,0.06647700071334839,0.05098026245832443
0.009310011751949787,0.006694743875414133,-0.02957018092274666,-0.3218749761581421,0.06641742587089539,0.051092490553855896
0.009259853512048721,0.006827997975051403,-0.02956879511475563,-0.3219444453716278,0.06636923551559448,0.05123352259397507
0.009122607298195362,0.0068858470767736435,-0.02949005924165249,-0.3220131993293762,0.06629745662212372,0.05143485963344574
0.009049955755472183,0.0070023913867771626,-0.02948967181146145,-0.3220812678337097,0.06624065339565277,0.05153603106737137
0.009001653641462326,0.0070772129110991955,-0.029439138248562813,-0.3221486806869507,0.06617855280637741,0.051694586873054504
0.008944623172283173,0.007247343193739653,-0.029488233849406242,-0.32221540808677673,0.06612253189086914,0.05175400897860527
0.008902652189135551,0.007365337572991848,-0.029482698068022728,-0.32228147983551025,0.06607713550329208,0.051864802837371826
0.008777818642556667,0.007542140316218138,-0.02959894761443138,-0.32234686613082886,0.06596863269805908,0.05179459601640701
0.008709937334060669,0.007640990428626537,-0.029608095064759254,-0.32241159677505493,0.06591743230819702,0.05189719423651695
0.008638883009552956,0.007749928627163172,-0.029598161578178406,-0.32247570157051086,0.06585637480020523,0.051995791494846344
0.008533123880624771,0.00783675815910101,-0.029552873224020004,-0.32253915071487427,0.06580276787281036,0.05212774872779846
0.008441873826086521,0.007952423766255379,-0.02954992465674877,-0.32260197401046753,0.0657297819852829,0.05221625044941902
0.008342018350958824,0.008045295253396034,-0.02952362783253193,-0.32266417145729065,0.06567079573869705,0.05228265002369881
0.008238370530307293,0.008155508898198605,-0.029569588601589203,-0.32272574305534363,0.06559695303440094,0.05226518586277962
0.008140469901263714,0.008266632445156574,-0.029585806652903557,-0.32278668880462646,0.06552080810070038,0.05230719596147537
0.007994404062628746,0.008383961394429207,-0.029637983068823814,-0.32284703850746155,0.06542456895112991,0.05224422365427017
0.007899507880210876,0.008471483364701271,-0.029588928446173668,-0.3229067921638489,0.06535987555980682,0.05236063152551651
0.007790237665176392,0.008567480370402336,-0.029578378424048424,-0.32296594977378845,0.06528476625680923,0.05242130532860756
0.007659528870135546,0.008658119477331638,-0.029540490359067917,-0.3230245113372803,0.065205417573452,0.05252326279878616
0.007540644146502018,0.008776442147791386,-0.029557518661022186,-0.32308247685432434,0.0651104748249054,0.052582308650016785
0.007413328159600496,0.00890407059341669,-0.029512319713830948,-0.32313987612724304,0.06501160562038422,0.052784837782382965
0.007285315077751875,0.009003196842968464,-0.029553089290857315,-0.323196679353714,0.06492391228675842,0.052757494151592255
0.0071604144759476185,0.009099491871893406,-0.029570139944553375,-0.32325291633605957,0.06483820825815201,0.05277230963110924
0.007044312544167042,0.009192857891321182,-0.029618099331855774,-0.3233085870742798,0.06475658714771271,0.052745092660188675
0.006906543858349323,0.009283128194510937,-0.029621820896863937,-0.323363721370697,0.06466372311115265,0.05276699364185333
0.006779189221560955,0.00936865620315075,-0.029647093266248703,-0.3234182894229889,0.06456654518842697,0.05275004357099533
0.0066084787249565125,0.009435584768652916,-0.029572714120149612,-0.3234723210334778,0.06445004791021347,0.05289347097277641
0.006438181735575199,0.009508838877081871,-0.029511792585253716,-0.3235258162021637,0.0643380805850029,0.052971672266721725
0.00628938851878047,0.009596249088644981,-0.02952525205910206,-0.32357877492904663,0.06423452496528625,0.052988987416028976
0.006130916997790337,0.009692046791315079,-0.029545677825808525,-0.3236311972141266,0.0641215592622757,0.052972666919231415
0.005960757844150066,0.009806760586798191,-0.029618259519338608,-0.32368308305740356,0.0639907717704773,0.05290619656443596
0.005793712567538023,0.009914710186421871,-0.029657918959856033,-0.32373446226119995,0.06386518478393555,0.05287871137261391
0.005631777923554182,0.009988458827137947,-0.029663437977433205,-0.32378533482551575,0.06375294923782349,0.05287354812026024
0.005462971981614828,0.010066571645438671,-0.02962297946214676,-0.32383570075035095,0.0636390745639801,0.0529060922563076
0.005295997019857168,0.010124173015356064,-0.029613297432661057,-0.32388556003570557,0.06352746486663818,0.052916791290044785
0.0051236748695373535,0.01019231602549553,-0.029638173058629036,-0.3239349126815796,0.06340547651052475,0.052885498851537704
0.00494741415604949,0.010270372964441776,-0.029694654047489166,-0.3239837884902954,0.06327538192272186,0.05281262844800949
0.004786548670381308,0.010345353744924068,-0.029737316071987152,-0.32403215765953064,0.06315787881612778,0.052790574729442596
0.004516291432082653,0.01038533728569746,-0.029664020985364914,-0.32408004999160767,0.06297861784696579,0.052716758102178574
0.004335994366556406,0.010446093045175076,-0.029661722481250763,-0.3241274654865265,0.06285237520933151,0.05272524431347847
0.004177963826805353,0.010501537472009659,-0.029711110517382622,-0.3241744041442871,0.06273100525140762,0.05271778255701065
0.00421349611133337,0.010466953739523888,-0.029771437868475914,-0.3242208659648895,0.06277135759592056,0.052961304783821106
0.004021770786494017,0.010531398467719555,-0.029808485880494118,-0.32426688075065613,0.0626283660531044,0.052828025072813034
0.003720965003594756,0.01065087504684925,-0.029864052310585976,-0.3243124186992645,0.062395770102739334,0.05256298929452896
0.003533625742420554,0.01072021760046482,-0.029884090647101402,-0.3243575096130371,0.06224409118294716,0.0525515116751194
0.003349616192281246,0.010767939500510693,-0.029870741069316864,-0.3244021534919739,0.0621001236140728,0.05257337912917137
0.003159135580062866,0.010804780758917332,-0.02982976660132408,-0.32444635033607483,0.06195366382598877,0.05261038616299629
0.002985211554914713,0.010857430286705494,-0.02984529547393322,-0.32449010014533997,0.06181121617555618,0.05260414257645607
0.0028008429799228907,0.010901606641709805,-0.029826652258634567,-0.3245334029197693,0.06167127937078476,0.05261184275150299
0.002669412177056074,0.010969911701977253,-0.029935691505670547,-0.3245762884616852,0.06149299815297127,0.052409347146749496
0.0025109476409852505,0.011015321128070354,-0.029942890629172325,-0.32461872696876526,0.061335958540439606,0.05236322805285454
0.0023940084502100945,0.011079516261816025,-0.03001289628446102,-0.3246607482433319,0.061149049550294876,0.05217522755265236
0.0021875842940062284,0.01108870655298233,-0.02993185445666313,-0.32470235228538513,0.06100479140877724,0.052243176847696304
0.0020451985765248537,0.011131076142191887,-0.029915956780314445,-0.3247435390949249,0.06083501875400543,0.052187688648700714
0.001887936727143824,0.011159311980009079,-0.029852675274014473,-0.3247843086719513,0.06066838279366493,0.05219915136694908
0.0018906788900494576,0.011287274770438671,-0.02996409311890602,-0.3248246908187866,0.06041849032044411,0.052040185779333115
0.0017225096235051751,0.011293015442788601,-0.029891904443502426,-0.3248646557331085,0.0602649562060833,0.05205129459500313
0.00162390002515167,0.011340554803609848,-0.029903069138526917,-0.3249042332172394,0.06007695943117142,0.05197249352931976
0.0015152666019275784,0.011332531459629536,-0.02990209124982357,-0.3249433934688568,0.059928473085165024,0.051900479942560196
0.0014551294734701514,0.011429447680711746,-0.029926544055342674,-0.3249821662902832,0.059661269187927246,0.05180497094988823
0.0013757850974798203,0.011462299153208733,-0.02991347759962082,-0.32502055168151855,0.05943899601697922,0.05174750089645386
0.0013050151756033301,0.011555692180991173,-0.029893949627876282,-0.32505854964256287,0.059192538261413574,0.051705487072467804
0.0012076850980520248,0.011549164541065693,-0.02983112819492817,-0.3250961899757385,0.05905160307884216,0.05172951892018318
0.001131096389144659,0.011594889685511589,-0.02978334203362465,-0.32513344287872314,0.05883290618658066,0.05171109363436699
0.0010583646362647414,0.011607613414525986,-0.029718561097979546,-0.3251703083515167,0.05865916237235069,0.051713377237319946
0.0010003820061683655,0.011639485135674477,-0.02968839928507805,-0.32520681619644165,0.05845711752772331,0.05167302116751671
0.0009471262455917895,0.011668953113257885,-0.02963942475616932,-0.3252429664134979,0.05825386941432953,0.05161650851368904
0.0008985980530269444,0.011699308641254902,-0.029597334563732147,-0.32527875900268555,0.058044251054525375,0.0515565425157547
0.0008481311961077154,0.01172921434044838,-0.029547972604632378,-0.3253141939640045,0.05783090740442276,0.05154193565249443
0.0007934652385301888,0.011754931882023811,-0.029481785371899605,-0.32534927129745483,0.05762385204434395,0.05156087502837181
0.0007492526201531291,0.011779643595218658,-0.029417909681797028,-0.3253839910030365,0.057416532188653946,0.051550451666116714
0.0007139862864278257,0.011801856569945812,-0.02935381419956684,-0.3254183530807495,0.05721336603164673,0.051518458873033524
0.0007146662683226168,0.011825693771243095,-0.029319390654563904,-0.32545238733291626,0.05700023099780083,0.05141400918364525
0.0006873972015455365,0.011847126297652721,-0.029255075380206108,-0.32548606395721436,0.05679686367511749,0.051376502960920334
0.0006793494685553014,0.01186844427138567,-0.02917921356856823,-0.3255194127559662,0.056574732065200806,0.051351144909858704
0.0006323949201032519,0.011884700506925583,-0.02909950166940689,-0.32555243372917175,0.05639013275504112,0.05138019472360611
0.0005646827048622072,0.01189346145838499,-0.028982417657971382,-0.32558512687683105,0.056227054446935654,0.05144766345620155
0.0005951698985882103,0.011917836964130402,-0.028929071500897408,-0.3256174921989441,0.055989161133766174,0.05139733478426933
0.000594511569943279,0.011938613839447498,-0.028846509754657745,-0.32564952969551086,0.05576715245842934,0.05137588828802109
0.0005789918941445649,0.011961063370108604,-0.028797807171940804,-0.32568123936653137,0.05556967481970787,0.051294632256031036
0.0005745330709032714,0.011981667950749397,-0.02874939516186714,-0.325712651014328,0.0553690604865551,0.051228493452072144
0.000584185472689569,0.011989624239504337,-0.028646161779761314,-0.32574373483657837,0.05515788123011589,0.05119917541742325
0.0005959784612059593,0.011999968439340591,-0.028540046885609627,-0.32577452063560486,0.05494223162531853,0.05121203511953354
0.0006010181386955082,0.012012970633804798,-0.028441546484827995,-0.3258049786090851,0.054730817675590515,0.051199913024902344
0.0006587282987311482,0.012041154317557812,-0.028429407626390457,-0.32583513855934143,0.05449972301721573,0.051128096878528595
0.0006816097884438932,0.012059544213116169,-0.02836320921778679,-0.3258650004863739,0.054285310208797455,0.051079168915748596
0.0007014084840193391,0.01207675226032734,-0.028284229338169098,-0.3258945643901825,0.054071005433797836,0.05104326456785202
0.0007128615980036557,0.01208712812513113,-0.028168661519885063,-0.3259238302707672,0.05385909229516983,0.05104960501194
0.0007292167865671217,0.012101607397198677,-0.028072787448763847,-0.32595279812812805,0.053647249937057495,0.051034484058618546
0.0007566242711618543,0.012116172350943089,-0.027975868433713913,-0.325981467962265,0.05342941731214523,0.051025521010160446
0.0008014599443413317,0.012145774438977242,-0.027958929538726807,-0.3260098695755005,0.053206730633974075,0.0508764423429966
0.0008322415524162352,0.01215794961899519,-0.027844592928886414,-0.3260379731655121,0.05298740789294243,0.05094064772129059
0.0008612947422079742,0.01216494757682085,-0.027701137587428093,-0.3260658085346222,0.05276864394545555,0.050992004573345184
0.000894478871487081,0.012178747914731503,-0.027595682069659233,-0.3260933756828308,0.0525498203933239,0.05099970102310181
0.0009869933128356934,0.012219234369695187,-0.027594327926635742,-0.32612064480781555,0.05230717733502388,0.050835903733968735
0.0010435429867357016,0.01224319078028202,-0.027543146163225174,-0.3261476457118988,0.05207817628979683,0.0507613830268383
0.001077045570127666,0.012255414389073849,-0.02743610553443432,-0.32617437839508057,0.051856689155101776,0.050761427730321884
0.0011067615123465657,0.012265156954526901,-0.02732367068529129,-0.32620084285736084,0.05163656175136566,0.05073542147874832
0.0011522530112415552,0.01228373497724533,-0.027223840355873108,-0.3262270390987396,0.051410969346761703,0.050740357488393784
0.0012446503387764096,0.01232402678579092,-0.02721441723406315,-0.3262529671192169,0.05115165933966637,0.05060563609004021
0.0013058215845376253,0.01235107146203518,-0.027138574048876762,-0.3262786567211151,0.05091220512986183,0.05056367069482803
0.0013844051863998175,0.012375297024846077,-0.027082227170467377,-0.3263040781021118,0.05067587271332741,0.0504981204867363
0.00143840117380023,0.012385074980556965,-0.026965366676449776,-0.3263292610645294,0.05045638233423233,0.05049975588917732
0.001466892077587545,0.012382120825350285,-0.02681717649102211,-0.32635417580604553,0.05025375261902809,0.05055434629321098
0.0015879895072430372,0.012458481825888157,-0.026861973106861115,-0.32637885212898254,0.04995058476924896,0.050438690930604935
0.0016525251558050513,0.012480102479457855,-0.02674582600593567,-0.32640329003334045,0.04970533400774002,0.05042523145675659
0.0017481382237747312,0.012527036480605602,-0.026702793315052986,-0.3264274597167969,0.049418386071920395,0.0503595732152462
0.0018262149533256888,0.01256033405661583,-0.026657678186893463,-0.3264513909816742,0.04916873201727867,0.05030199512839317
0.002007503993809223,0.01267596147954464,-0.026633940637111664,-0.3264750838279724,0.04881735518574715,0.050225988030433655
0.0020802707877010107,0.012704573571681976,-0.0265483520925045,-0.32649853825569153,0.04857045039534569,0.05021655187010765
0.00212894007563591,0.012725832872092724,-0.026424655690789223,-0.32652175426483154,0.04831131175160408,0.05024092644453049
0.0021226289682090282,0.012817363254725933,-0.026218963786959648,-0.32654476165771484,0.04785037785768509,0.05024918541312218
0.0022312665823847055,0.012856291607022285,-0.026170259341597557,-0.32656753063201904,0.0476696714758873,0.050236113369464874
0.0023870940785855055,0.01286819763481617,-0.02618667669594288,-0.32659006118774414,0.04754238948225975,0.050224702805280685
0.0025008434895426035,0.012959468178451061,-0.026176273822784424,-0.3266123831272125,0.0470488965511322,0.05007593706250191
0.002597759012132883,0.013020104728639126,-0.026143981143832207,-0.3266344666481018,0.04673995450139046,0.04998989775776863
0.002651636954396963,0.013041901402175426,-0.02598721534013748,-0.3266563415527344,0.04658708721399307,0.050107840448617935
0.0027425324078649282,0.01307835802435875,-0.0259119663387537,-0.32667797803878784,0.04633300006389618,0.050092536956071854
0.0028418272268027067,0.013134281150996685,-0.025815019384026527,-0.3266994059085846,0.04605961963534355,0.05009854584932327
0.0029632477089762688,0.013191606849431992,-0.025784950703382492,-0.32672062516212463,0.0457795076072216,0.050040919333696365
0.003067881567403674,0.013238994404673576,-0.02573009766638279,-0.32674163579940796,0.04552251473069191,0.050011489540338516
0.0031991307623684406,0.013300254009664059,-0.025711650028824806,-0.32676243782043457,0.045222897082567215,0.04994088411331177
0.0032564043067395687,0.013340643607079983,-0.02553626522421837,-0.32678303122520447,0.04498928785324097,0.050000570714473724
0.0033736194018274546,0.013406805694103241,-0.02547854743897915,-0.32680341601371765,0.04469496011734009,0.0499521903693676
0.0035544417332857847,0.013516150414943695,-0.02554277889430523,-0.3268235921859741,0.044313691556453705,0.04975685104727745
0.0036971638910472393,0.01360094640403986,-0.025514401495456696,-0.3268435597419739,0.04399973526597023,0.049688126891851425
0.003744477638974786,0.013613805174827576,-0.025357745587825775,-0.3268633484840393,0.04379361495375633,0.04974287748336792
0.00384334335103631,0.013661779463291168,-0.025264564901590347,-0.326882928609848,0.04353728145360947,0.049737296998500824
0.0039608110673725605,0.013727399520576,-0.025206096470355988,-0.3269023001194,0.043254394084215164,0.04969904571771622
0.0040164729580283165,0.0137352105230093,-0.025079498067498207,-0.3269214928150177,0.043048419058322906,0.049741294234991074
0.004159742966294289,0.013828963041305542,-0.025058139115571976,-0.32694047689437866,0.04272979497909546,0.04965328052639961
0.004287469666451216,0.013910707086324692,-0.025019289925694466,-0.3269592821598053,0.042433127760887146,0.04959167167544365
0.004436669405549765,0.014010526239871979,-0.02501915767788887,-0.3269779086112976,0.042095739394426346,0.04947711527347565
0.004511604085564613,0.014021605253219604,-0.024888157844543457,-0.3269963562488556,0.0418972484767437,0.04951227828860283
0.00464262068271637,0.014099432155489922,-0.02484644018113613,-0.32701459527015686,0.041606925427913666,0.049441561102867126
0.004707000218331814,0.014092315919697285,-0.024646101519465446,-0.3270326554775238,0.04146138206124306,0.049576424062252045
0.004861291963607073,0.014202049933373928,-0.024634409695863724,-0.3270505368709564,0.041145604103803635,0.04943481460213661
0.005042134318500757,0.01434636302292347,-0.02465764619410038,-0.3270682394504547,0.040777985006570816,0.04926576092839241
0.005188710056245327,0.014444636180996895,-0.02465037629008293,-0.3270857632160187,0.04046289622783661,0.04914163798093796
0.005321437492966652,0.014529278501868248,-0.024614617228507996,-0.3271031081676483,0.04017568379640579,0.049060650169849396
0.00544400792568922,0.014565546996891499,-0.024516738951206207,-0.327120304107666,0.03994619846343994,0.04910409823060036
0.005579506047070026,0.014655417762696743,-0.024481602013111115,-0.3271373212337494,0.03965950012207031,0.04897364601492882
0.005723087582737207,0.014759781770408154,-0.024470144882798195,-0.32715415954589844,0.03935267776250839,0.04887212812900543
0.005864294245839119,0.014820336364209652,-0.024414001032710075,-0.32717081904411316,0.03909043222665787,0.04879925772547722
0.006018131505697966,0.014904194511473179,-0.024400852620601654,-0.32718732953071594,0.038782522082328796,0.048703037202358246
0.006152666173875332,0.015001922845840454,-0.024367205798625946,-0.3272036612033844,0.038503497838974,0.04859456792473793
0.006297528278082609,0.01510089822113514,-0.024350835010409355,-0.3272198438644409,0.03820602595806122,0.048472341150045395
0.006432188209146261,0.015195552259683609,-0.024320319294929504,-0.3272358477115631,0.037929024547338486,0.04836549982428551
0.006577524356544018,0.015285314060747623,-0.02429213747382164,-0.32725170254707336,0.037647467106580734,0.048258427530527115
0.006709421519190073,0.015375274233520031,-0.02426031231880188,-0.3272674083709717,0.03737879917025566,0.04815784469246864
0.00685492716729641,0.015470007434487343,-0.024237172678112984,-0.32728293538093567,0.03709588944911957,0.04803840443491936
0.006998863071203232,0.01556400302797556,-0.0242182407528162,-0.3272983133792877,0.0368148498237133,0.04791591688990593
0.007152121514081955,0.015663083642721176,-0.024193421006202698,-0.32731354236602783,0.03652830794453621,0.047785647213459015
0.007298933807760477,0.015773842111229897,-0.024141980335116386,-0.327328622341156,0.0362483412027359,0.04766120761632919
0.007438320200890303,0.015808895230293274,-0.024199698120355606,-0.32734355330467224,0.0359841026365757,0.047546595335006714
0.007580532226711512,0.01589847542345524,-0.02418077364563942,-0.32735833525657654,0.035713206976652145,0.047428201884031296
0.007734300568699837,0.015972347930073738,-0.024205053225159645,-0.3273729681968689,0.03543156012892723,0.047292232513427734
0.007902957499027252,0.016097277402877808,-0.02418087236583233,-0.3273874521255493,0.035130102187395096,0.04710488021373749
0.00806739367544651,0.016172057017683983,-0.024210020899772644,-0.3274017870426178,0.034840334206819534,0.04695945233106613
0.008206874132156372,0.0162590891122818,-0.02418927103281021,-0.32741597294807434,0.03458086773753166,0.04683886095881462
0.008359627798199654,0.0163571834564209,-0.024147652089595795,-0.32743003964424133,0.03431352972984314,0.04671378806233406
0.008529892191290855,0.016454428434371948,-0.02412860468029976,-0.3274439573287964,0.03402722626924515,0.046565208584070206
0.008680283091962337,0.016552655026316643,-0.024116503074765205,-0.3274577260017395,0.03375384211540222,0.046403367072343826
0.008850522339344025,0.01664864644408226,-0.024088265374302864,-0.32747137546539307,0.033473070710897446,0.04626612365245819
0.009003479965031147,0.016741206869482994,-0.02408030815422535,-0.3274848759174347,0.033201560378074646,0.04610997810959816
0.00916069932281971,0.01683390513062477,-0.02406548522412777,-0.3274982273578644,0.03293053060770035,0.0459597185254097
0.00931804534047842,0.01692621037364006,-0.02406461350619793,-0.3275114595890045,0.032654013484716415,0.04579174891114235
0.009473135694861412,0.017017461359500885,-0.024058111011981964,-0.3275245428085327,0.03238368779420853,0.04563221335411072
0.009633563458919525,0.01710924133658409,-0.0240532997995615,-0.32753750681877136,0.03210996836423874,0.04545773193240166
0.009784521535038948,0.01719941385090351,-0.02404712699353695,-0.32755035161972046,0.03184562176465988,0.045302025973796844
0.009946698322892189,0.017288733273744583,-0.02404235303401947,-0.3275630474090576,0.031573064625263214,0.04512312263250351
0.01010665763169527,0.017378419637680054,-0.02403939887881279,-0.3275756239891052,0.03130039572715759,0.04494490101933479
0.010270480066537857,0.017465295270085335,-0.024036284536123276,-0.3275880813598633,0.03103078342974186,0.04475906118750572
0.010440791957080364,0.017550518736243248,-0.024035323411226273,-0.3276004195213318,0.030759477987885475,0.04455776512622833
0.010603082366287708,0.017637310549616814,-0.024034077301621437,-0.32761263847351074,0.030487248674035072,0.044370073825120926
0.010766884312033653,0.017721517011523247,-0.024033399298787117,-0.32762473821640015,0.030222104862332344,0.04418012872338295
0.010932010598480701,0.017805222421884537,-0.024031788110733032,-0.3276366889476776,0.029953284189105034,0.043983444571495056
0.01109474990516901,0.017889056354761124,-0.024035047739744186,-0.3276485204696655,0.029682748019695282,0.04378831759095192
0.011259494349360466,0.01797015778720379,-0.024030914530158043,-0.3276602625846863,0.029420508071780205,0.04359041526913643
0.01142550352960825,0.01805139146745205,-0.02402753010392189,-0.3276718854904175,0.02914968505501747,0.04338492453098297
0.01158813200891018,0.0181311946362257,-0.024029623717069626,-0.32768338918685913,0.028885716572403908,0.04318529739975929
0.011754526756703854,0.018211165443062782,-0.02402380295097828,-0.32769477367401123,0.028614269569516182,0.04297483712434769
0.011914177797734737,0.018288586288690567,-0.02402815781533718,-0.3277060389518738,0.02835622802376747,0.04277834668755531
0.012076731771230698,0.018366161733865738,-0.02404436096549034,-0.3277171850204468,0.028082208707928658,0.04256637394428253
0.012235461734235287,0.01844189316034317,-0.024050427600741386,-0.3277282118797302,0.02782421186566353,0.04236838221549988
0.012397936545312405,0.018517713993787766,-0.024065835401415825,-0.3277391493320465,0.02755042538046837,0.04215022921562195
0.012559681199491024,0.018591834232211113,-0.024070072919130325,-0.32774996757507324,0.02728395164012909,0.04193449765443802
0.012723577208817005,0.018665902316570282,-0.024088384583592415,-0.3277606666088104,0.027006978169083595,0.04171091690659523
0.012880953028798103,0.018738117069005966,-0.02409368008375168,-0.32777127623558044,0.02674710378050804,0.04150047525763512
0.013045145198702812,0.018810145556926727,-0.02411092258989811,-0.3277817666530609,0.026469778269529343,0.041272297501564026
0.013205412775278091,0.018879594281315804,-0.02411711774766445,-0.3277921676635742,0.026204371824860573,0.041049763560295105
0.013370770961046219,0.018949875608086586,-0.024136243388056755,-0.327802449464798,0.02592422626912594,0.04081527516245842
0.013540484011173248,0.019015103578567505,-0.024143459275364876,-0.32781264185905457,0.02564203180372715,0.0405634343624115
0.013706598430871964,0.01908441260457039,-0.024166656658053398,-0.3278227150440216,0.025358334183692932,0.040323950350284576
0.013872059993445873,0.019147805869579315,-0.02417485974729061,-0.3278326988220215,0.025082280859351158,0.04007777199149132
0.014045226387679577,0.019211895763874054,-0.024184908717870712,-0.3278425931930542,0.024805499240756035,0.03982946276664734
0.014206859283149242,0.019267769530415535,-0.024181731045246124,-0.32785236835479736,0.024540921673178673,0.03957957774400711
0.014385921880602837,0.019332431256771088,-0.02419307827949524,-0.32786205410957336,0.024262793362140656,0.03932740166783333
0.014547737315297127,0.019386764615774155,-0.024192066863179207,-0.3278716504573822,0.023998888209462166,0.03907887637615204
0.014724203385412693,0.019450770691037178,-0.02420610375702381,-0.3278811573982239,0.023718200623989105,0.038820814341306686
0.014885111711919308,0.019503429532051086,-0.02421044558286667,-0.327890545129776,0.023452427238225937,0.038573361933231354
0.01505986787378788,0.019566735252738,-0.024226296693086624,-0.32789984345436096,0.023169254884123802,0.038307782262563705
0.01522045861929655,0.019618548452854156,-0.02424675226211548,-0.32790905237197876,0.022878307849168777,0.0380333848297596
0.015398218296468258,0.01968459226191044,-0.024262962862849236,-0.3279181718826294,0.022594265639781952,0.03775915876030922
0.015555275604128838,0.019732600077986717,-0.02428387850522995,-0.32792720198631287,0.02230786345899105,0.03749164938926697
0.0157316904515028,0.019800977781414986,-0.024302184581756592,-0.3279361426830292,0.022024214267730713,0.037213392555713654
0.015888631343841553,0.01984482631087303,-0.024321435019373894,-0.3279449939727783,0.021742068231105804,0.036949776113033295
0.016039423644542694,0.019879143685102463,-0.024336153641343117,-0.3279537558555603,0.02145630307495594,0.0366632454097271
0.01619741879403591,0.019919253885746002,-0.02435215190052986,-0.3279624283313751,0.021174542605876923,0.03638816997408867
0.01634538359940052,0.01995548978447914,-0.024368301033973694,-0.3279710114002228,0.02088884264230728,0.036092620342969894
0.016502248123288155,0.019996199756860733,-0.024385161697864532,-0.32797950506210327,0.020606519654393196,0.03581329807639122
0.01664767973124981,0.020028449594974518,-0.024402158334851265,-0.3279879093170166,0.020320512354373932,0.03551037237048149
0.016802657395601273,0.020069265738129616,-0.024419859051704407,-0.32799625396728516,0.020035458728671074,0.03521633520722389
0.01694628968834877,0.02009606920182705,-0.024438340216875076,-0.32800450921058655,0.01974862813949585,0.034907955676317215
0.017107198014855385,0.020134396851062775,-0.02446252480149269,-0.3280126750469208,0.019436875358223915,0.034552380442619324
0.017246341332793236,0.020152946934103966,-0.02448222041130066,-0.32802075147628784,0.01915029063820839,0.03423862159252167
0.01740235835313797,0.020188946276903152,-0.024506989866495132,-0.32802876830101013,0.018838942050933838,0.033875223249197006
0.01753281243145466,0.020196741446852684,-0.024527044966816902,-0.32803669571876526,0.01855623349547386,0.03356001898646355
0.01771288737654686,0.020297180861234665,-0.024546733126044273,-0.3280445337295532,0.01825207844376564,0.03323684260249138
0.01785963587462902,0.020326321944594383,-0.024567773565649986,-0.3280523121356964,0.01795928180217743,0.0329095758497715
0.01798512414097786,0.020328328013420105,-0.024590695276856422,-0.32806000113487244,0.017669852823019028,0.03256742283701897
0.018133845180273056,0.020345643162727356,-0.024612199515104294,-0.3280676007270813,0.017387671396136284,0.032270584255456924
0.018266336992383003,0.020357729867100716,-0.024635074660182,-0.3280751407146454,0.01709979586303234,0.03193594887852669
0.018413512036204338,0.020393287762999535,-0.024658327922225,-0.3280825912952423,0.016799939796328545,0.03158562630414963
0.018564239144325256,0.020417505875229836,-0.024692587554454803,-0.32808998227119446,0.016483133658766747,0.03121255896985531
0.018715495243668556,0.020488163456320763,-0.02470250427722931,-0.32809728384017944,0.016191702336072922,0.030864089727401733
0.01886167749762535,0.0205064807087183,-0.02473633363842964,-0.32810452580451965,0.0158839151263237,0.030507802963256836
0.018982116132974625,0.020478984341025352,-0.024773862212896347,-0.3281116783618927,0.015593384392559528,0.03017711639404297
0.01916414126753807,0.020574193447828293,-0.02478981204330921,-0.32811877131462097,0.015289773233234882,0.029842419549822807
0.019294461235404015,0.02059045061469078,-0.024816937744617462,-0.32812580466270447,0.014998306520283222,0.02949434518814087
0.01940944977104664,0.02059062011539936,-0.024848343804478645,-0.3281327486038208,0.014702591113746166,0.02911895327270031
0.01953795738518238,0.020595455542206764,-0.02487993612885475,-0.32813963294029236,0.014415759593248367,0.028798403218388557
0.019674155861139297,0.020611096173524857,-0.0249091237783432,-0.32814645767211914,0.014125668443739414,0.028438203036785126
0.019803320989012718,0.020635344088077545,-0.02493586204946041,-0.32815319299697876,0.013821733184158802,0.0280705988407135
0.019925978034734726,0.020646700635552406,-0.02496744692325592,-0.3281598687171936,0.01352498959749937,0.02769874781370163
0.020042026415467262,0.020645275712013245,-0.025004643946886063,-0.32816648483276367,0.013235479593276978,0.027336960658431053
0.02016051672399044,0.020653698593378067,-0.02503838576376438,-0.32817304134368896,0.012940159067511559,0.02698453702032566
0.020283514633774757,0.020675113424658775,-0.025066955015063286,-0.3281795382499695,0.012636040337383747,0.026614423841238022
0.020386256277561188,0.020664095878601074,-0.025110773742198944,-0.32818594574928284,0.012348962016403675,0.026235980913043022
0.020496303215622902,0.020641807466745377,-0.025146091356873512,-0.3281922936439514,0.012065717950463295,0.025897953659296036
0.020588915795087814,0.020619401708245277,-0.025195589289069176,-0.3281985819339752,0.011788299307227135,0.025525139644742012
0.02065543457865715,0.02056948095560074,-0.02525823563337326,-0.32820481061935425,0.011554073542356491,0.025200942531228065
0.02081017754971981,0.02063620835542679,-0.02528749406337738,-0.3282109797000885,0.011162515729665756,0.024689778685569763
0.020917950198054314,0.020652705803513527,-0.025320857763290405,-0.328217089176178,0.010857020504772663,0.024287903681397438
0.02100999839603901,0.020650723949074745,-0.025356009602546692,-0.3282231390476227,0.01059364527463913,0.023948024958372116
0.02114681527018547,0.020691627636551857,-0.025411760434508324,-0.3282291293144226,0.010197615250945091,0.023445524275302887
0.021250205114483833,0.020702511072158813,-0.02545052580535412,-0.32823505997657776,0.009892390109598637,0.023053621873259544
0.021351156756281853,0.020707959309220314,-0.025485042482614517,-0.32824093103408813,0.009575719013810158,0.02256428264081478
0.02145247906446457,0.020718853920698166,-0.0255239587277174,-0.32824674248695374,0.009254788979887962,0.022165151312947273
0.021556146442890167,0.020730121061205864,-0.02556627243757248,-0.32825249433517456,0.008950300514698029,0.021759627386927605
0.0216476172208786,0.020750360563397408,-0.025608478114008904,-0.3282581865787506,0.008633679710328579,0.021406635642051697
0.021756641566753387,0.020754344761371613,-0.025652533397078514,-0.3282638192176819,0.008327550254762173,0.02096574753522873
0.021855831146240234,0.02076602168381214,-0.025695424526929855,-0.3282693922519684,0.008011440746486187,0.02054768241941929
0.02197735197842121,0.020757677033543587,-0.025745484977960587,-0.3282749056816101,0.007688031066209078,0.02007312886416912
0.022086352109909058,0.020758848637342453,-0.025787929072976112,-0.32828035950660706,0.00740254670381546,0.01964409649372101
0.022164586931467056,0.02078852429986,-0.02583005093038082,-0.32828575372695923,0.007069538347423077,0.019238723441958427
0.022278258576989174,0.020787805318832397,-0.02589212916791439,-0.328291118144989,0.006694371812045574,0.018691904842853546
0.02236734703183174,0.020806023851037025,-0.02593955397605896,-0.328296422958374,0.006354783196002245,0.01824563927948475
0.02246239222586155,0.020818617194890976,-0.02599005214869976,-0.32830166816711426,0.00601018313318491,0.017784954980015755
0.022549163550138474,0.020839612931013107,-0.02604195661842823,-0.3283068537712097,0.005653198342770338,0.01732666976749897
0.022633641958236694,0.02086370438337326,-0.026096507906913757,-0.3283120095729828,0.005280584562569857,0.016863346099853516
0.02272481471300125,0.020878134295344353,-0.02615082450211048,-0.3283171057701111,0.004922674037516117,0.016391927376389503
0.022804098203778267,0.02090546116232872,-0.026204489171504974,-0.3283221423625946,0.004554197192192078,0.015940140932798386
0.02289891242980957,0.0209154412150383,-0.02626323141157627,-0.32832711935043335,0.004182326141744852,0.01545408833771944
0.022967444732785225,0.020949697121977806,-0.026325801387429237,-0.3283320665359497,0.0037768888287246227,0.01495821587741375
0.023061417043209076,0.020957276225090027,-0.026400107890367508,-0.3283369541168213,0.003347559832036495,0.014399345964193344
0.023133397102355957,0.020985400304198265,-0.026466578245162964,-0.3283418118953705,0.0029362968634814024,0.013886100612580776
0.023227760568261147,0.020991042256355286,-0.026537559926509857,-0.3283466100692749,0.002522912574931979,0.013351534493267536
0.023317061364650726,0.02100248821079731,-0.026604950428009033,-0.32835134863853455,0.00211180723272264,0.012834866531193256
0.02339944802224636,0.021014932543039322,-0.026677535846829414,-0.3283560574054718,0.0016993270255625248,0.012296679429709911
0.023481622338294983,0.021023325622081757,-0.026753611862659454,-0.3283607065677643,0.0012906398624181747,0.011743882670998573
0.02359110489487648,0.021010536700487137,-0.026840072125196457,-0.3283653259277344,0.0008048882009461522,0.011114387772977352
0.023678094148635864,0.021013392135500908,-0.02691909298300743,-0.3283698856830597,0.0003761447733268142,0.010542696341872215
0.023782268166542053,0.021001581102609634,-0.02699957601726055,-0.32837438583374023,-7.012582500465214e-05,0.009963404387235641
0.02386436052620411,0.021008050069212914,-0.02708541415631771,-0.3283788561820984,-0.0005065792938694358,0.009382802993059158
0.023947633802890778,0.021011000499129295,-0.027169208973646164,-0.32838326692581177,-0.0009529695962555707,0.008783632889389992
0.024024764075875282,0.021016733720898628,-0.027256812900304794,-0.32838764786720276,-0.0014030918246135116,0.008170931600034237
0.024102985858917236,0.02101840265095234,-0.027339136227965355,-0.328391969203949,-0.001850669621489942,0.00755304004997015
0.024171024560928345,0.0210304856300354,-0.02743641473352909,-0.3283962607383728,-0.0023044697009027004,0.006927437148988247
0.02422342076897621,0.021062470972537994,-0.027563856914639473,-0.32840052247047424,-0.0027734769973903894,0.006294193211942911
0.024291889742016792,0.0210675448179245,-0.02764901891350746,-0.3284047245979309,-0.003213629126548767,0.005669808480888605
0.02436763606965542,0.021050920709967613,-0.027701042592525482,-0.3284088969230652,-0.003638290800154209,0.005021505989134312
0.024433065205812454,0.02105250582098961,-0.027779025956988335,-0.3284130096435547,-0.004064387641847134,0.004402076359838247
0.024494480341672897,0.02104908414185047,-0.02784847654402256,-0.3284170925617218,-0.004493835382163525,0.003739268984645605
0.024543149396777153,0.021056778728961945,-0.02793108858168125,-0.32842114567756653,-0.00493052089586854,0.0030539773870259523
0.024580631405115128,0.021068518981337547,-0.028017764911055565,-0.3284251391887665,-0.005354504566639662,0.002368043176829815
0.02462952584028244,0.021077638491988182,-0.028094084933400154,-0.32842910289764404,-0.005789463873952627,0.0016837245784699917
0.024656638503074646,0.02109314128756523,-0.02818327583372593,-0.3284330368041992,-0.006200726609677076,0.0010006990050897002
0.02469639666378498,0.021100757643580437,-0.028251593932509422,-0.3284369111061096,-0.006616587750613689,0.000313715310767293
0.02473093755543232,0.02110518328845501,-0.02831393852829933,-0.32844075560569763,-0.0070183477364480495,-0.0003798039397224784
0.024753138422966003,0.021115243434906006,-0.028376350179314613,-0.32844457030296326,-0.007414350286126137,-0.001080651069059968
0.024790478870272636,0.02111261524260044,-0.02844328060746193,-0.3284483253955841,-0.007796718738973141,-0.0017839174252003431
0.024806087836623192,0.021131642162799835,-0.028497038409113884,-0.32845205068588257,-0.008198481984436512,-0.0024613167624920607
0.02481214702129364,0.021124551072716713,-0.02856411412358284,-0.32845574617385864,-0.008526608347892761,-0.003254403593018651
0.02481829561293125,0.02113419771194458,-0.028620608150959015,-0.32845941185951233,-0.008891296572983265,-0.003975082654505968
0.024826670065522194,0.02115311473608017,-0.028665384277701378,-0.32846301794052124,-0.009276797994971275,-0.004654138348996639
0.02481932006776333,0.021170295774936676,-0.02870647981762886,-0.32846659421920776,-0.009630060754716396,-0.005381634458899498
0.02479696273803711,0.021184908226132393,-0.028752867132425308,-0.3284701406955719,-0.009956729598343372,-0.006149001885205507
0.024800442159175873,0.021189391613006592,-0.028805777430534363,-0.32847365736961365,-0.010297181084752083,-0.006870631594210863
0.024790208786725998,0.02119159698486328,-0.028866369277238846,-0.328477144241333,-0.010615807957947254,-0.00761736836284399
0.024779921397566795,0.02120652049779892,-0.028901899233460426,-0.3284805715084076,-0.010948545299470425,-0.008330061100423336
0.024746015667915344,0.021236499771475792,-0.028912361711263657,-0.3284839689731598,-0.011274968273937702,-0.009065484628081322
0.02472146600484848,0.021253373473882675,-0.028941230848431587,-0.3284873366355896,-0.011590483598411083,-0.00979758519679308
0.02469613030552864,0.02127494476735592,-0.02896217443048954,-0.328490674495697,-0.011896112002432346,-0.010527685284614563
0.024675676599144936,0.021291401237249374,-0.028992842882871628,-0.32849398255348206,-0.01220738422125578,-0.011231896467506886
0.024652456864714622,0.021297521889209747,-0.029032669961452484,-0.3284972608089447,-0.01248878799378872,-0.011963541619479656
0.024615885689854622,0.02131005935370922,-0.029055792838335037,-0.32850050926208496,-0.012755048461258411,-0.012727366760373116
0.02459688112139702,0.021305179223418236,-0.029108799993991852,-0.32850372791290283,-0.013020176440477371,-0.013461921364068985
0.02454935386776924,0.021321158856153488,-0.02912265434861183,-0.3285069167613983,-0.01326963771134615,-0.014239316806197166
0.024526376277208328,0.021319495514035225,-0.029169747605919838,-0.328510046005249,-0.013521446846425533,-0.014970995485782623
0.024427000433206558,0.021371940150856972,-0.029100725427269936,-0.32851314544677734,-0.013789219781756401,-0.01577947475016117
0.024383360520005226,0.02139289490878582,-0.02910841815173626,-0.3285162150859833,-0.014043180271983147,-0.016504859551787376
0.024342002347111702,0.021402310580015182,-0.029126852750778198,-0.3285192549228668,-0.014286091551184654,-0.01724305748939514
0.024314261972904205,0.021419787779450417,-0.029146919026970863,-0.328522264957428,-0.014530064538121223,-0.01793198473751545
0.024218721315264702,0.021429460495710373,-0.029121750965714455,-0.32852524518966675,-0.014752205461263657,-0.01876908913254738
0.02417100965976715,0.02144896239042282,-0.02912396378815174,-0.32852819561958313,-0.014984858222305775,-0.01948884315788746
0.024103684350848198,0.02146238461136818,-0.02911604382097721,-0.3285311162471771,-0.015209457837045193,-0.02025173418223858
0.02405705116689205,0.021491045132279396,-0.029110275208950043,-0.32853400707244873,-0.015435266308486462,-0.020952636376023293
0.02402310259640217,0.021505441516637802,-0.029109952971339226,-0.32853686809539795,-0.015616347081959248,-0.02165578491985798
0.02398017607629299,0.021557273343205452,-0.029098330065608025,-0.3285396993160248,-0.015843939036130905,-0.02230157144367695
0.023949140682816505,0.02156723104417324,-0.029099799692630768,-0.3285425007343292,-0.016011260449886322,-0.02299223095178604
0.023847099393606186,0.02161702699959278,-0.029062502086162567,-0.32854530215263367,-0.016293810680508614,-0.023743368685245514
0.023795338347554207,0.02164928987622261,-0.02904851734638214,-0.3285480737686157,-0.016465775668621063,-0.024423785507678986
0.023843863978981972,0.021633654832839966,-0.0290864035487175,-0.3285508155822754,-0.01657196320593357,-0.02500065602362156
0.023793146014213562,0.021663129329681396,-0.02906825579702854,-0.32855352759361267,-0.01675671711564064,-0.02568642795085907
0.023725254461169243,0.021715570241212845,-0.02903296984732151,-0.32855620980262756,-0.016981281340122223,-0.02635427936911583
0.023670805618166924,0.021751055493950844,-0.029014481231570244,-0.32855886220932007,-0.017163170501589775,-0.027015548199415207
0.023625552654266357,0.021777255460619926,-0.028999997302889824,-0.3285614848136902,-0.017325090244412422,-0.027683192864060402
0.02358154021203518,0.02180982194840908,-0.02898515574634075,-0.3285640776157379,-0.01749603822827339,-0.028321247547864914
0.023530621081590652,0.021838944405317307,-0.028973562642931938,-0.32856664061546326,-0.017663348466157913,-0.02896542102098465
0.023484937846660614,0.021873004734516144,-0.028949420899152756,-0.3285691738128662,-0.01782359555363655,-0.029611801728606224
0.023450175300240517,0.0219131950289011,-0.02891548164188862,-0.32857170701026917,-0.017973940819501877,-0.030246306210756302
0.023408295586705208,0.021947018802165985,-0.02889562025666237,-0.32857421040534973,-0.01812654361128807,-0.030867712572216988
0.023358197882771492,0.02198554202914238,-0.028869766741991043,-0.3285766839981079,-0.018275855109095573,-0.03150167316198349
0.02336418256163597,0.02201462909579277,-0.02886742725968361,-0.3285791277885437,-0.018404139205813408,-0.032035842537879944
0.02330385521054268,0.022049952298402786,-0.02884274534881115,-0.3285815417766571,-0.018557189032435417,-0.032663218677043915
0.023267526179552078,0.02208365872502327,-0.02882564626634121,-0.3285839259624481,-0.018697837367653847,-0.03324943780899048
0.023233309388160706,0.022150911390781403,-0.028761006891727448,-0.32858631014823914,-0.018799353390932083,-0.03393165022134781
0.02319660224020481,0.02219977416098118,-0.02871892973780632,-0.32858866453170776,-0.018924012780189514,-0.034516893327236176
0.023164205253124237,0.022239986807107925,-0.028692808002233505,-0.328590989112854,-0.019050750881433487,-0.03509010374546051
0.023135513067245483,0.022290058434009552,-0.02865837700664997,-0.32859328389167786,-0.019162870943546295,-0.03562809154391289
0.02310202457010746,0.022308822721242905,-0.02864747680723667,-0.3285955488681793,-0.019319040700793266,-0.03629191219806671
0.023071959614753723,0.022353926673531532,-0.02861524187028408,-0.3285978138446808,-0.01943609118461609,-0.03685232251882553
0.023055793717503548,0.0223921537399292,-0.028595322743058205,-0.32860004901885986,-0.019544407725334167,-0.037443608045578
0.023001911118626595,0.022440634667873383,-0.028547020629048347,-0.32860225439071655,-0.01968809962272644,-0.037995729595422745
0.02305479533970356,0.022484181448817253,-0.02855715900659561,-0.32860442996025085,-0.01969083957374096,-0.03852422162890434
0.023024441674351692,0.022538112476468086,-0.028516344726085663,-0.32860660552978516,-0.01979033090174198,-0.03905786573886871
0.02300812117755413,0.02258986234664917,-0.028486203402280807,-0.32860875129699707,-0.019868960604071617,-0.03959024325013161
0.022974807769060135,0.02264482155442238,-0.02844715118408203,-0.3286108672618866,-0.01995163969695568,-0.04012346640229225
0.022998370230197906,0.0226884838193655,-0.028436128050088882,-0.3286129832267761,-0.02002350054681301,-0.040627371519804
0.02298048511147499,0.022745322436094284,-0.028395911678671837,-0.32861506938934326,-0.020107543095946312,-0.041123468428850174
0.022966545075178146,0.022822877392172813,-0.02832765504717827,-0.328617125749588,-0.02016439475119114,-0.041588589549064636
0.02300114743411541,0.022907396778464317,-0.02826128527522087,-0.3286191523075104,-0.02018127217888832,-0.04203590750694275
0.023035766556859016,0.02291855402290821,-0.028303423896431923,-0.32862117886543274,-0.020260030403733253,-0.042589254677295685
0.02300454117357731,0.023000286892056465,-0.028221361339092255,-0.3286231756210327,-0.020323077216744423,-0.043009668588638306
0.022997993975877762,0.023058924823999405,-0.0281923096626997,-0.3286251425743103,-0.020381297916173935,-0.04346344992518425
0.02294943854212761,0.023139704018831253,-0.028102591633796692,-0.3286271095275879,-0.020466841757297516,-0.043941713869571686
0.022951440885663033,0.023198461160063744,-0.028073091059923172,-0.3286290466785431,-0.020518185570836067,-0.04435339570045471
0.022945208474993706,0.023262854665517807,-0.028030604124069214,-0.3286309540271759,-0.020574308931827545,-0.04479324445128441
0.02296866849064827,0.023328281939029694,-0.028001634404063225,-0.3286328613758087,-0.02061491832137108,-0.04520854353904724
0.022972334176301956,0.02339291200041771,-0.027968700975179672,-0.32863473892211914,-0.020657740533351898,-0.04563170671463013
0.022972777485847473,0.02347061038017273,-0.02791222371160984,-0.32863661646842957,-0.020695345476269722,-0.04604652523994446
0.02302488312125206,0.02352595143020153,-0.02795448713004589,-0.3286384642124176,-0.020706970244646072,-0.046430449932813644
0.02303471229970455,0.023591214790940285,-0.027902500703930855,-0.32864028215408325,-0.020739499479532242,-0.04683484137058258
0.023051675409078598,0.023664982989430428,-0.027864277362823486,-0.3286421000957489,-0.020761700347065926,-0.04721812531352043
0.023069756105542183,0.02373257838189602,-0.02784373238682747,-0.32864388823509216,-0.020772244781255722,-0.04761827737092972
0.02310146950185299,0.023797262459993362,-0.027832752093672752,-0.3286456763744354,-0.020773356780409813,-0.04799829423427582
0.023118222132325172,0.023870224133133888,-0.027801910415291786,-0.3286474347114563,-0.020784594118595123,-0.04837885871529579
0.023113328963518143,0.023961789906024933,-0.027731703594326973,-0.3286491632461548,-0.020820025354623795,-0.048747118562459946
