Der-mark/objtrans/data/qvel_trajectory.csv
q0,q1,q2,q3,q4,q5
0.0,0.0,0.0,0.0,0.0,0.0
0.0,0.0,0.0,0.0,0.0,0.0
0.0,0.0,0.0,0.0,0.0,0.0
0.0,0.0007999999797903001,-0.0007999999797903001,-0.0007999999797903001,-0.0007999999797903001,0.0007999999797903001
0.006399999838322401,0.008799999952316284,-0.008799999952316284,-0.008799999952316284,-0.008799999952316284,0.0
0.006399999838322401,0.004000000189989805,-0.004000000189989805,-0.004000000189989805,-0.004000000189989805,-0.0005434367340058088
0.016755161806941032,0.016755161806941032,-0.016755161806941032,-0.016755161806941032,-0.016755161806941032,-0.00861674826592207
0.030003543943166733,0.03155870735645294,-0.03155870735645294,-0.03155870735645294,-0.03155870735645294,-0.021565118804574013
0.025132743641734123,0.025132743641734123,-0.025132743641734123,-0.025132743641734123,-0.025132743641734123,-0.01615118980407715
0.02862457185983658,0.02862457185983658,-0.02862457185983658,-0.02862457185983658,-0.02862457185983658,-0.026112597435712814
0.033510323613882065,0.033510323613882065,-0.033510323613882065,-0.033510323613882065,-0.033510323613882065,-0.029091784730553627
0.03769911453127861,0.03769911453127861,-0.03769911453127861,-0.03769911453127861,-0.03769911453127861,-0.028116414323449135
0.05346514284610748,0.05346514284610748,-0.05346514284610748,-0.05346514284610748,-0.05346514284610748,-0.04316951707005501
0.0460766926407814,0.0460766926407814,-0.0460766926407814,-0.0460766926407814,-0.0460766926407814,-0.036992236971855164
0.04982750117778778,0.04982750117778778,-0.04982750117778778,-0.04982750117778778,-0.04982750117778778,-0.041887905448675156
0.05445427820086479,0.05445427820086479,-0.05445427820086479,-0.05445427820086479,-0.05445427820086479,-0.041300538927316666
0.05911336839199066,0.06093098223209381,-0.06093098223209381,-0.06093098223209381,-0.06093098223209381,-0.03667648509144783
0.06377245485782623,0.06079006940126419,-0.06079006940126419,-0.06079006940126419,-0.06079006940126419,-0.036424361169338226
0.05064795911312103,0.058804210275411606,-0.04977094754576683,-0.04977094754576683,-0.04977094754576683,-0.04476790502667427
0.07120943814516068,0.05818210169672966,-0.07155973464250565,-0.07155973464250565,-0.07155973464250565,-0.02734031155705452
0.06498853862285614,0.062043678015470505,-0.06336615234613419,-0.06336615234613419,-0.06336615234613419,-0.03177735581994057
0.07958701997995377,0.048749152570962906,-0.08035494387149811,-0.08035494387149811,-0.08035494387149811,-0.026065481826663017
0.08734890073537827,0.05410494655370712,-0.08734890073537827,-0.08734890073537827,-0.08734890073537827,-0.030571967363357544
0.08565826714038849,0.050247132778167725,-0.08565826714038849,-0.08565826714038849,-0.08565826714038849,-0.026091966778039932
0.0921533852815628,0.0584876611828804,-0.0921533852815628,-0.0921533852815628,-0.0921533852815628,-0.03504792973399162
0.09634218364953995,0.06077202409505844,-0.09634218364953995,-0.09634218364953995,-0.09634218364953995,-0.03560443967580795
0.09506620466709137,0.059379685670137405,-0.09282570332288742,-0.09282570332288742,-0.09282570332288742,-0.035953864455223083
0.11078939586877823,0.072747603058815,-0.11078939586877823,-0.11078939586877823,-0.11078939586877823,-0.026856031268835068
0.11004433035850525,0.07355368882417679,-0.11004433035850525,-0.11004433035850525,-0.11004433035850525,-0.03525778651237488
0.10992618650197983,0.07335226237773895,-0.10724479705095291,-0.10724479705095291,-0.10724479705095291,-0.03879128023982048
0.11901218444108963,0.08236142992973328,-0.11901218444108963,-0.11901218444108963,-0.11901218444108963,-0.029507193714380264
0.12763097882270813,0.09157966077327728,-0.12763097882270813,-0.12763097882270813,-0.12763097882270813,-0.012367693707346916
0.12520547211170197,0.08643849939107895,-0.12520547211170197,-0.12520547211170197,-0.12520547211170197,-0.02411070466041565
0.1298525035381317,0.0808851420879364,-0.1298525035381317,-0.1298525035381317,-0.1298525035381317,-0.022628383710980415
0.13518208265304565,0.07707598805427551,-0.13518208265304565,-0.13518208265304565,-0.13518208265304565,-0.01573312282562256
0.14400987327098846,0.0903080627322197,-0.14400987327098846,-0.14400987327098846,-0.14400987327098846,-0.016360530629754066
0.14417046308517456,0.08900771290063858,-0.14417046308517456,-0.14417046308517456,-0.14417046308517456,-0.02157154120504856
0.14785826206207275,0.09171300381422043,-0.14785826206207275,-0.14785826206207275,-0.14785826206207275,-0.025760330259799957
0.15181493759155273,0.09556563198566437,-0.15181493759155273,-0.15181493759155273,-0.15181493759155273,-0.02157154120504856
0.15495504438877106,0.09889949858188629,-0.15495504438877106,-0.15495504438877106,-0.15495504438877106,-0.02481219731271267
0.15917399525642395,0.10314995795488358,-0.15917399525642395,-0.15917399525642395,-0.15917399525642395,-0.0232248455286026
0.16927170753479004,0.11495787650346756,-0.17114193737506866,-0.17114193737506866,-0.17114193737506866,-0.015813861042261124
0.15963952243328094,0.10380899906158447,-0.15963952243328094,-0.15963952243328094,-0.15963952243328094,-0.026874234899878502
0.1717403382062912,0.11453346163034439,-0.1717403382062912,-0.1717403382062912,-0.1717403382062912,-0.01699979230761528
0.1676531285047531,0.11024224758148193,-0.16833247244358063,-0.16833247244358063,-0.16833247244358063,-0.019710883498191833
0.17282605171203613,0.11612071841955185,-0.17655888199806213,-0.17253625392913818,-0.17253625392913818,-0.021112138405442238
0.1776386797428131,0.1180056631565094,-0.18430669605731964,-0.18430669605731964,-0.18430669605731964,-0.017408356070518494
0.16606605052947998,0.1198987066745758,-0.18475359678268433,-0.18475359678268433,-0.18475359678268433,-0.020174937322735786
0.15960164368152618,0.12111864238977432,-0.19268424808979034,-0.19268424808979034,-0.19268424808979034,-0.01711949333548546
0.1603350192308426,0.12551358342170715,-0.19468092918395996,-0.19468092918395996,-0.19468092918395996,-0.020954415202140808
0.1568143665790558,0.1306285709142685,-0.20106181502342224,-0.20106181502342224,-0.20106181502342224,-0.018305378034710884
0.15087416768074036,0.13468027114868164,-0.20303525030612946,-0.206875741481781,-0.206875741481781,-0.013967117294669151
0.1446322202682495,0.13291111588478088,-0.18735270202159882,-0.21074357628822327,-0.21074357628822327,-0.014257924631237984
0.14238062500953674,0.12983126938343048,-0.1881146878004074,-0.21367087960243225,-0.21367087960243225,-0.012421922758221626
0.13955748081207275,0.12564247846603394,-0.18488529324531555,-0.2177734375,-0.2177734375,-0.010480284690856934
0.14298982918262482,0.11591846495866776,-0.19414910674095154,-0.23040248453617096,-0.2276238650083542,-0.01447131298482418
0.1376294493675232,0.12418567389249802,-0.18354305624961853,-0.22790947556495667,-0.22108007967472076,-0.01664389669895172
0.13124822080135345,0.137356698513031,-0.17273502051830292,-0.23513607680797577,-0.20647279918193817,-0.02616637758910656
0.1317579448223114,0.13367827236652374,-0.17569772899150848,-0.2338208556175232,-0.21139022707939148,-0.023883329704403877
0.12663669884204865,0.14216969907283783,-0.16796670854091644,-0.23979255557060242,-0.20256543159484863,-0.03027084842324257
0.12918005883693695,0.1337052285671234,-0.17560207843780518,-0.24174408614635468,-0.21139022707939148,-0.023623604327440262
0.12170606851577759,0.13275659084320068,-0.1659117043018341,-0.24713844060897827,-0.2121869921684265,-0.02182387374341488
0.12317823618650436,0.12266013026237488,-0.17543131113052368,-0.2540244460105896,-0.22253762185573578,-0.01293994951993227
0.12039067596197128,0.12229330837726593,-0.17052771151065826,-0.25481098890304565,-0.21676558256149292,-0.01963498815894127
0.11757692694664001,0.11700128763914108,-0.16728124022483826,-0.2580101490020752,-0.22160190343856812,-0.022725915536284447
0.11835554987192154,0.1221727654337883,-0.16840985417366028,-0.25573429465293884,-0.21695132553577423,-0.02163662202656269
0.10905726999044418,0.12635818123817444,-0.15871769189834595,-0.2544448673725128,-0.21178163588047028,-0.03151055797934532
0.10618515312671661,0.1292228102684021,-0.15587443113327026,-0.24988390505313873,-0.20908509194850922,-0.034286018460989
0.10351554304361343,0.12375510483980179,-0.15316085517406464,-0.24894680082798004,-0.20651254057884216,-0.04092526435852051
0.10232644528150558,0.1199524849653244,-0.14282292127609253,-0.23994328081607819,-0.20088832080364227,-0.042819343507289886
0.11075224727392197,0.11952037364244461,-0.13807202875614166,-0.2324194759130478,-0.20918293297290802,-0.03299770876765251
0.11063515394926071,0.11074786633253098,-0.13899466395378113,-0.23419494926929474,-0.2086469680070877,-0.04097246006131172
0.10510801523923874,0.11139766871929169,-0.1325841099023819,-0.22768065333366394,-0.20175528526306152,-0.0432974211871624
0.10168985277414322,0.10482081770896912,-0.130316361784935,-0.22569391131401062,-0.1988406628370285,-0.049350038170814514
0.09633258730173111,0.10274357348680496,-0.12569460272789001,-0.22130078077316284,-0.19337771832942963,-0.055625561624765396
0.09209749102592468,0.11398748308420181,-0.12065890431404114,-0.21606704592704773,-0.1888139247894287,-0.05806621164083481
0.08293495327234268,0.12583598494529724,-0.11152249574661255,-0.2069261372089386,-0.1797577142715454,-0.0674583911895752
0.09227245301008224,0.12486470490694046,-0.11022789776325226,-0.20561915636062622,-0.17847588658332825,-0.06851456314325333
0.09775374829769135,0.11817626655101776,-0.11378892511129379,-0.20596705377101898,-0.18505249917507172,-0.06801607459783554
0.09791886061429977,0.112824946641922,-0.11683330684900284,-0.19961850345134735,-0.1903035044670105,-0.06738632917404175
0.08613304048776627,0.1034448891878128,-0.1292324960231781,-0.18648704886436462,-0.1998002529144287,-0.057803329080343246
0.09032871574163437,0.10642491281032562,-0.1168854609131813,-0.19215352833271027,-0.1936366707086563,-0.06815598160028458
0.08496953547000885,0.10192336142063141,-0.11881917715072632,-0.18653050065040588,-0.19307689368724823,-0.06705787777900696
0.09169929474592209,0.1079428419470787,-0.10850787907838821,-0.1839337944984436,-0.18561840057373047,-0.07687216997146606
0.08496953547000885,0.10229330509901047,-0.10759887844324112,-0.18047194182872772,-0.18405376374721527,-0.0777023583650589
0.09156396985054016,0.1088319793343544,-0.10013029724359512,-0.17508625984191895,-0.17746105790138245,-0.08493869751691818
0.0811568945646286,0.09972664713859558,-0.089974045753479,-0.16454358398914337,-0.16727332770824432,-0.09513668715953827
0.08114524930715561,0.09825233370065689,-0.09175271540880203,-0.1661185771226883,-0.16889876127243042,-0.09338142722845078
0.07647950947284698,0.09396824240684509,-0.09525284916162491,-0.16043727099895477,-0.16650182008743286,-0.09911956638097763
0.08106391131877899,0.09569491446018219,-0.09188880771398544,-0.1625870317220688,-0.1667659431695938,-0.096954844892025
0.07309846580028534,0.07103513926267624,-0.0926971584558487,-0.14133600890636444,-0.1518813818693161,-0.11806968599557877
0.08406566828489304,0.08477537333965302,-0.0865953266620636,-0.15258799493312836,-0.158061683177948,-0.10693521797657013
0.07701455801725388,0.07721307128667831,-0.08510493487119675,-0.14530152082443237,-0.15246663987636566,-0.11418285965919495
0.07827114313840866,0.07833433896303177,-0.0798281878232956,-0.1395144760608673,-0.14682771265506744,-0.11996664106845856
0.07460865378379822,0.08504324406385422,-0.07790181785821915,-0.13776655495166779,-0.14463086426258087,-0.12172479182481766
0.06932869553565979,0.09494956582784653,-0.061464715749025345,-0.12335709482431412,-0.13037583231925964,-0.13613085448741913
0.06827960163354874,0.09365501999855042,-0.0695621520280838,-0.1283186972141266,-0.13519646227359772,-0.13117238879203796
0.0605873167514801,0.07967646420001984,-0.08392247557640076,-0.11583560705184937,-0.1227288544178009,-0.14365515112876892
0.06986719369888306,0.08582255989313126,-0.07724270969629288,-0.12088122218847275,-0.13529622554779053,-0.13860970735549927
0.07430184632539749,0.07176800817251205,-0.09100136160850525,-0.10482250154018402,-0.12571518123149872,-0.15338236093521118
0.07470118254423141,0.09290916472673416,-0.07209042459726334,-0.11418581008911133,-0.12751851975917816,-0.1453050971031189
0.0705438107252121,0.07947643101215363,-0.0725361555814743,-0.10823215544223785,-0.12306548655033112,-0.1512587070465088
0.06422748416662216,0.08504324406385422,-0.06874707341194153,-0.10079081356525421,-0.11642752587795258,-0.15870001912117004
0.0632031187415123,0.08029252290725708,-0.07375094294548035,-0.10014057904481888,-0.11551396548748016,-0.15935024619102478
0.06661073118448257,0.08187232166528702,-0.06834645569324493,-0.09483835101127625,-0.11016348004341125,-0.164652481675148
0.07539090514183044,0.06641410291194916,-0.06188071891665459,-0.08560837060213089,-0.10081222653388977,-0.1738823801279068
0.07452497631311417,0.07267260551452637,-0.06098613142967224,-0.08634552359580994,-0.10161008685827255,-0.17314529418945312
0.07019498199224472,0.06633182615041733,-0.056552790105342865,-0.08138491213321686,-0.0966295599937439,-0.178105890750885
0.0706465095281601,0.07267260551452637,-0.057033900171518326,-0.08216749131679535,-0.09742344915866852,-0.17732329666614532
0.06417559832334518,0.0698392391204834,-0.05684204772114754,-0.07920253276824951,-0.09444836527109146,-0.18028825521469116
0.055877912789583206,0.08017352968454361,-0.046957068145275116,-0.06659209728240967,-0.08185834437608719,-0.1928986757993698
0.05762490630149841,0.07167835533618927,-0.053765617311000824,-0.062043916434049606,-0.08880311995744705,-0.19744683802127838
0.0624392069876194,0.07165582478046417,-0.044108208268880844,-0.06122326850891113,-0.07990758121013641,-0.19826750457286835
0.06373552978038788,0.06885439157485962,-0.05054162070155144,-0.05857041850686073,-0.08545351028442383,-0.20092034339904785
0.07050051540136337,0.062255021184682846,-0.04097858816385269,-0.051791951060295105,-0.07622857391834259,-0.207698792219162
0.07017641514539719,0.06145744025707245,-0.05056098476052284,-0.05108276382088661,-0.08390259742736816,-0.20840796828269958
0.06951405107975006,0.06301210075616837,-0.047271665185689926,-0.04463336616754532,-0.08022332191467285,-0.21485735476016998
0.06738587468862534,0.06603405624628067,-0.042755525559186935,-0.038482774049043655,-0.07528971135616302,-0.22100792825222015
0.06095694750547409,0.07158447057008743,-0.0393490269780159,-0.03708786889910698,-0.07175008207559586,-0.22240285575389862
0.05431465059518814,0.08329881727695465,-0.025761164724826813,-0.021845530718564987,-0.05778171494603157,-0.23797498643398285
0.06216222420334816,0.07179594039916992,-0.037069398909807205,-0.028475334867835045,-0.06340371072292328,-0.23101535439491272
0.07020968943834305,0.06269904971122742,-0.045953355729579926,-0.02368941158056259,-0.06960403919219971,-0.23580127954483032
0.06907464563846588,0.06535310298204422,-0.04351183399558067,-0.019500620663166046,-0.07040660083293915,-0.23425179719924927
0.07209844887256622,0.059229571372270584,-0.043194063007831573,-0.012992561794817448,-0.07150007784366608,-0.24064582586288452
0.06824908405542374,0.061801787465810776,-0.03922348469495773,-0.00992922205477953,-0.06655025482177734,-0.24610057473182678
0.06254062056541443,0.06760715693235397,-0.03432868421077728,-0.007180983666330576,-0.06072980538010597,-0.2502296566963196
0.05847655236721039,0.07263311743736267,-0.030414657667279243,-0.002745457459241152,-0.057480279356241226,-0.2529781460762024
0.058280590921640396,0.07617096602916718,-0.026878423988819122,0.0014433331089094281,-0.054317258298397064,-0.2564648985862732
0.06378435343503952,0.06887515634298325,-0.03402448818087578,0.003333906875923276,-0.05631261691451073,-0.2590589225292206
0.06700599938631058,0.06883596628904343,-0.03395785018801689,0.009820913895964622,-0.058677878230810165,-0.2651132345199585
0.08184980601072311,0.056381117552518845,-0.04804825037717819,0.02310751937329769,-0.06874800473451614,-0.27886754274368286
0.06797314435243607,0.061319757252931595,-0.03480544313788414,0.016846124082803726,-0.05830705165863037,-0.27228453755378723
0.0524534173309803,0.04344748705625534,-0.020464563742280006,0.031019018962979317,-0.04323739930987358,-0.28659486770629883
0.05982312932610512,0.059229571372270584,-0.026917465031147003,0.026689626276493073,-0.049929238855838776,-0.2821992039680481
0.05540677160024643,0.05329778045415878,-0.022770976647734642,0.030306456610560417,-0.04569672420620918,-0.2858375012874603
0.04550454020500183,0.04345214366912842,-0.02294684574007988,0.029566479846835136,-0.045791178941726685,-0.2851184904575348
0.0731072798371315,0.06223117560148239,-0.012451393529772758,0.04390375688672066,-0.03295933082699776,-0.29939162731170654
0.06672322750091553,0.053644582629203796,-0.012503571808338165,0.043080270290374756,-0.03323560953140259,-0.2985888719558716
0.07216193526983261,0.060003846883773804,-0.010261844843626022,0.04564327746629715,-0.030931489542126656,-0.30114179849624634
0.07417664676904678,0.055983517318964005,-0.007920504547655582,0.055069103837013245,-0.028214823454618454,-0.3105767071247101
0.06378435343503952,0.048379067331552505,-0.016151471063494682,0.058348242193460464,-0.02960720658302307,-0.31386151909828186
0.059210099279880524,0.04491391032934189,-0.020890986546874046,0.058909203857183456,-0.031579505652189255,-0.31441906094551086
0.05794175714254379,0.04268109053373337,-0.022179685533046722,0.06427519023418427,-0.026058608666062355,-0.3197876811027527
0.06555453687906265,0.05324575677514076,-0.01547069102525711,0.0778430700302124,-0.025134241208434105,-0.32954803109169006
0.06398153305053711,0.04945579171180725,-0.016503941267728806,0.07408445328474045,-0.019656464457511902,-0.32959404587745667
0.06915421783924103,0.053644582629203796,-0.010934322141110897,0.0763130709528923,-0.01365008857101202,-0.32592514157295227
0.0734945759177208,0.053415484726428986,-0.009848235175013542,0.08103035390377045,-0.013200854882597923,-0.3273487687110901
0.07497996091842651,0.04503045976161957,-0.0069778249599039555,0.08298695087432861,-0.011692240834236145,-0.32713910937309265
0.07220815867185593,0.040898069739341736,-0.012922186404466629,0.08422040194272995,-0.0172275360673666,-0.3288554847240448
0.06797314435243607,0.036348067224025726,-0.018769176676869392,0.08337561786174774,-0.020602209493517876,-0.3296804428100586
0.06833591312170029,0.03875767067074776,-0.012739073485136032,0.08040562272071838,-0.01349539216607809,-0.32891175150871277
0.059595562517642975,0.03758830949664116,-0.01138620637357235,0.07225058227777481,-0.005862142890691757,-0.32826852798461914
0.06083020195364952,0.0429704487323761,-0.008446718566119671,0.07334742695093155,-0.0037061781622469425,-0.32878825068473816
0.06626224517822266,0.04969607666134834,-0.003685224335640669,0.07978138327598572,-0.0014814407331869006,-0.3292433023452759
0.07214508205652237,0.04348568990826607,0.004332319833338261,0.09027978032827377,0.002565765520557761,-0.3286804258823395
0.0732467770576477,0.03692470118403435,-0.008114553987979889,0.08664829283952713,-0.00895653571933508,-0.32892048358917236
0.06847874075174332,0.03635284677147865,-0.0067869978956878185,0.09234775602817535,-0.008638063445687294,-0.3288295269012451
0.0582105927169323,0.027840198948979378,-0.014264841563999653,0.10054095834493637,-0.01518543902784586,-0.32874974608421326
0.06439752876758575,0.03755863010883331,-0.005216273479163647,0.09234775602817535,-0.006966769695281982,-0.32879897952079773
0.06427080184221268,0.034548260271549225,-0.0004462425713427365,0.0965365469455719,-0.001735654310323298,-0.32883864641189575
0.07028268277645111,0.04619340971112251,0.0007519734790548682,0.09037450700998306,-0.0011468905722722411,-0.3287782073020935
0.0718148797750473,0.03259986639022827,0.0018009529449045658,0.10102623701095581,0.004660886246711016,-0.32882794737815857
0.07699216157197952,0.030621295794844627,-0.0048794918693602085,0.10308898240327835,0.008031735196709633,-0.3288099467754364
0.06791408360004425,0.02586422488093376,-0.003501790575683117,0.10840176790952682,0.0009434528765268624,-0.3288284242153168
0.06769942492246628,0.02060241438448429,-0.0032058435026556253,0.10521037131547928,0.008849676698446274,-0.3288213908672333
0.06431913375854492,0.02620270475745201,0.0012851074570789933,0.09952236711978912,0.013730949722230434,-0.3288194239139557
0.06861457973718643,0.03469419479370117,0.008831117302179337,0.09719500690698624,0.02058098092675209,-0.3288195729255676
0.07170627266168594,0.031005991622805595,0.005898582749068737,0.09905343502759933,0.018229370936751366,-0.3288194239139557
0.06901630759239197,0.03119681403040886,0.0051741027273237705,0.10167454928159714,0.02111061103641987,-0.3288200795650482
0.07099568098783493,0.026013407856225967,0.003740278072655201,0.10762815922498703,0.013038468547165394,-0.3288199305534363
0.06849026679992676,0.02889687940478325,0.002991732209920883,0.10713497549295425,0.01817576214671135,-0.3288199007511139
0.06348208338022232,0.017042405903339386,-0.0037648030556738377,0.11725674569606781,0.004660886712372303,-0.3288200795650482
0.06574268639087677,0.012215390801429749,0.003310334635898471,0.11980624496936798,0.00723499059677124,-0.32882001996040344
0.07004163414239883,0.00902593694627285,0.0067701940424740314,0.12223907560110092,0.008819006383419037,-0.32881999015808105
0.07670270651578903,0.0136363310739398,0.011036275885999203,0.11819712817668915,0.013153689913451672,-0.32882001996040344
0.07778236269950867,0.017682449892163277,0.013781389221549034,0.11397319287061691,0.016283398494124413,-0.32882001996040344
0.0787244513630867,0.022013913840055466,0.017582444474101067,0.10972712188959122,0.02023274078965187,-0.32882001996040344
0.07414373010396957,0.029580827802419662,0.01646743342280388,0.10232198983430862,0.02807471714913845,-0.32882001996040344
0.07461992651224136,0.022013913840055466,0.014733566902577877,0.10884492099285126,0.025562334805727005,-0.32882001996040344
0.06703464686870575,0.015377149917185307,0.005447636358439922,0.11426818370819092,0.025519786402583122,-0.32882001996040344
0.06776530295610428,0.01761590875685215,0.010399089194834232,0.11236108839511871,0.025804657489061356,-0.32882001996040344
0.06529595702886581,0.014720343053340912,0.0036141262389719486,0.11628898233175278,0.017772773280739784,-0.32882001996040344
0.06115822494029999,0.013219404965639114,0.005704747978597879,0.1310635507106781,0.022243494167923927,-0.32882001996040344
0.06576614826917648,0.009185947477817535,0.009130003862082958,0.12967684864997864,0.02010451816022396,-0.32882001996040344
0.07237207144498825,0.009972553700208664,0.014450622722506523,0.12503750622272491,0.021509500220417976,-0.32882001996040344
0.07582785189151764,0.01782512106001377,0.01867789961397648,0.12168025970458984,0.028626417741179466,-0.32882001996040344
0.08528399467468262,0.0337325781583786,0.006760295480489731,0.11360327154397964,0.042691972106695175,-0.32882001996040344
0.07414373010396957,0.02427702769637108,0.011444766074419022,0.11506856232881546,0.03735462948679924,-0.32882001996040344
0.06203272193670273,0.009925423189997673,-0.005259314551949501,0.1280757188796997,0.02024701237678528,-0.32882001996040344
0.06535622477531433,0.015153429470956326,0.0033531184308230877,0.12310798466205597,0.02821899950504303,-0.32882001996040344
0.06373999267816544,0.012764712795615196,-0.0008356720209121704,0.12519177794456482,0.025437038391828537,-0.32882001996040344
0.0651627629995346,0.015248887240886688,0.0033531184308230877,0.12350474298000336,0.028409136459231377,-0.32882001996040344
0.07500461488962173,0.006008369382470846,0.013998164795339108,0.13200797140598297,0.018824635073542595,-0.32882001996040344
0.07251713424921036,0.009351955726742744,0.00981253944337368,0.12776228785514832,0.02337905392050743,-0.32882001996040344
0.07757096737623215,0.006198414601385593,0.014250895008444786,0.13550393283367157,0.016107656061649323,-0.32882001996040344
0.075523242354393,0.008697185665369034,0.011333533562719822,0.1302303522825241,0.018166549503803253,-0.32882001996040344
0.07774524390697479,0.016338907182216644,0.005479009356349707,0.13176992535591125,0.01593112386763096,-0.32882001996040344
0.07346341013908386,0.018122322857379913,0.0033770890440791845,0.12868359684944153,0.020057236775755882,-0.32882001996040344
0.06927461922168732,0.019384285435080528,0.0023735465947538614,0.1260908842086792,0.022992409765720367,-0.32882001996040344
0.06365114450454712,0.015381637029349804,0.005167294293642044,0.13054852187633514,0.015735914930701256,-0.32882001996040344
0.06953440606594086,0.013466733507812023,0.005833219271153212,0.132402703166008,0.015171927399933338,-0.32882001996040344
0.07469171285629272,0.006310241762548685,0.00865003652870655,0.13990238308906555,0.00735833402723074,-0.32882001996040344
0.07809144258499146,0.0023693470284342766,0.008798721246421337,0.14377549290657043,0.005089553538709879,-0.32882001996040344
0.07777686417102814,0.006354966666549444,0.007540950085967779,0.13967128098011017,0.008889658376574516,-0.32882001996040344
0.07287940382957458,0.009917269460856915,0.0074033853597939014,0.13613121211528778,0.013078449293971062,-0.32882001996040344
0.07051632553339005,0.014188872650265694,0.007614805828779936,0.1317904144525528,0.017455585300922394,-0.32882001996040344
0.06564025580883026,0.018409116193652153,0.005745128728449345,0.12760162353515625,0.021434228867292404,-0.32882001996040344
0.0675184354186058,0.016837311908602715,0.004973322153091431,0.1317904144525528,0.01720023714005947,-0.32882001996040344
0.07023004442453384,0.011898703873157501,0.0022144776303321123,0.13427573442459106,0.014789348468184471,-0.32882001996040344
0.07508885115385056,0.008438975550234318,0.0038459193892776966,0.1401418298482895,0.008889657445251942,-0.32882001996040344
0.07920978963375092,0.0035211239010095596,0.0037861326709389687,0.1438102126121521,0.005265243351459503,-0.32882001996040344
0.07394562661647797,0.012995734810829163,0.015836084261536598,0.15450610220432281,0.010393344797194004,-0.32882001996040344
0.07309413701295853,0.010512091219425201,0.00785982608795166,0.1422491818666458,0.011343044228851795,-0.32882001996040344
0.06862624734640121,0.016087494790554047,0.012792138382792473,0.14143763482570648,0.015779701992869377,-0.32882001996040344
0.06378332525491714,0.018476732075214386,0.012022018432617188,0.13401362299919128,0.019715353846549988,-0.32882001996040344
0.06696877628564835,0.011674859561026096,0.002359179314225912,0.13874292373657227,0.012093853205442429,-0.32882001996040344
0.07908356189727783,0.0016386492643505335,-0.00757842231541872,0.15214790403842926,0.001955902436748147,-0.32882001996040344
0.07482919842004776,0.004565924406051636,-0.006020345259457827,0.14657996594905853,0.004995028488337994,-0.32882001996040344
0.0755363330245018,0.009406373836100101,-0.001703944057226181,0.14641191065311432,0.00767204724252224,-0.32882001996040344
0.07041102647781372,0.021168019622564316,0.013934224843978882,0.14124110341072083,0.017577994614839554,-0.32882001996040344
0.07129708677530289,0.00949933659285307,-0.0055673010647296906,0.1418989598751068,0.008703513070940971,-0.32882001996040344
0.06666363775730133,0.02125498838722706,0.009080152958631516,0.13737888634204865,0.018266623839735985,-0.32882001996040344
0.0727822408080101,0.01691293530166149,0.004891362506896257,0.14352913200855255,0.013347728177905083,-0.32882001996040344
0.07216247916221619,0.030490901321172714,0.019851913675665855,0.14004352688789368,0.017157472670078278,-0.32882001996040344
0.07627765834331512,0.017188040539622307,0.005040100309997797,0.1462932825088501,0.010660503059625626,-0.32882001996040344
0.072616346180439,0.014896011911332607,0.0025397345889359713,0.15268822014331818,0.004538164474070072,-0.32882001996040344
0.07065614312887192,0.008810458704829216,-0.003463599132373929,0.15647496283054352,0.0004936949699185789,-0.32882001996040344
0.06606097519397736,0.005042453296482563,-0.007271460723131895,0.15188530087471008,-0.0040905107744038105,-0.32882001996040344
0.07064580917358398,0.0036078011617064476,-0.0071109081618487835,0.1529989093542099,0.00021711447334382683,-0.32882001996040344
0.07706503570079803,0.005937517620623112,-0.003702958347275853,0.14841347932815552,0.006341021507978439,-0.32882001996040344
0.08127160370349884,0.010961970314383507,0.0011028825538232923,0.14430446922779083,0.010549074038863182,-0.32882001996040344
0.08578677475452423,0.018165316432714462,0.010099146515130997,0.14468087255954742,0.015471301972866058,-0.32882001996040344
0.07902339100837708,0.01469949446618557,0.0031454991549253464,0.1409178376197815,0.012563968077301979,-0.32882001996040344
0.07080592215061188,0.014767324551939964,0.0019068525871261954,0.14997756481170654,0.008319440297782421,-0.32882001996040344
0.06808379292488098,0.010961970314383507,-0.002600300358608365,0.15060725808143616,0.005930468440055847,-0.32882001996040344
0.06795448809862137,0.006773180793970823,-0.005581130273640156,0.14652322232723236,0.005744225345551968,-0.32882001996040344
0.07004018127918243,0.00169500766787678,-0.010935959406197071,0.15707290172576904,-0.001974497688934207,-0.32882001996040344
0.07628282159566879,0.006773180793970823,-0.006180206313729286,0.164255291223526,-0.0008374632452614605,-0.32882001996040344
0.07801944762468338,0.010050232522189617,-0.002722780220210552,0.16443197429180145,0.004478780552744865,-0.32882001996040344
0.08321217447519302,0.015474502928555012,0.0026611152570694685,0.16188205778598785,0.00933922454714775,-0.32882001996040344
0.08051055669784546,0.019816817715764046,0.0013864613138139248,0.15707290172576904,0.013206039555370808,-0.32882001996040344
0.08059980720281601,0.024131566286087036,-0.004053869750350714,0.15207740664482117,0.010251819156110287,-0.32882001996040344
0.07867182046175003,0.021150555461645126,-0.00876263901591301,0.1483248621225357,0.004478780552744865,-0.32882001996040344
0.08446864783763885,0.015150762163102627,-0.012315033935010433,0.1561339944601059,0.0008144708699546754,-0.32882001996040344
0.08545993268489838,0.012064400129020214,-0.016681505367159843,0.15562237799167633,-0.0038987998850643635,-0.32882001996040344
0.09010002017021179,0.007651557680219412,-0.019688649103045464,0.1612616926431656,-0.006830175407230854,-0.32882001996040344
0.09279591590166092,0.002140853088349104,-0.02111983485519886,0.15989235043525696,-0.012276381254196167,-0.32882001996040344
0.09376105666160583,0.008360903710126877,-0.015655912458896637,0.1592695266008377,-0.014674440957605839,-0.32882001996040344
0.08783510327339172,0.007990299724042416,-0.014650068245828152,0.15371479094028473,-0.008223716169595718,-0.32882001996040344
0.08700985461473465,0.015872305259108543,-0.0072783296927809715,0.1508954018354416,-0.009117101319134235,-0.32882001996040344
0.08128389716148376,0.018431544303894043,-0.01358017884194851,0.14533722400665283,-0.005044491961598396,-0.32882001996040344
0.07928717136383057,0.023528343066573143,-0.014553001150488853,0.1416184902191162,-0.008153458125889301,-0.32882001996040344
0.07920727878808975,0.02304346114397049,-0.016626833006739616,0.14360998570919037,-0.013931132853031158,-0.32882001996040344
0.08525674790143967,0.012065486051142216,-0.021762898191809654,0.150160551071167,-0.01596447452902794,-0.32882001996040344
0.08921688050031662,0.009018042124807835,-0.027059268206357956,0.15653163194656372,-0.0223087128251791,-0.32882001996040344
0.0948115885257721,0.005131329409778118,-0.02712327614426613,0.16084368526935577,-0.02724756859242916,-0.32882001996040344
0.09451131522655487,0.010961970314383507,-0.02388453669846058,0.1614476442337036,-0.02294531650841236,-0.32882001996040344
0.0919359028339386,0.014688338153064251,-0.019221875816583633,0.1590837985277176,-0.02032730169594288,-0.32882001996040344
0.08887051790952682,0.019339554011821747,-0.01487755123525858,0.15616677701473236,-0.016157399863004684,-0.32882001996040344
0.08447897434234619,0.02326296828687191,-0.01633256860077381,0.15171442925930023,-0.011967526748776436,-0.32882001996040344
0.08053351193666458,0.02771713398396969,-0.021249668672680855,0.16081051528453827,-0.02071954496204853,-0.32882001996040344
0.07252461463212967,0.03611528128385544,-0.021485013887286186,0.1670459359884262,-0.02649417333304882,-0.32882001996040344
0.09405714273452759,0.0093134306371212,-0.03280540555715561,0.16260404884815216,-0.02302098274230957,-0.32882001996040344
0.08991791307926178,0.015150762163102627,-0.030391227453947067,0.1665375679731369,-0.026650795713067055,-0.32882001996040344
0.09001420438289642,0.018056880682706833,-0.029983073472976685,0.17265835404396057,-0.03252128139138222,-0.32882001996040344
0.08765093982219696,0.01941874250769615,-0.02803923562169075,0.16846957802772522,-0.02841186709702015,-0.32882001996040344
0.08590038120746613,0.02062314935028553,-0.02490118332207203,0.16428078711032867,-0.024300413206219673,-0.32882001996040344
0.09067647904157639,0.024737777188420296,-0.021305911242961884,0.16009199619293213,-0.02011631615459919,-0.32882001996040344
0.08827268332242966,0.02695772983133793,-0.01818424090743065,0.1545773148536682,-0.025986986234784126,-0.32882001996040344
0.09159474819898605,0.014182032085955143,-0.029544232413172722,0.16242411732673645,-0.025015082210302353,-0.32882001996040344
0.08514036983251572,0.020327188074588776,-0.02407107874751091,0.15817733108997345,-0.030375739559531212,-0.32882001996040344
0.0735538974404335,0.015150762163102627,-0.02987782470881939,0.1616213172674179,-0.04119821637868881,-0.32882001996040344
0.07454138994216919,0.016610389575362206,-0.027676614001393318,0.1591600477695465,-0.028897326439619064,-0.32882001996040344
0.07972061634063721,0.023528343066573143,-0.020642021670937538,0.1539379358291626,-0.02447611838579178,-0.32882001996040344
0.08336718380451202,0.02771713398396969,-0.016645053401589394,0.1516919732093811,-0.022449828684329987,-0.32882001996040344
0.08728894591331482,0.03506793454289436,-0.00952362921088934,0.15190108120441437,-0.020160067826509476,-0.32882001996040344
0.08216793090105057,0.026076938956975937,-0.0184203889220953,0.1530812680721283,-0.022080566734075546,-0.32882001996040344
0.08087729662656784,0.02195318415760994,-0.022311266511678696,0.1610749512910843,-0.033267196267843246,-0.32882001996040344
0.07258549332618713,0.01516185887157917,-0.02929868921637535,0.16431915760040283,-0.04131392017006874,-0.32882001996040344
0.07532239705324173,0.017104843631386757,-0.0272299125790596,0.16034188866615295,-0.03753866255283356,-0.32882001996040344
0.08421589434146881,0.026964109390974045,-0.017517078667879105,0.14424188435077667,-0.0317646861076355,-0.32882001996040344
0.07656902074813843,0.017179414629936218,-0.026975270360708237,0.16334186494350433,-0.03227787837386131,-0.32882001996040344
0.0856528952717781,0.0276196151971817,-0.016741996631026268,0.1477755457162857,-0.027698390185832977,-0.32882001996040344
0.08182059228420258,0.023528343066573143,-0.020793763920664787,0.1524573266506195,-0.03067115508019924,-0.32882001996040344
0.08769242465496063,0.02948134019970894,-0.014853131957352161,0.1470174938440323,-0.025067271664738655,-0.32882001996040344
0.08084038645029068,0.022562699392437935,-0.02176162227988243,0.15154516696929932,-0.03169912099838257,-0.32882001996040344
0.0751940906047821,0.01946016028523445,-0.02209457941353321,0.13926541805267334,-0.030377263203263283,-0.32882001996040344
0.07478243112564087,0.016968585550785065,-0.02687246911227703,0.14938566088676453,-0.03659290820360184,-0.32882001996040344
0.06901655346155167,0.01835327036678791,-0.025362182408571243,0.1501888781785965,-0.03510504961013794,-0.32882001996040344
0.06434311717748642,0.03227681294083595,-0.012140514329075813,0.15010499954223633,-0.029860088601708412,-0.32882001996040344
0.07199309021234512,0.026232102885842323,-0.01716388203203678,0.1464398205280304,-0.029787326231598854,-0.32882001996040344
0.08395769447088242,0.03605332970619202,-0.00667150691151619,0.15041784942150116,-0.01987508498132229,-0.32882001996040344
0.07978492975234985,0.027934618294239044,-0.015379591844975948,0.15269620716571808,-0.028828222304582596,-0.32882001996040344
0.07693083584308624,0.024427827447652817,-0.01879105344414711,0.15536805987358093,-0.03301701322197914,-0.32882001996040344
0.06838663667440414,0.018274057656526566,-0.025046180933713913,0.1467093527317047,-0.03848554193973541,-0.32882001996040344
0.06759686768054962,0.01573645882308483,-0.027495071291923523,0.1482667773962021,-0.040198080241680145,-0.32882001996040344
0.06699535995721817,0.015541826374828815,-0.02770964428782463,0.14863812923431396,-0.040006063878536224,-0.2888200283050537
0.06721094250679016,0.019038597121834755,-0.024450110271573067,0.1485135555267334,-0.036113254725933075,-0.1352200210094452
0.07144568860530853,0.02677084691822529,-0.016971422359347343,0.14500078558921814,-0.027983330190181732,0.0
0.07642009854316711,0.03149920329451561,-0.012225261889398098,0.14267516136169434,-0.02328403852880001,-0.010379980318248272
0.07885663211345673,0.029152246192097664,-0.014589528553187847,0.14594022929668427,-0.017226707190275192,0.0
0.06243811547756195,0.015624482184648514,-0.02988974004983902,0.15873461961746216,-0.019654514268040657,-0.002420020056888461
0.0727313980460167,0.024905944243073463,-0.01884000189602375,0.15099309384822845,-0.02424130216240883,0.0024845232255756855
0.06444884836673737,0.015531223267316818,-0.028207633644342422,0.1578926146030426,-0.022367533296346664,-0.0017087719170376658
0.06641019880771637,0.010555246844887733,-0.026792015880346298,0.16027991473674774,-0.0225827693939209,-0.0005285110673867166
0.06290790438652039,0.007997707463800907,-0.0302667748183012,0.15798038244247437,-0.017761915922164917,-0.00058799545513466
0.06863763928413391,0.007045341655611992,-0.02604038454592228,0.15525951981544495,-0.008328546769917011,0.0006119266618043184
0.07126763463020325,0.01417552400380373,-0.024687781929969788,0.1528593748807907,-0.010916508734226227,-0.00025928570539690554
0.077015221118927,0.017843037843704224,-0.018973417580127716,0.15317361056804657,-0.004527531564235687,0.00010238965478492901
0.074762724339962,0.022553106769919395,-0.020500991493463516,0.1511344611644745,-0.002600498730316758,7.16119902790524e-05
0.05725957453250885,0.00878407247364521,-0.037713032215833664,0.1630353331565857,-0.01855671964585781,-0.00012267597776371986
0.06444884836673737,0.014126002788543701,-0.03060727007687092,0.15639393031597137,-0.012027101591229439,-4.840891961066518e-06
0.06026006117463112,0.009806076064705849,-0.03481252118945122,0.16023072600364685,-0.01623275689780712,1.2911949852423277e-05
0.0643528401851654,0.01417552400380373,-0.030688490718603134,0.1602811962366104,-0.012027578428387642,-3.2156256111193215e-06
0.06863763928413391,0.01762857660651207,-0.02639836072921753,0.16042040288448334,-0.010179221630096436,-8.172560228558723e-06
0.062497057020664215,0.01131674274802208,-0.035997990518808365,0.16095025837421417,-0.011159700341522694,-2.0581845092237927e-05
0.09155647456645966,0.022861933335661888,-0.007214769721031189,0.15959130227565765,-0.013389094732701778,2.252320700790733e-05
0.06359246373176575,0.008485887199640274,-0.03455890342593193,0.1606852263212204,-0.01740521565079689,-9.882483936962672e-06
0.07536081969738007,0.016393428668379784,-0.02221863344311714,0.1603178083896637,-0.013012624345719814,9.744769613462267e-07
0.08798275887966156,0.028184907510876656,-0.008276333101093769,0.16931001842021942,-0.0029791078995913267,6.681631020910572e-06
0.07346517592668533,0.015929769724607468,-0.022747965529561043,0.15215091407299042,-0.013381050899624825,4.5231240619614255e-07
0.06031040847301483,0.004479981958866119,-0.03479595482349396,0.1386754959821701,-0.01638280786573887,-6.711019295835285e-07
0.06553314626216888,0.0086303586140275,-0.030276449397206306,0.14451205730438232,-0.017763452604413033,2.3312463071079037e-09
0.06104578077793121,0.01167681161314249,-0.03471452742815018,0.14749367535114288,-0.01737390086054802,-7.863015838438514e-08
0.05803433805704117,0.01674487441778183,-0.03263997659087181,0.15288960933685303,-0.014270964078605175,-1.7423229081714453e-08
0.049609892070293427,0.026380758732557297,-0.019123656675219536,0.14901693165302277,-0.0022932514548301697,9.207024476154402e-09
0.05875241011381149,0.02342381328344345,-0.024199768900871277,0.15530414879322052,-0.01159918773919344,-6.378175765320293e-09
0.06230361387133598,0.02006746083498001,-0.017400581389665604,0.16025471687316895,-0.014332973398268223,3.3975600111091353e-09
0.0721030905842781,0.013475573621690273,-0.025983210653066635,0.1692599505186081,-0.023838113993406296,4.723998969780041e-11
0.06351211667060852,0.013624311424791813,-0.02612568810582161,0.16756615042686462,-0.022087814286351204,9.51627665557453e-10
0.05343704670667648,0.0025641571264714003,-0.03729887306690216,0.16234202682971954,-0.030263464897871017,-1.0987877274715174e-09
0.05696585401892662,0.010304887779057026,-0.028703322634100914,0.1623755246400833,-0.021269923076033592,2.9620750296999176e-10
0.04977816715836525,0.013811234384775162,-0.030937278643250465,0.15665453672409058,-0.020048273727297783,-3.8247183198336643e-10
0.05620558559894562,0.01642967388033867,-0.03034760057926178,0.15961091220378876,-0.021832766011357307,-2.308708779708013e-10
0.06312695890665054,0.025124667212367058,-0.01860874705016613,0.15276364982128143,-0.009659755043685436,2.668421039686564e-10
0.06427837908267975,0.01586279273033142,-0.014974934048950672,0.1669522225856781,-0.018131177872419357,-5.427325255880078e-10
0.06756175309419632,0.017796266824007034,-0.022351743653416634,0.15940597653388977,-0.013424105010926723,5.5011550870176507e-11
0.06296756118535995,0.01056156400591135,-0.03123706579208374,0.16472119092941284,-0.019410816952586174,1.723066134218243e-10
0.05690702795982361,0.006335200741887093,-0.034686461091041565,0.16676175594329834,-0.01636134274303913,9.048317650695026e-12
0.05072278156876564,0.008802710101008415,-0.03401384502649307,0.15634362399578094,-0.01216396875679493,-2.537969834293108e-10
0.050826482474803925,0.01957690715789795,-0.025593440979719162,0.14832720160484314,-0.016831370070576668,3.3134606169937797e-10
0.05422058328986168,0.01598508097231388,-0.028211085125803947,0.15038380026817322,-0.01015316043049097,-8.182343691487404e-11
0.057085152715444565,0.022763678804039955,-0.022821849212050438,0.15284258127212524,-0.01219161506742239,9.992007221626409e-11
0.06629601120948792,0.011466055177152157,-0.03273458033800125,0.15679709613323212,-0.014986898750066757,-1.1063372440389685e-10
0.060870539397001266,0.013390899635851383,-0.02397272363305092,0.1622486263513565,-0.018919125199317932,-1.787459069646502e-11
0.05505711957812309,0.010989300906658173,-0.026775479316711426,0.164620041847229,-0.02199183590710163,1.2490009027033011e-11
0.05086832493543625,0.013748751021921635,-0.02462383359670639,0.16118891537189484,-0.018671538680791855,2.831068712794149e-12
0.04643956199288368,0.018389374017715454,-0.026314793154597282,0.15631093084812164,-0.013771467842161655,-3.2751579226442118e-12
0.044027671217918396,0.022763678804039955,-0.026732752099633217,0.15203766524791718,-0.009457062929868698,-2.942091015256665e-12
0.04958704859018326,0.02837248332798481,-0.023005560040473938,0.15098118782043457,-0.005034875124692917,4.6629367034256575e-12
0.04948126897215843,0.019856231287121773,-0.02812895178794861,0.1575869470834732,-0.014664816670119762,-2.942091015256665e-12
0.06146150454878807,0.014646194875240326,-0.029676832258701324,0.16557006537914276,-0.01882750540971756,2.55351295663786e-12
0.0537758395075798,0.01191873662173748,-0.03272244334220886,0.16627943515777588,-0.021072840318083763,1.6653345369377348e-13
0.059024203568696976,0.006216237787157297,-0.02774898149073124,0.1707269251346588,-0.024979546666145325,6.106226635438361e-13
0.052155230194330215,0.013855966739356518,-0.028745034709572792,0.164159893989563,-0.01880536414682865,3.3306690738754696e-13
0.0502028726041317,0.013003464788198471,-0.021225150674581528,0.1636790633201599,-0.01817106455564499,2.220446049250313e-13
0.043777648359537125,0.0167216956615448,-0.014803300611674786,0.15915919840335846,-0.013744025491178036,-1.1102230246251565e-13
0.04979079216718674,0.016819259151816368,-0.022542081773281097,0.15968424081802368,-0.015463416464626789,1.6653345369377348e-13
0.047177691012620926,0.022673258557915688,-0.027766739949584007,0.15451468527317047,-0.011701500043272972,1.1102230246251565e-13
0.04996559023857117,0.018484465777873993,-0.02684706449508667,0.15838053822517395,-0.014897618442773819,1.1102230246251565e-13
0.046916764229536057,0.013829578645527363,-0.032422251999378204,0.16318850219249725,-0.020235709846019745,0.0
0.052215587347745895,0.009917336516082287,-0.027366042137145996,0.16710497438907623,-0.02411876805126667,5.551115123125783e-14
0.04561416432261467,0.012978944927453995,-0.030605817213654518,0.1629578173160553,-0.019222265109419823,0.0
0.04890798032283783,0.010214060544967651,-0.023624612018465996,0.16423408687114716,-0.01972906105220318,0.0
0.044757358729839325,0.014902742579579353,-0.02357688546180725,0.1602039337158203,-0.016051113605499268,0.0
0.05729668214917183,0.02650422789156437,-0.01179160550236702,0.1601412147283554,-0.004652367439121008,0.0
0.03933731094002724,0.02043757401406765,-0.028103873133659363,0.15474429726600647,-0.01048670057207346,0.0
0.049439337104558945,0.019714824855327606,-0.02503824047744274,0.16008257865905762,-0.011299111880362034,0.0
0.03637968748807907,0.009259257465600967,-0.037333108484745026,0.1685168743133545,-0.021699538454413414,0.0
0.049439337104558945,0.012909050099551678,-0.02598106674849987,0.16647568345069885,-0.018091268837451935,0.0
0.04622921720147133,0.00652516121044755,-0.030344616621732712,0.16869919002056122,-0.024477750062942505,0.0
0.050787974148988724,0.012941197492182255,-0.025170009583234787,0.16436584293842316,-0.018059642985463142,0.0
0.0452505499124527,0.012392712756991386,-0.027034541592001915,0.16336371004581451,-0.018608858808875084,0.0
0.05010315403342247,0.021920671686530113,-0.01818653754889965,0.1545451283454895,-0.009078669361770153,0.0
0.04278485104441643,0.021650679409503937,-0.02648518793284893,0.15361471474170685,-0.011942271143198013,0.0
0.03892197832465172,0.02746911533176899,-0.027762485668063164,0.15373480319976807,-0.011511512100696564,0.0
0.03919140622019768,0.021525101736187935,-0.027720309793949127,0.1601770520210266,-0.01565200462937355,0.0
0.04351944103837013,0.020564159378409386,-0.03106851316988468,0.1621166467666626,-0.018074648454785347,0.0
0.04937897250056267,0.0162058025598526,-0.03490458428859711,0.1685546338558197,-0.02358963154256344,0.0
0.04904859885573387,0.015057913027703762,-0.029331550002098083,0.1682901233434677,-0.023793820291757584,0.0
0.05059729889035225,0.00652516121044755,-0.024325741454958916,0.17398272454738617,-0.026192542165517807,0.0
0.0457649901509285,0.00861253309994936,-0.01945107989013195,0.17082391679286957,-0.021127302199602127,0.0
0.040766701102256775,0.014902742579579353,-0.020652620121836662,0.16506563127040863,-0.015889009460806847,0.0
0.03714617341756821,0.0190915334969759,-0.02283085510134697,0.16108226776123047,-0.012523798272013664,0.0
0.03703497722744942,0.0221405029296875,-0.027204390615224838,0.15797361731529236,-0.008957386016845703,0.0
0.03855782002210617,0.020680217072367668,-0.031393181532621384,0.15962542593479156,-0.011028413660824299,0.0
0.0434049628674984,0.015238835476338863,-0.03504330292344093,0.16519176959991455,-0.01693851128220558,0.0
0.048121023923158646,0.010713950730860233,-0.028268378227949142,0.16955456137657166,-0.020919525995850563,0.0
0.05238388106226921,0.006307646632194519,-0.025732671841979027,0.17395292222499847,-0.02531609497964382,0.0
0.047903891652822495,0.010965890251100063,-0.026379726827144623,0.16925744712352753,-0.02051803283393383,0.0
0.04493381455540657,0.013628523796796799,-0.021426279097795486,0.16669641435146332,-0.01821710914373398,0.0
0.03923247009515762,0.01925474964082241,-0.019313693046569824,0.16111686825752258,-0.012749721296131611,0.0
0.037391576915979385,0.021217189729213715,-0.023668114095926285,0.1591019332408905,-0.01060452125966549,0.0
0.031148729845881462,0.021825207397341728,-0.02887268364429474,0.15400633215904236,-0.008909199386835098,0.0
0.038460295647382736,0.015012547373771667,-0.030631735920906067,0.16129723191261292,-0.01591966114938259,0.0
0.04007064923644066,0.010823756456375122,-0.033235616981983185,0.16347385942935944,-0.019662750884890556,0.0
0.041534315794706345,0.006634965538978577,-0.03516017645597458,0.16551311314105988,-0.02335176058113575,0.0
0.05252666398882866,0.008770663291215897,-0.022102979943156242,0.1661425679922104,-0.021604815497994423,0.0
0.043203841894865036,0.014516880735754967,-0.02401789091527462,0.1570952832698822,-0.013501981273293495,0.0
0.04434703662991524,0.01642489619553089,-0.01684870757162571,0.1580684781074524,-0.01390906609594822,0.0
0.03799645975232124,0.02339012920856476,-0.024077998474240303,0.15096209943294525,-0.006944308057427406,0.0
0.032665517181158066,0.014988312497735023,-0.024965422227978706,0.14509834349155426,-0.016424471512436867,0.0
0.02218148671090603,0.01890176348388195,-0.04032424837350845,0.1344899982213974,-0.003079721238464117,0.0
0.03236042335629463,0.011125383898615837,-0.03280805051326752,0.14755676686763763,-0.01583457551896572,0.0
0.03673718497157097,0.006634965538978577,-0.029243282973766327,0.15277865529060364,-0.01802021451294422,0.0
0.027799280360341072,0.014446800574660301,-0.0388377420604229,0.14484301209449768,-0.022156447172164917,0.0
0.05560166761279106,-0.002011997392401099,-0.01027989387512207,0.15938858687877655,-0.007645024918019772,0.0
0.040116917341947556,0.010154901072382927,-0.018191130831837654,0.14955870807170868,-0.010319750756025314,0.0
0.043852634727954865,0.01462660450488329,-0.012659917585551739,0.15293128788471222,-0.004481067880988121,0.0
0.03505461663007736,0.02578946389257908,-0.025350315496325493,0.143374964594841,0.008955152705311775,0.0
0.034482672810554504,0.019502246752381325,-0.02263166382908821,0.1434057503938675,-0.0020545648876577616,0.0
0.033844444900751114,0.015069698914885521,-0.02305583469569683,0.1441870629787445,-0.007619710173457861,0.0
0.022639350965619087,0.010727589018642902,-0.03592143952846527,0.15119856595993042,-0.009404856711626053,0.0
0.024271385744214058,0.005970465950667858,-0.03128835931420326,0.15158186852931976,-0.01539696753025055,0.0
0.02669205516576767,0.0025535537861287594,-0.027099570259451866,0.15351054072380066,-0.016870416700839996,0.0
0.030863279476761818,0.00320086139254272,-0.020168863236904144,0.16193538904190063,-0.009734013117849827,0.0
0.034795764833688736,0.010880907066166401,-0.017768876627087593,0.15825754404067993,-0.0041263168677687645,0.0
0.04354625940322876,0.021230565384030342,-0.010255995206534863,0.1436508297920227,0.0026219382416456938,0.0
0.03572206199169159,0.01786934584379196,-0.018721988424658775,0.1491599678993225,0.0016796932322904468,0.0
0.03177491948008537,0.014270590618252754,-0.02291077934205532,0.14451703429222107,-0.002586526796221733,0.0
0.034429676830768585,0.016020463779568672,-0.01991436444222927,0.15040628612041473,-0.00038148192106746137,0.0
0.02350022830069065,0.006684289313852787,-0.03128835931420326,0.1538511961698532,-0.009817125275731087,0.0
0.023316316306591034,0.001076936605386436,-0.030785614624619484,0.15878385305404663,-0.015370947308838367,0.0
0.019139932468533516,-0.008851292543113232,-0.03396684676408768,0.17114856839179993,-0.019080709666013718,0.0
0.025166327133774757,0.0022141803056001663,-0.02880013920366764,0.1581583172082901,-0.013108715415000916,0.0
0.030701417475938797,0.005551318172365427,-0.02291077934205532,0.15567195415496826,-0.008153967559337616,0.0
0.03678816184401512,0.011336679570376873,-0.016794878989458084,0.149780735373497,-0.002713385270908475,0.0
0.04535147547721863,0.02309183031320572,-0.008756031282246113,0.1398477703332901,0.006400780286639929,0.0
0.03465510532259941,0.01574999839067459,-0.019607998430728912,0.14611190557479858,0.001619974966160953,0.0
0.03087381087243557,0.01497203391045332,-0.021982718259096146,0.1463332176208496,-0.0001626039738766849,0.0
0.025482293218374252,0.010821223258972168,-0.027244117110967636,0.15059146285057068,-0.004301236942410469,0.0
0.02237601950764656,0.006703214254230261,-0.030362781137228012,0.15478023886680603,-0.008189509622752666,0.0
0.027678385376930237,0.0025708009488880634,-0.024990225210785866,0.15888099372386932,-0.012390272691845894,0.0
0.03020164929330349,0.0035126511938869953,-0.022478396072983742,0.16315782070159912,-0.00934501551091671,0.0
0.03435291349887848,0.008849197067320347,-0.018334675580263138,0.1578121781349182,-0.00401269132271409,0.0
0.03818977624177933,0.012724651023745537,-0.014501271769404411,0.1547144502401352,0.00017609924543648958,0.0
0.02999832294881344,0.0170596931129694,-0.020784733816981316,0.15001612901687622,0.004364890046417713,0.0
0.028608769178390503,0.012705673463642597,-0.022608119994401932,0.1436293125152588,0.004716068971902132,0.0
0.02632068656384945,0.0049934969283640385,-0.02571874111890793,0.1431749165058136,-0.0006983295315876603,0.0
0.024175308644771576,0.0029058249201625586,-0.030223509296774864,0.15137627720832825,-0.006198884919285774,0.0
0.02592892199754715,-0.0004206197627354413,-0.025589719414711,0.15771672129631042,-0.01029199454933405,0.0
0.02899502031505108,0.004394412040710449,-0.02330726943910122,0.15541912615299225,-0.004887120332568884,0.0
0.03435911610722542,0.009077816270291805,-0.017212137579917908,0.15254729986190796,6.370187475113198e-05,0.0
0.03829765319824219,0.012595067732036114,-0.013240979053080082,0.14800824224948883,0.0033649092074483633,0.0
0.04061806574463844,0.01708449423313141,-0.010088352486491203,0.1427292376756668,0.00767925102263689,0.0
0.03008929081261158,0.010741256177425385,-0.019814612343907356,0.14717496931552887,0.0015449945349246264,0.0
0.024986570701003075,0.008957146666944027,-0.022128690034151077,0.1497972309589386,-0.00032275562989525497,0.0
0.021444883197546005,0.004852311220020056,-0.027643606066703796,0.15370923280715942,-0.004401787184178829,0.0
0.016932155936956406,0.00013930199202150106,-0.031256645917892456,0.1574840098619461,-0.008549935184419155,0.0
0.02278275042772293,0.004193376284092665,-0.020697100088000298,0.15917254984378815,-0.0012000682763755322,0.0
0.02810796909034252,0.008635706268250942,-0.014282098971307278,0.1567038595676422,0.00531488424167037,0.0
0.03133194148540497,0.01348224189132452,-0.013787778094410896,0.14767774939537048,0.006833319086581469,0.0
0.034278083592653275,0.01535105612128973,-0.017336087301373482,0.14845432341098785,0.009644366800785065,0.0
0.029841840267181396,0.010600212961435318,-0.026449771597981453,0.15245762467384338,0.00540180504322052,0.0
0.025900499895215034,0.007446131203323603,-0.02205333486199379,0.15516029298305511,0.0014125946909189224,0.0
0.02569473348557949,0.006584787741303444,-0.02907468192279339,0.15648548305034637,0.0008190574590116739,0.0
0.0177895687520504,-0.0008321485947817564,-0.02283242903649807,0.1581796258687973,-0.006663711741566658,0.0
0.023613467812538147,0.004105180036276579,-0.02309194579720497,0.15502649545669556,-0.0010231526102870703,0.0
0.030463436618447304,0.010936159640550613,-0.016508309170603752,0.14932669699192047,0.00580793060362339,0.0
0.030914193019270897,0.011264447122812271,-0.009512685239315033,0.14768607914447784,0.006370150484144688,0.0
0.03477175906300545,0.01942705735564232,-0.015080508776009083,0.14543932676315308,0.012452018447220325,0.0
0.030940888449549675,0.012482762336730957,-0.012884948402643204,0.14786691963672638,0.007102258037775755,0.0
0.030403869226574898,0.01479001808911562,-0.022427424788475037,0.1494790017604828,0.007950630970299244,0.0
0.011593843810260296,-0.008034921251237392,-0.03195785731077194,0.16693554818630219,-0.012838315218687057,0.0
0.01666034199297428,-8.360966603504494e-05,-0.03154749795794487,0.1594219207763672,-0.006403221748769283,0.0
0.012369358912110329,-0.003069333964958787,-0.02410363219678402,0.16219884157180786,-0.010363239794969559,0.0
0.016558149829506874,0.0011435722699388862,-0.02702750265598297,0.15812993049621582,-0.005840018391609192,0.0
0.022019291296601295,0.004786306526511908,-0.019269300624728203,0.1544007956981659,-0.0012897276319563389,0.0
0.024182045832276344,0.006299596279859543,-0.015080508776009083,0.15283562242984772,0.000547625299077481,0.0
0.029154090210795403,0.012482762336730957,-0.010441056452691555,0.1466822475194931,0.006126220803707838,0.0
0.030957860872149467,0.009710737504065037,-0.015080508776009083,0.14938396215438843,0.007717149332165718,0.0
0.02570030651986599,0.004892235156148672,-0.019753461703658104,0.14620020985603333,0.002772861160337925,0.0
0.02596711739897728,0.004378509242087603,-0.021014200523495674,0.15220564603805542,0.0028192836325615644,0.0
0.0204953383654356,-0.0015973476693034172,-0.027646880596876144,0.15134482085704803,-0.0025697702076286077,0.0
0.020243803039193153,0.0029509281739592552,-0.022896356880664825,0.15131449699401855,0.0018473222153261304,0.0
0.021808747202157974,0.007074834778904915,-0.019215984269976616,0.14536692202091217,0.006457949988543987,0.0
0.025092044845223427,0.01078885793685913,-0.015080508776009083,0.1450665295124054,0.009773011319339275,0.0
0.03145769611001015,0.018568074330687523,-0.008642766624689102,0.1479497104883194,0.01237774919718504,0.0
0.026377467438578606,0.011002285405993462,-0.015364344231784344,0.14703869819641113,0.009041604585945606,0.0
0.024392815306782722,0.007424112409353256,-0.02096843346953392,0.15548960864543915,0.00172083405777812,0.0
0.02016385644674301,0.0026247042696923018,-0.025496261194348335,0.15944470465183258,-0.002571810968220234,0.0
0.015822218731045723,-0.0013546672416850924,-0.02979351207613945,0.15674017369747162,-0.006940978579223156,0.0
0.016658330336213112,0.0025758075062185526,-0.026063278317451477,0.1567271202802658,-0.0033744906540960073,0.0
0.024434352293610573,0.005980091169476509,-0.021456923335790634,0.15046988427639008,0.001367369550280273,0.0
0.028720244765281677,0.00981838908046484,-0.01726250909268856,0.14712804555892944,0.005625392775982618,0.0
0.032499413937330246,0.0144059918820858,-0.013278636150062084,0.14747855067253113,0.009517265483736992,0.0
0.028574232012033463,0.010217200964689255,-0.017241058871150017,0.14484433829784393,0.009256760589778423,0.0
0.030381960794329643,0.012351163662970066,-0.015378437004983425,0.1500110924243927,0.007369969040155411,0.0
0.014581981115043163,-0.0013685952872037888,-0.031295862048864365,0.1590236872434616,-0.005680463742464781,0.0
0.021631963551044464,0.003251810558140278,-0.02731764130294323,0.15803198516368866,-0.0009907082421705127,0.0
0.007260527927428484,-0.010783561505377293,-0.035867005586624146,0.15635479986667633,-0.007654043845832348,0.0
0.01606336236000061,-0.0023491699248552322,-0.028011485934257507,0.15282775461673737,-0.0015986972721293569,0.0
0.019738661125302315,0.0013260234845802188,-0.023568011820316315,0.14774058759212494,0.0026981632690876722,0.0
0.024434605613350868,0.006028410978615284,-0.019247867166996002,0.1441008597612381,0.006885195150971413,0.0
0.028408393263816833,0.009998858906328678,-0.014751267619431019,0.1421542912721634,0.011386698111891747,0.0
0.03220487758517265,0.0144059918820858,-0.010805758647620678,0.13932231068611145,0.01537309680134058,0.0
0.028863558545708656,0.013371556997299194,-0.011623281985521317,0.14975720643997192,0.012566219083964825,0.0
0.022921543568372726,0.006028410978615284,-0.018809724599123,0.1520160436630249,0.006306847091764212,0.0
0.020015697926282883,0.004436277784407139,-0.020599260926246643,0.15813475847244263,0.0036592513788491488,0.0
0.013245988637208939,-0.0023491699248552322,-0.027430156245827675,0.16289938986301422,-0.0031507862731814384,0.0
0.0145035395398736,-0.0023340843617916107,-0.02724388986825943,0.15521517395973206,-0.002149561420083046,0.0
0.018075497820973396,0.004862802103161812,-0.022818945348262787,0.1568802446126938,0.0016283714212477207,0.0
0.027584809809923172,0.011491079814732075,-0.013500027358531952,0.14683759212493896,0.01110167521983385,0.0
0.01934089884161949,0.0038972694892436266,-0.02118460275232792,0.15508271753787994,0.002990946639329195,0.0
0.03593597933650017,0.013254458084702492,-0.011528067290782928,0.14150594174861908,0.017271295189857483,0.0
0.03190401941537857,0.005161320324987173,-0.019601574167609215,0.15020322799682617,0.009854568168520927,0.0
0.03225003927946091,0.009706269018352032,-0.015475603751838207,0.14584645628929138,0.013781645335257053,0.0
0.0261517520993948,0.00029676867416128516,-0.024579549208283424,0.15513302385807037,0.0049567143432796,0.0
0.025792697444558144,0.009706269018352032,-0.019094698131084442,0.1458713710308075,0.009975197724997997,0.0
0.014350445941090584,-0.0006136794108897448,-0.02971753664314747,0.15546894073486328,-0.0004067069967277348,0.0
0.015089773572981358,0.009706269018352032,-0.020028794184327126,0.1455448567867279,0.009103236719965935,0.0
0.009845997206866741,0.007861197926104069,-0.021014079451560974,0.14744777977466583,0.0064673698507249355,0.0
0.013585381209850311,0.010594978928565979,-0.018569080159068108,0.14466547966003418,0.009626145474612713,0.0
0.01589975319802761,0.005467569921165705,-0.021923014894127846,0.1519775539636612,0.0020895516499876976,0.0
0.021962963044643402,0.002089281100779772,-0.016741931438446045,0.15311796963214874,0.0012158488389104605,0.0
0.02132403664290905,0.0005052281194366515,-0.021921072155237198,0.1547534465789795,-0.0005512738134711981,0.0
0.030340544879436493,0.003443802008405328,-0.014088203199207783,0.15114077925682068,0.003201681189239025,0.0
0.023792434483766556,0.0043814899399876595,-0.019451992586255074,0.1505149006843567,0.003759263316169381,0.0
0.024017363786697388,0.009084075689315796,-0.011612321250140667,0.1455296277999878,0.008799728006124496,0.0
0.020219596102833748,0.00924199540168047,-0.019451992586255074,0.1446499526500702,0.009646963328123093,0.0
0.006686776410788298,0.005861171055585146,-0.012494401074945927,0.1370949149131775,0.016495555639266968,0.0
0.008854144252836704,0.004066941794008017,-0.022011207416653633,0.14440466463565826,0.009551538154482841,0.0
0.013585381209850311,-0.00017999812553171068,-0.01959322765469551,0.14769470691680908,0.006197439972311258,0.0
0.017182542011141777,-0.0038544288836419582,-0.025823932141065598,0.15302488207817078,0.000976601499132812,0.0
0.020012266933918,-0.0011332951253280044,-0.0197198074311018,0.15507659316062927,0.005401993170380592,0.0
0.0261517520993948,0.002094727475196123,-0.014293617568910122,0.155543714761734,0.009366334415972233,0.0
0.02675125189125538,0.0054233926348388195,-0.013110281899571419,0.14883610606193542,0.011834322474896908,0.0
0.02839442901313305,0.011356043629348278,-0.01082703098654747,0.14192147552967072,0.017301538959145546,0.0
0.022230256348848343,0.006512914318591356,-0.01958485320210457,0.14429503679275513,0.011837789788842201,0.0
0.019857067614793777,0.007527498062700033,-0.018636520951986313,0.13895340263843536,0.0132707254961133,0.0
0.01274790707975626,0.005962694995105267,-0.024474531412124634,0.1383219063282013,0.011693976819515228,0.0
0.0050883181393146515,-0.0014074034988880157,-0.0269253458827734,0.14733096957206726,0.004102841950953007,0.0
0.009269117377698421,-0.0067071164958179,-0.019734319299459457,0.15412545204162598,-0.0011902671540156007,0.0
0.016194399446249008,-0.00643516331911087,-0.01462803315371275,0.15650412440299988,-0.0009631772991269827,0.0
0.01829235814511776,-0.0006149937398731709,-0.012530594132840633,0.1503104716539383,0.004835045896470547,0.0
0.024571983143687248,0.004551074467599392,-0.007328375708311796,0.1463506519794464,0.00996058713644743,0.0
0.027455724775791168,0.008186889812350273,-0.011356736533343792,0.14277870953083038,0.013606065884232521,0.0
0.020542820915579796,0.011119497939944267,-0.014049151912331581,0.1397567093372345,0.016529029235243797,0.0
0.021830826997756958,0.004269253462553024,-0.023008601740002632,0.13886666297912598,0.009692653082311153,0.0
0.006792847067117691,0.0028421152383089066,-0.02798234298825264,0.1464407742023468,0.008255024440586567,0.0
0.01654057577252388,-0.001849406398832798,-0.028167571872472763,0.14468877017498016,0.0010444576619192958,0.0
0.006032073870301247,0.0047416891902685165,-0.02516280859708786,0.1447509080171585,0.010159068740904331,0.0
0.00454355776309967,0.010263907723128796,-0.018500376492738724,0.15036503970623016,0.013876945711672306,0.0
0.020421303808689117,0.012252225540578365,-0.01473519392311573,0.1416058987379074,0.015623779967427254,0.0
0.017618030309677124,0.007711057551205158,-0.011862377636134624,0.15036503970623016,0.010915203019976616,0.0
0.02278723753988743,0.005730395670980215,-0.016357431188225746,0.1507548838853836,0.008970553986728191,0.0
0.020739303901791573,-0.0008717531454749405,-0.020214522257447243,0.15791931748390198,0.0022660933900624514,0.0
0.022971205413341522,-0.0013322404120117426,-0.021316634491086006,0.15373052656650543,0.004964123480021954,0.0
0.0061842636205255985,-0.012081638909876347,-0.0384969487786293,0.13223442435264587,0.019794350489974022,0.0
0.01496861968189478,0.001481706858612597,-0.02037261612713337,0.14501196146011353,0.012724600732326508,0.0
0.010090638883411884,0.009876539930701256,-0.014278773218393326,0.14043711125850677,0.018027445301413536,0.0
0.023684484884142876,0.011007349006831646,-0.011975905857980251,0.14196999371051788,0.029033251106739044,0.0
0.0197959765791893,0.008755248971283436,-0.012201064266264439,0.14356286823749542,0.01656268909573555,0.0
0.022382764145731926,0.0037557671312242746,-0.016718892380595207,0.1481775939464569,0.009555548429489136,0.0
0.020238837227225304,7.748673669993877e-05,-0.020907683297991753,0.1521005481481552,0.00798109918832779,0.0
0.015524332411587238,-0.004290712997317314,-0.025404982268810272,0.1534210443496704,0.004146759398281574,0.0
0.010482117533683777,-0.00043825109605677426,-0.02146705612540245,0.14863741397857666,0.0076471720822155476,0.0
0.006952151656150818,0.0042298766784369946,-0.016718892380595207,0.14372563362121582,0.011985322460532188,0.0
0.015793439000844955,0.00928475707769394,-0.011737324297428131,0.13955499231815338,0.017342159524559975,0.0
0.0199822299182415,0.012086549773812294,-0.0093265101313591,0.1392042338848114,0.019666390493512154,0.0
0.02807738073170185,0.012576810084283352,-0.009776018559932709,0.14437934756278992,0.018725235015153885,0.0
0.014423999935388565,-0.005513602402061224,-0.027866968885064125,0.15517336130142212,0.001216844655573368,0.0
0.018382837995886803,0.0001169876049971208,-0.02149362303316593,0.15229947865009308,0.007314107846468687,0.0
0.013102672062814236,-0.0008602602174505591,-0.02304651029407978,0.1466999351978302,0.005546800326555967,0.0
0.017291463911533356,0.002659969264641404,-0.01960112527012825,0.1504194736480713,0.008957374840974808,0.0
0.02101922780275345,0.004742586985230446,-0.01667935773730278,0.14045675098896027,0.012206673622131348,0.0
0.022485025227069855,0.00823119841516018,-0.01341211423277855,0.13626794517040253,0.015389894135296345,0.0
0.020948713645339012,0.007520186249166727,-0.01695123128592968,0.1340017318725586,0.017901696264743805,0.0
0.014765885658562183,0.0010395536664873362,-0.024291040375828743,0.13921348750591278,0.013056267984211445,0.0
0.012817589566111565,-0.00104884197935462,-0.02453460358083248,0.14334051311016083,0.008589839562773705,0.0
0.00833092536777258,-0.0055320607498288155,-0.022107893601059914,0.14705142378807068,0.005027505103498697,0.0
0.012564282864332199,-0.0013782609021291137,-0.016085239127278328,0.1447383612394333,0.008410359732806683,0.0
0.015704533085227013,0.0018370612524449825,-0.015792444348335266,0.14003753662109375,0.012206027284264565,0.0
0.02852029725909233,0.014520295895636082,-0.0020368697587400675,0.1304815411567688,0.02356938272714615,0.0
0.023181112483143806,0.009274497628211975,-0.014216144569218159,0.13535523414611816,0.019243312999606133,0.0
0.022254489362239838,0.008372892625629902,-0.01817036047577858,0.13649888336658478,0.01857156679034233,0.0
0.01689782366156578,0.0029945150017738342,-0.023171644657850266,0.1423341929912567,0.012961393222212791,0.0
0.013302449136972427,-0.000612561940215528,-0.02584320493042469,0.14604946970939636,0.012395670637488365,0.0
0.008375492878258228,-0.005528495647013187,-0.02110687457025051,0.15028224885463715,0.004440273158252239,0.0
0.01850438117980957,0.0034810921642929316,-0.014551241882145405,0.1413591355085373,0.013370026834309101,0.0
0.016753073781728745,0.0028463092166930437,-0.01461591012775898,0.14203132688999176,0.012786290608346462,0.0
0.02093873731791973,0.007032837253063917,-0.01016957126557827,0.13783502578735352,0.01698092184960842,0.0
0.016535570845007896,0.002629582304507494,-0.014658242464065552,0.14102308452129364,0.012576666660606861,0.0
0.012553258799016476,0.0037539112381637096,-0.018847033381462097,0.13958598673343658,0.012546254321932793,0.0
0.0053410655818879604,-0.00477796234190464,-0.025985660031437874,0.14981193840503693,0.002589450916275382,0.0
0.010442018508911133,0.0030267832335084677,-0.01960589364171028,0.14050373435020447,0.011928861029446125,0.0
0.009802558459341526,-0.001116449129767716,-0.021442780271172523,0.14460639655590057,0.008002053014934063,0.0
0.016773119568824768,0.0070984563790261745,-0.012596013024449348,0.13649407029151917,0.016459397971630096,0.0
0.02509141154587269,0.0005926055600866675,-0.011204848997294903,0.1443634033203125,0.011554697528481483,0.0
0.025597285479307175,0.0044620768167078495,-0.010922294110059738,0.14017461240291595,0.014833974651992321,0.0
0.020846720784902573,-0.0005239621386863291,-0.01501428335905075,0.14518657326698303,0.009970517829060555,0.0
0.029752956703305244,-0.0011004552943632007,-0.006977380719035864,0.14884935319423676,0.009494747966527939,0.0
0.012469139881432056,-0.0016422020271420479,-0.02270829863846302,0.13734076917171478,0.008770585991442204,0.0
0.009862235747277737,0.00441739521920681,-0.017052382230758667,0.1326604038476944,0.014824018813669682,0.0
0.0063211447559297085,0.00618180213496089,-0.023289106786251068,0.12998075783252716,0.01657455787062645,0.0
0.01133520808070898,0.012794976122677326,-0.01522712130099535,0.1344994306564331,0.02221827208995819,0.0
0.013921655714511871,0.00860618520528078,-0.01813916489481926,0.13759857416152954,0.01805606670677662,0.0
0.019983116537332535,-0.0034567927941679955,-0.013852137140929699,0.14378046989440918,0.006526049226522446,0.0
0.022691968828439713,1.6071418940555304e-05,-0.01804092712700367,0.145980566740036,0.009542581625282764,0.0
0.011975729838013649,-0.009688055142760277,-0.024902144446969032,0.15102116763591766,0.00018897387781180441,0.0
0.015171348117291927,0.0002286043600179255,-0.017593206837773323,0.14477300643920898,0.00934072956442833,0.0
0.008280348032712936,0.008539785631000996,-0.014022248797118664,0.13734419643878937,0.018062222748994827,0.0
0.012469139881432056,0.009557723067700863,-0.011636873707175255,0.13454993069171906,0.019219117239117622,0.0
0.012298348359763622,0.01419154554605484,-0.01571536622941494,0.1292772889137268,0.023754896596074104,0.0
0.01572469249367714,0.007817158475518227,-0.015065114013850689,0.1359858363866806,0.017470406368374825,0.0
0.013256252743303776,0.0064396364614367485,-0.02409294620156288,0.1377703696489334,0.015948748216032982,0.0
0.014158414676785469,0.00046767506864853203,-0.03106778673827648,0.1443634033203125,0.009923849254846573,0.0
0.013234841637313366,-0.0039601861499249935,-0.030078519135713577,0.14866337180137634,0.005532822106033564,0.0
0.017479628324508667,-0.0004858676693402231,-0.02646840177476406,0.14451275765895844,0.00990417692810297,0.0
0.020399760454893112,-0.003683183342218399,-0.018473364412784576,0.14474929869174957,0.009044196456670761,0.0
0.02291419915854931,0.001983223482966423,-0.010060073807835579,0.14036083221435547,0.013257069513201714,0.0
0.01845158077776432,0.0104804253205657,-0.007782929576933384,0.1327579766511917,0.021120844408869743,0.0
0.014262789860367775,0.01143005769699812,-0.010227889753878117,0.13124971091747284,0.02262936718761921,0.0
0.008229795843362808,0.0058511728420853615,-0.019036076962947845,0.12492956221103668,0.012539969757199287,0.0
0.0061231087893247604,0.004570487421005964,-0.019221769645810127,0.13208456337451935,0.013753389939665794,0.0
0.0024364273995161057,0.0004903964581899345,-0.02365889400243759,0.13356289267539978,0.008609759621322155,0.0
-0.0002351409784751013,-0.005568962078541517,-0.026292013004422188,0.14046214520931244,0.0029263885226100683,0.0
0.010093199089169502,-0.00843260157853365,-0.015694160014390945,0.14630930125713348,0.004642437677830458,0.0
0.01871100813150406,-0.00553964963182807,-0.0071340869180858135,0.1469424068927765,0.010316990315914154,0.0
0.01660962775349617,-0.0003568064421415329,-0.009280983358621597,0.13984982669353485,0.012501459568738937,0.0
0.02887861616909504,0.007562690880149603,-0.00934593752026558,0.13547812402248383,0.022779062390327454,0.0
0.01802753284573555,0.008168870583176613,-0.01309883687645197,0.1327369064092636,0.02166372910141945,0.0
0.016665872186422348,0.012728005647659302,-0.0178538728505373,0.1272834837436676,0.021143794059753418,0.0
0.0010452127316966653,0.0028607312124222517,-0.028507670387625694,0.1341330111026764,0.011910141445696354,0.0
0.007501889020204544,0.005117739085108042,-0.023760691285133362,0.13478733599185944,0.014375859871506691,0.0
0.0012723691761493683,0.0032897836063057184,-0.027299614623188972,0.13421982526779175,0.012142110615968704,0.0
0.00201629102230072,0.0012982090702280402,-0.026142103597521782,0.14184829592704773,0.00993529986590147,0.0
0.009649950079619884,-0.00010269643826177344,-0.01989905908703804,0.1487492471933365,0.00921543501317501,0.0
0.014025499112904072,0.0011009455192834139,-0.015660220757126808,0.14964085817337036,0.01038772240281105,0.0
0.01894315704703331,0.005861896555870771,-0.010562467388808727,0.14586074650287628,0.014954822137951851,0.0
0.021911052986979485,0.009770183824002743,-0.016230273991823196,0.14091312885284424,0.018964065238833427,0.0
0.007153784856200218,0.007522153668105602,-0.018976574763655663,0.1327851116657257,0.030134905129671097,0.0
0.01896900311112404,0.005048536695539951,-0.02467862144112587,0.13266617059707642,0.012281340546905994,0.0
0.009649950079619884,0.00228863931261003,-0.026196030899882317,0.1363086849451065,0.015709074214100838,0.0
0.02030884101986885,-0.014699033461511135,-0.013780273497104645,0.1538437008857727,0.00024273863527923822,0.0
0.009344983845949173,0.0019413038389757276,-0.018789032474160194,0.1367243379354477,0.01474890485405922,0.0
0.015106696635484695,0.0022215750068426132,-0.01398994866758585,0.14199675619602203,0.011972117237746716,0.0
0.0002949158661067486,0.022348618134856224,-0.004049887415021658,0.1234109178185463,0.029908712953329086,0.0
0.007390284910798073,0.013672390021383762,-0.009272872470319271,0.05379435420036316,0.0225340835750103,0.0
0.010882634669542313,0.004633231088519096,-0.019498996436595917,-0.015419063158333302,0.01898534968495369,0.0
0.01404312439262867,0.0019308176124468446,-0.02267683669924736,0.0,0.015854349359869957,0.0
0.011747146025300026,-0.0030001529958099127,-0.02274341508746147,-0.001470874180085957,0.010922376066446304,0.0
0.010407447814941406,-0.0017014098120853305,-0.018738355487585068,-9.934686386259273e-05,0.009132041595876217,0.0
0.0012723691761493683,-0.00047746128984726965,-0.01476329006254673,-0.0003395497624296695,0.0036375215277075768,0.0
-0.0012840094277635217,0.0005889223539270461,-0.01035140547901392,0.0005087217432446778,0.0006002307636663318,0.0
-0.007105211727321148,0.005927013233304024,-0.0057507893070578575,0.0002079001860693097,-0.005001008976250887,0.0
-0.011294002644717693,0.009668936021625996,-0.0021766256541013718,-4.2048977775266394e-05,-0.009042131714522839,0.0
-0.014892411418259144,0.009441103786230087,0.002214965643361211,-0.00013704643060918897,-0.013513403944671154,0.0
-0.015663720667362213,0.0011401447700336576,0.006602602079510689,-3.485647903289646e-05,-0.01999950222671032,0.0
-3.069812009925954e-05,-0.002370397327467799,-0.01091655995696783,-3.700148226926103e-05,-0.02106020227074623,0.0
0.0008749050321057439,-0.017712673172354698,-0.007077483925968409,8.23613372631371e-05,-0.035327885299921036,0.0
0.003295010421425104,-0.008668465539813042,-0.00935860350728035,-3.034293513337616e-05,-0.018570901826024055,0.0
-0.0012154052965342999,-0.00849340669810772,-0.004761616699397564,1.2467211490729824e-05,-0.01988873817026615,0.0
-0.005701472517102957,-0.0029158126562833786,-0.0001774966949597001,2.494519776519155e-06,-0.013264496810734272,0.0
-0.010570027865469456,0.0016821750905364752,0.004610884003341198,4.590932803694159e-06,-0.009075705893337727,0.0
-0.012998984195291996,0.004912869539111853,0.007184650748968124,-2.2447522951551946e-06,-0.004886914975941181,0.0
-0.008708331733942032,0.000269339419901371,0.003615964436903596,3.6010233088745736e-06,-0.009966116398572922,0.0
-0.005344617646187544,-0.0010643732966855168,-0.0005728260730393231,1.2869103329649079e-06,-0.00967965368181467,0.0
-0.0011379991192370653,-0.006235855165868998,-0.004744803998619318,7.964573001117969e-07,-0.01557620707899332,0.0
0.003050791099667549,-0.009020065888762474,-0.0077810329385101795,2.1314878040357144e-07,-0.012753256596624851,0.0
3.9070520870154724e-05,-0.006385427433997393,-0.0038663053419440985,3.524787643982563e-07,-0.011995989829301834,0.0
-0.002405153587460518,-0.003389290301129222,-0.0016436525620520115,1.2124451131967362e-07,-0.007239778526127338,0.0
-0.015865329653024673,0.009453491307795048,0.012616676278412342,-2.3625634071322565e-07,0.003950744401663542,0.0
-0.010848716832697392,0.0047702365554869175,0.007130268029868603,-4.3514138070577246e-08,0.00015976422582753003,0.0
-0.009254012256860733,0.0023442343808710575,0.0005481590051203966,2.019639424588604e-07,-0.005015939008444548,0.0
-0.006028406322002411,-0.0006154532311484218,0.001923812204040587,-1.4411611459763662e-07,-0.007239778526127338,0.0
-0.0032614204101264477,-0.003960406873375177,-0.0054361033253371716,-3.7133851549242536e-08,-0.01212365087121725,0.0
0.0008591411169618368,-0.008172946982085705,-0.011198928579688072,7.256539902300574e-08,-0.016697514802217484,0.0
0.005047931335866451,-0.01218385063111782,-0.012752128764986992,9.027139924455696e-08,-0.01940203458070755,0.0
-0.003218477824702859,-0.003997117280960083,-0.003040002891793847,2.4643732388085482e-08,-0.009904772974550724,0.0
-0.004022235982120037,-0.003090103855356574,0.001148787559941411,-5.8374416411766106e-09,-0.0069003333337605,0.0
-0.011066453531384468,0.003904296550899744,0.005337578244507313,3.049127528242934e-08,-0.0016282913275063038,0.0
-0.005463826470077038,0.001778139965608716,0.0011309359688311815,8.917533378394182e-09,-0.005763377994298935,0.0
0.0012262174859642982,0.00011636087583610788,-0.0046141850762069225,-2.9470703211131877e-08,-0.008019084110856056,0.0
-0.001817038981243968,-0.004004410468041897,-0.003273253794759512,2.1848467923746284e-08,-0.010190443135797977,0.0
0.005692295730113983,-0.006907271221280098,-0.008768404833972454,-1.2690238193613368e-08,-0.016810264438390732,0.0
-0.005099845584481955,-0.011419315822422504,-0.0010951218428090215,9.66632285326341e-09,-0.009165938943624496,0.0
-0.0028603114187717438,-0.0037601168733090162,-0.001431998796761036,-2.4448776336782885e-09,-0.009354382753372192,0.0
-0.008188948966562748,0.0039043815340846777,0.0044051711447536945,-3.4143798899322064e-09,-0.003392346203327179,0.0
-0.003515910357236862,0.006828755605965853,0.012768308632075787,3.942846049653781e-09,0.004825296811759472,0.0
-0.006022017914801836,0.005497737322002649,0.011266600340604782,8.715805854819791e-10,0.0010371754178777337,0.0
-0.0026373309083282948,-0.0027507301419973373,-0.0005500123370438814,-8.215650382226158e-12,-0.00843251682817936,0.0
-0.0029113704804331064,-0.0008062471752054989,0.006436849478632212,1.0439427100550347e-09,-0.0014486144063994288,0.0
-0.006376569624990225,-0.011626592837274075,-0.008927593007683754,4.312106227644108e-10,-0.016811629757285118,0.0
-0.006636389065533876,-0.006946643348783255,-0.004338593687862158,3.503863865716994e-10,-0.012222306802868843,0.0
-0.007694300264120102,-0.011856598779559135,-0.008927593007683754,6.323830348264892e-10,-0.016812216490507126,0.0
-0.00043907854706048965,-0.0036724391393363476,0.0012754929484799504,-2.73225886360251e-10,-0.006606309674680233,0.0
-5.370859980757814e-06,-0.005646705161780119,-0.0030173026025295258,3.700373341075647e-10,-0.010901142843067646,0.0
0.002170399995520711,0.0034577692858874798,0.006484067998826504,-2.0816681711721685e-11,-0.001398476306349039,0.0
-0.0005618984578177333,-0.0028623559046536684,-0.0005500123370438814,9.153788838034416e-11,-0.007800208404660225,0.0
-0.002632447052747011,0.0016701552085578442,0.0035873237065970898,3.447242491461111e-11,-0.003403313225135207,0.0
-0.008382951840758324,-0.007474370300769806,-0.005437537096440792,4.6407322429331543e-11,-0.012277024798095226,0.0
-0.020071061328053474,-0.005353241693228483,-0.006129677873104811,-6.039613253960852e-11,-0.007947084493935108,0.0
-0.008373534306883812,-0.008995368145406246,-0.008211670443415642,6.716849298982197e-12,-0.012917676009237766,0.0
-0.00868324562907219,-0.004468146711587906,-0.00429494958370924,-1.6542323066914832e-11,-0.007947084493935108,0.0
4.046431513415882e-06,-0.003740045242011547,0.0012891428777948022,-5.6066262743570405e-12,-0.00684591569006443,0.0
0.00797511637210846,0.000159976800205186,0.009481201879680157,1.0602629885170245e-11,-0.0028575912583619356,0.0
0.0041741193272173405,-0.0037327269092202187,0.0035733510740101337,2.220446049250313e-13,-0.00659904582425952,0.0
0.004244919400662184,-0.004649622831493616,0.0007110098958946764,-8.326672684688674e-13,-0.006780955009162426,0.0
-0.006877683103084564,-0.01602988690137863,-0.012264018878340721,1.4432899320127035e-12,-0.01798582822084427,0.0
1.305509613303002e-05,-0.004404822830110788,-0.004051967523992062,-4.996003610813204e-13,-0.006463098805397749,0.0
-0.008373534306883812,0.004461833741515875,-0.005257222335785627,-3.885780586188048e-13,0.001014131703414023,0.0
-0.007406807038933039,0.005638025235384703,-0.0003267871215939522,2.220446049250313e-13,0.0015453549567610025,0.0
-0.01162082701921463,0.004036919213831425,-0.0013609838206321,-3.3306690738754696e-13,-0.003320555668324232,0.0
-0.004184743855148554,-0.001625069067813456,-0.0009202061337418854,-5.551115123125783e-14,-0.010140151716768742,0.0
-0.0019149669678881764,-0.0034831054508686066,-0.006255261600017548,-1.1102230246251565e-13,-0.010587588883936405,0.0
0.004192837048321962,-0.008402140811085701,-0.010646640323102474,0.0,-0.014609853737056255,0.0
0.011548319831490517,-0.018229752779006958,-0.00398629205301404,5.551115123125783e-14,-0.015218695625662804,0.0
0.0020685680210590363,-0.008062714710831642,-0.0019937949255108833,0.0,-0.008840788155794144,0.0
-0.004331639967858791,-0.0022528027184307575,0.004391288850456476,0.0,-0.0019776574335992336,0.0
-0.0063827428966760635,-0.0003769726608879864,0.00858007837086916,0.0,0.0009424379677511752,0.0
-0.011974284425377846,0.005220120772719383,0.004391288384795189,0.0,0.005766117945313454,0.0
-0.0065961261279881,-0.00011397922207834199,-0.0021837856620550156,0.0,8.120950951706618e-05,0.0
0.0007508231792598963,-0.003748079761862755,-0.0068686227314174175,0.0,-0.007141114678233862,0.0
-0.003619360039010644,-0.007382180541753769,-0.005697065964341164,0.0,-0.0029921368695795536,0.0
0.006257358938455582,-0.013366109691560268,-0.01037379540503025,0.0,-0.012442998588085175,0.0
0.001541188801638782,-0.00825016014277935,0.0007712513324804604,0.0,-0.00786982849240303,0.0
0.0033667506650090218,0.0015131103573367,0.006718390621244907,0.0,0.0017002501990646124,0.0
-0.0018716552294790745,-0.0032165914308279753,0.00605571735650301,0.0,-0.0030387241858989,0.0
-0.013670175336301327,0.007278381381183863,0.0034591942094266415,0.0,0.004702440463006496,0.0
-0.009926537051796913,-0.0004183545825071633,0.0008095926023088396,0.0,-0.0022824828047305346,0.0
-0.009229488670825958,-0.006427166983485222,-0.004760803189128637,0.0,-0.008202662691473961,0.0
-0.004709184635430574,-0.007854195311665535,-0.008949593640863895,0.0,-0.01012282632291317,0.0
0.0010073214070871472,-0.02283649332821369,-0.003407831070944667,0.0,-0.024928081780672073,0.0
0.0015922578750178218,-0.007838726043701172,-0.004054658114910126,0.0,-0.007373214233666658,0.0
0.006075673270970583,-0.008037610910832882,0.000755953777115792,0.0,-0.010130098089575768,0.0
0.0068131922744214535,-0.0004183545825071633,0.006754536647349596,0.0,-0.0025834355037659407,0.0
-0.0023019073996692896,0.0015547489747405052,0.0020731661934405565,0.0,-0.000728902465198189,0.0
-0.0077608805149793625,0.00795922614634037,-0.0003785152512136847,0.0,0.004767983220517635,0.0
-0.009491723962128162,0.0035981114488095045,-0.003236175747588277,0.0,0.00047625103616155684,0.0
0.0002948274777736515,-0.00694497674703598,-0.017118126153945923,0.0,-0.010543414391577244,0.0
-0.0023509226739406586,-0.004221824929118156,-0.012694990262389183,0.0,-0.00755680026486516,0.0
0.011761785484850407,-0.019421664997935295,0.005073943641036749,0.0,-0.022777166217565536,0.0
-0.007458570878952742,0.0005784950917586684,-0.008617515675723553,0.0,-0.0015557456063106656,0.0
-0.003533558454364538,-0.0018418600084260106,-0.0038367428351193666,0.0,-0.005240743048489094,0.0
-0.001254427363164723,0.004099580459296703,0.002128164516761899,0.0,0.0005384350079111755,0.0
0.0024989668745547533,-0.0026415016036480665,0.0007003689534030855,0.0,-0.006128886714577675,0.0
0.0060882568359375,-0.004786543548107147,0.0001778273581294343,0.0,-0.008321705274283886,0.0
-0.0006397584220394492,-0.008162390440702438,-0.004473076667636633,0.0,-0.01167469471693039,0.0
-0.00549393892288208,-0.008268018253147602,-0.010422674007713795,0.0,-0.009241670370101929,0.0
-0.009638400748372078,0.001932235318236053,-0.004444824531674385,0.0,0.0013633857015520334,0.0
-0.009110395796597004,-0.0031242850236594677,-0.016228651627898216,0.0,0.000918965321034193,0.0
-0.005628644954413176,0.0035235448740422726,0.003932756371796131,0.0,0.0009301468380726874,0.0
0.008015183731913567,-0.002801929134875536,-0.00722790602594614,0.0,-0.004164061043411493,0.0
0.0024389319587498903,-0.002260628156363964,0.003932756371796131,0.0,-0.004409865941852331,0.0
0.0074434042908251286,-0.00956262182444334,0.0028652504552155733,0.0,-0.01190377026796341,0.0
-0.002332348609343171,0.00362359918653965,0.0022496269084513187,0.0,0.0019031200790777802,0.0
0.0007157127256505191,-0.005590179935097694,-0.0011362903751432896,0.0,-0.011285143904387951,0.0
-0.005122967064380646,0.0007485875976271927,-0.001005631173029542,0.0,-0.0023196623660624027,0.0
-0.007171731907874346,-0.007169348653405905,-0.009926130063831806,0.0,-0.010030482895672321,0.0
-0.007647255435585976,-0.002688882639631629,-0.0025106382090598345,0.0,-0.005588400177657604,0.0
-0.0014416186604648829,-0.007169348653405905,-0.004835118073970079,0.0,-0.010069609619677067,0.0
0.002366164233535528,-0.002985370345413685,-0.0029066631104797125,0.0,-0.005870372522622347,0.0
0.0034070347901433706,-0.0071675144135952,-0.0019177945796400309,0.0,-0.010059162974357605,0.0
-0.002011822769418359,0.0015341411344707012,0.003878397634252906,0.0,-0.0013514749007299542,0.0
-0.005215358920395374,-0.0065123094245791435,-0.0003230127040296793,0.0,-0.00844980776309967,0.0
-0.006407927256077528,-0.0010759469587355852,0.002009168267250061,0.0,-0.002906535053625703,0.0
-0.0028805932961404324,-0.007747219875454903,-0.002921349136158824,0.0,-0.0091724107041955,0.0
0.006529038306325674,0.010522423312067986,0.006212374195456505,0.0,0.00842978060245514,0.0
0.004107234999537468,-0.005264737643301487,-0.003504071617498994,0.0,-0.006949400994926691,0.0
0.0027873320505023003,-0.0010759469587355852,0.0022718431428074837,0.0,-0.002155040157958865,0.0
0.0014408373972401023,-0.005884764716029167,-0.0035821557976305485,0.0,-0.007529005873948336,0.0
-0.008393782190978527,0.006495230831205845,0.007637830451130867,0.0,0.004866357427090406,0.0
-0.011836660094559193,-0.008806677535176277,-0.008430726826190948,0.0,-0.012470965273678303,0.0
-0.013399695046246052,0.0018978483276441693,0.0008345291716977954,0.0,0.00021568636293523014,0.0
-0.01084331888705492,-0.005176496226340532,-0.0044447556138038635,0.0,-0.006879153195768595,0.0
-0.004749728366732597,-0.004761154297739267,-0.003971182741224766,0.0,-0.006459353491663933,0.0
-0.0005609383806586266,-0.00745002506300807,-0.006656825542449951,0.0,-0.009145688265562057,0.0
0.0015653889859095216,-0.005667975638061762,-0.0002559653075877577,0.0,-0.007032729219645262,0.0
0.00781664252281189,-0.003660785499960184,0.0052775852382183075,0.0,-0.005076795816421509,0.0
0.00457522738724947,-0.003241256345063448,0.0038240801077336073,0.0,-0.0044617983512580395,0.0
0.004629120230674744,0.0019501295173540711,0.001110828947275877,0.0,-0.006312824320048094,0.0
-0.009480399079620838,-0.010806436650454998,-0.004332929849624634,0.0,-0.011290821246802807,0.0
-0.009309209883213043,-0.005883856676518917,-0.006505733355879784,0.0,-0.007650476880371571,0.0
-0.014575475826859474,-0.009327341802418232,-0.012873097322881222,0.0,-0.011865131556987762,0.0
-0.008742283098399639,-0.004934858530759811,-0.00627297954633832,0.0,-0.006915312726050615,0.0
-0.004938037600368261,-0.0021734507754445076,-0.0020841890946030617,0.0,-0.0038366075605154037,0.0
-0.0021585405338555574,0.002493723761290312,0.00016169610898941755,0.0,-0.00015462501323781908,0.0
0.0068587870337069035,-0.009920813143253326,0.009587620384991169,0.0,-0.011251445859670639,0.0
0.006347025744616985,-0.00555128650739789,0.0021046013571321964,0.0,-0.0073405480943620205,0.0
0.0063229152001440525,-0.009941870346665382,-0.0052241189405322075,0.0,-0.011865131556987762,0.0
0.0017850467702373862,-0.004273041617125273,-0.004911845549941063,0.0,-0.006060888525098562,0.0
-0.0024037437979131937,-0.0003819200792349875,-0.005873893387615681,0.0,-0.0020415745675563812,0.0
-0.006592534016817808,0.0021992626134306192,-0.00679094297811389,0.0,0.0005083421710878611,0.0
-0.00921308621764183,0.0011924802092835307,0.0011080604745075107,0.0,-0.0039844997227191925,0.0
-0.008678184822201729,-0.0025242173578590155,-0.000944216619245708,0.0,-0.007142136804759502,0.0
0.005279199685901403,-0.010953790508210659,-0.004981354344636202,0.0,-0.014688116498291492,0.0
0.0017850473523139954,-0.009810512885451317,-0.0065496936440467834,0.0,-0.014570862054824829,0.0
0.014727707952260971,-0.022548634558916092,0.00588768208399415,0.0,-0.00042184386984445155,0.0
0.0017850473523139954,-0.009771635755896568,-0.0009154058061540127,0.0,-0.008414879441261292,0.0
-0.005602722056210041,-0.0023428834974765778,0.0060755289159715176,0.0,-0.0017353513976559043,0.0
-0.00820162147283554,0.00027777551440522075,0.0014898040099069476,0.0,0.006063984241336584,0.0
-0.00997997261583805,0.004808438941836357,0.004594384226948023,0.0,0.005618781317025423,0.0
-0.0036189351230859756,-0.004298694897443056,-0.0019530702847987413,0.0,0.002108562272042036,0.0
-0.0016119035426527262,-0.006313967052847147,-0.006141860503703356,0.0,-0.0004804857890121639,0.0
0.0019360175356268883,-0.009874161332845688,-0.010173624381422997,0.0,-0.005924141965806484,0.0
0.005394371226429939,-0.008816244080662727,-0.009094255045056343,0.0,-0.010112931951880455,0.0
0.000506462121848017,-0.005297505296766758,-0.002339485101401806,0.0,-0.0015911548398435116,0.0
0.0001843566569732502,0.007148799952119589,0.004415284376591444,0.0,-0.001611493993550539,0.0
-0.0038516151253134012,0.0023962282575666904,0.002353689167648554,0.0,0.00409001624211669,0.0
-0.006626720540225506,0.003751144977286458,0.0020904026459902525,0.0,-0.0017353513976559043,0.0
-0.009011110290884972,0.004650878719985485,0.001606819685548544,0.0,-0.004456672351807356,0.0
0.00024093975662253797,-0.0044142697006464005,-0.005940941162407398,0.0,-0.00924674142152071,0.0
0.007553535979241133,-0.012766296043992043,-0.014660402201116085,0.0,-0.016881786286830902,0.0
0.008348704315721989,-0.012935686856508255,-0.013615952804684639,0.0,-0.018490513786673546,0.0
0.0037523771170526743,-0.0050490852445364,-0.006313173100352287,0.0,-0.010598932392895222,0.0
-0.0006182843935675919,-0.004057483281940222,-0.005325220990926027,0.0,-0.00965647492557764,0.0
-0.003924019169062376,-0.0006713786860927939,-0.0011364308884367347,0.0,-0.006223220378160477,0.0
-0.008658153936266899,0.003904610639438033,0.002549397526308894,0.0,-0.001812816597521305,0.0
-0.019981075078248978,0.007314036134630442,0.005884684156626463,0.0,-0.003453644458204508,0.0
-0.00028057306190021336,0.007271142676472664,0.005657164845615625,0.0,0.006763818208128214,0.0
0.0018941817106679082,-0.0027633619029074907,-0.004203692078590393,0.0,-0.00675727566704154,0.0
0.008097007870674133,-0.008042938075959682,-0.00945322960615158,0.0,-0.01159797701984644,0.0
0.006407583598047495,-0.003950276877731085,-0.0053736069239676,0.0,-0.008011020720005035,0.0
0.00016992179735098034,-0.008469188585877419,-0.009891417808830738,0.0,-0.011713103391230106,0.0
-0.004719502758234739,-6.622332875849679e-06,-0.0014279024908319116,0.0,-0.0033796257339417934,0.0
-0.008238788694143295,0.0006114364368841052,-0.000809742312412709,0.0,-0.0027258116751909256,0.0
-0.006884972099214792,0.004975413903594017,0.0035541318356990814,0.0,0.0016325359465554357,0.0
0.00013879191828891635,0.005536757409572601,0.004115437623113394,0.0,0.0021743341349065304,0.0
0.0008149075438268483,-0.003402167232707143,-0.004823419731110334,0.0,-0.006746407598257065,0.0
0.008516372181475163,-0.00809769332408905,-0.009518943727016449,0.0,-0.01145179569721222,0.0
0.004327582195401192,-0.017140498384833336,-0.01856176182627678,0.0,-0.020501481369137764,0.0
0.007897568866610527,-0.007589266635477543,-0.009010517969727516,0.0,-0.010946066118776798,0.0
-0.011547978967428207,-0.002148562576621771,-0.0035698225256055593,0.0,-0.005503589753061533,0.0
-0.005353833083063364,0.0007868914981372654,-0.0006343626882880926,0.0,-0.002568485215306282,0.0
-0.012036722153425217,0.0036594751290977,0.0022382184397429228,0.0,0.000304247165331617,0.0
-0.007847931236028671,0.0010564817348495126,0.0039095403626561165,0.0,-0.002298391656950116,0.0
-0.0063288575038313866,-0.0016176458448171616,-0.0023361954372376204,0.0,-0.004972846247255802,0.0
0.0005296490271575749,-0.007481536827981472,-0.005288821645081043,0.0,-0.01083653885871172,0.0
0.0034854041878134012,-0.010876620188355446,-0.01071377657353878,0.0,-0.01423178892582655,0.0
0.01308358646929264,-0.01686152070760727,0.0019431556575000286,0.0,-0.004273515194654465,0.0
0.004718440119177103,-0.010935363359749317,-0.002292884048074484,0.0,-0.006695488002151251,0.0
0.0023489822633564472,-0.006033333949744701,-0.00105861050542444,0.0,-0.004867649171501398,0.0
-0.0028221961110830307,-0.0032845118548721075,0.0018409226322546601,0.0,0.0016203051200136542,0.0
-0.007847931236028671,0.001443233573809266,0.0040319389663636684,0.0,0.004514819011092186,0.0
-0.014747312292456627,0.00923285260796547,-0.004249344579875469,0.0,0.0020103987772017717,0.0
-0.00785005558282137,0.001624832395464182,-0.003282439662143588,0.0,4.892665674560703e-05,0.0
0.00041965654236264527,-0.006773096509277821,-0.007681975606828928,0.0,-0.005782016087323427,0.0
0.002820946741849184,-0.009163028560578823,-0.010373929515480995,0.0,-0.008451400324702263,0.0
0.0041102091781795025,-0.010441526770591736,-0.005807077512145042,0.0,-0.009919938631355762,0.0
0.006996736396104097,-0.003483683569356799,-0.0016182867111638188,0.0,-0.005188168492168188,0.0
0.002371728653088212,0.002067793160676956,0.009677762165665627,0.0,-0.002089953050017357,0.0
-0.001817061798647046,0.0025129858404397964,0.011431494727730751,0.0,-0.0008937094826251268,0.0
-0.006916832644492388,0.0029750620014965534,0.0025705036241561174,0.0,0.0012948599178344011,0.0
-0.013527383096516132,-0.0014835733454674482,-0.008043279871344566,0.0,-0.0033642128109931946,0.0
-0.006005852483212948,-0.004329924937337637,-0.00531425978988409,0.0,-0.006558788008987904,0.0
-0.0043418933637440205,-0.009603915736079216,-0.013670437037944794,0.0,-0.01174179371446371,0.0
0.009689228609204292,-0.019770264625549316,-0.0005115202511660755,0.0,-0.013946075923740864,0.0
0.008320455439388752,-0.00937523040920496,0.0012105682399123907,0.0,-0.005364265292882919,0.0
0.003449695650488138,-0.02712015062570572,-0.0027651842683553696,0.0,-0.018845291808247566,0.0
0.009489336051046848,0.019134927541017532,0.013133305124938488,0.0,0.01563902758061886,0.0
-0.002500975737348199,-0.00820999313145876,-0.004781847354024649,0.0,-0.0009302683174610138,0.0
-0.001770183676853776,0.00737993186339736,0.006748597603291273,0.0,0.010171489790081978,0.0
-0.0060058520175516605,-0.000987885519862175,-0.0005835945485159755,0.0,0.002969206776469946,0.0
-0.0016255757072940469,0.00737993186339736,0.005985757801681757,0.0,0.004109885543584824,0.0
0.004190363921225071,0.0060226041823625565,0.0038407654501497746,0.0,-0.00041692410013638437,0.0
0.004516028333455324,-0.0009976486908271909,-0.002076603937894106,0.0,-0.0030009939800947905,0.0
0.0064186034724116325,-0.0065271081402897835,-0.009013974107801914,0.0,-0.015504693612456322,0.0
0.0017563531873747706,-0.009790855459868908,-0.01127573475241661,0.0,-0.013428476639091969,0.0
-0.00459690298885107,-0.009311467409133911,-0.009313220158219337,0.0,-0.008794506080448627,0.0
-0.0053493557497859,0.006875508930534124,0.002730631036683917,0.0,-0.003218951402232051,0.0
0.0028761099092662334,-0.00667851185426116,-0.0036882602144032717,0.0,0.0038867671974003315,0.0
0.0004882912035100162,0.006318223662674427,0.0057884883135557175,0.0,0.003337584901601076,0.0
0.005292038433253765,0.0047894809395074844,0.003540106350556016,0.0,-0.0006718953372910619,0.0
0.0011032484471797943,0.007890325970947742,0.0055267466232180595,0.0,0.0013563355896621943,0.0
-0.001720141270197928,0.0006778677925467491,-0.0031260824762284756,0.0,-0.006699023302644491,0.0
-0.007274332456290722,-0.0031814652029424906,-0.008982532657682896,0.0,-0.01203332282602787,0.0
-0.005042306613177061,-0.00624814722687006,-0.010993964038789272,0.0,-0.0143812857568264,0.0
-0.003671314101666212,-0.01043693721294403,-0.012305231764912605,0.0,-0.0158493984490633,0.0
0.009564237669110298,-0.002261573448777199,0.009955191053450108,0.0,0.006003411952406168,0.0
0.0055796438828110695,-0.0030790052842348814,0.0011622704332694411,0.0,-0.0021931121591478586,0.0
0.010719875805079937,0.002282056026160717,0.003875179449096322,0.0,0.0004598217492457479,0.0
0.005641462281346321,-0.002059356775134802,0.0003127531963400543,0.0,-0.002980179386213422,0.0
0.0017282182816416025,0.0010639253305271268,-0.00410559494048357,0.0,-0.0027366008143872023,0.0
-0.0043301088735461235,-0.006068373564630747,-0.008952232077717781,0.0,-0.007588180713355541,0.0
-0.008865064941346645,-0.003817914752289653,-0.010110362432897091,0.0,-0.004505444783717394,0.0
-0.007188546005636454,-0.007218704558908939,-0.005965549498796463,0.0,-0.008694235235452652,0.0
-0.0029008095152676105,-0.007886561565101147,6.349169416353106e-05,0.0,-0.010027524083852768,0.0
0.003421635366976261,0.0011141261784359813,0.004830995574593544,0.0,-0.0021119590383023024,0.0
0.008717411197721958,0.008831130340695381,0.008117588236927986,0.0,0.0066615622490644455,0.0
0.005565475672483444,0.005127333104610443,0.002148934407159686,0.0,0.0016496359603479505,0.0
-0.00041680518188513815,0.005228943657130003,-0.006506140343844891,0.0,-0.00043900497257709503,0.0
2.543266054999549e-05,0.002829595934599638,-0.004865126684308052,0.0,-0.00318380119279027,0.0
-0.005877580493688583,-0.003074664156883955,-0.01193298026919365,0.0,-0.007595948409289122,0.0
-0.0005278651951812208,-0.0031506766099482775,-0.007117934990674257,0.0,-0.00759464967995882,0.0
-0.0006317974766716361,-0.011452246457338333,-0.009771584533154964,0.0,-0.012026525102555752,0.0
0.006080291233956814,-0.002155500464141369,-0.0026732792612165213,0.0,-0.005352899897843599,0.0
0.005933950189501047,-0.003212092909961939,0.0016472931019961834,0.0,-0.004587577190250158,0.0
0.004949028603732586,0.001114125712774694,0.0012853023363277316,0.0,-0.0019316874677315354,0.0
0.0017516493098810315,-0.0015435536624863744,0.002141145523637533,0.0,-0.0008827116107568145,0.0
