Der-mark/objtrans/data/qvel_trajectory.csv
q0,q1,q2,q3,q4,q5
0.0,0.0,0.0,0.0,0.0,0.0
0.0,0.0,0.0,0.0,0.0,0.0
0.0,0.0,0.0,0.0,0.0,0.0
-0.01119999960064888,-0.012000000104308128,0.012000000104308128,-0.012000000104308128,-0.012000000104308128,-0.012000000104308128
-0.007180783431977034,0.0,0.0,0.0,0.0,0.0
-0.012566370889544487,-0.0034656182397156954,0.0034656182397156954,-0.0034656182397156954,-0.0034656182397156954,-0.0034656182397156954
-0.01867823489010334,0.008377580903470516,-0.008377580903470516,0.008377580903470516,0.008377580903470516,0.008377580903470516
-0.02125723846256733,0.012566370889544487,-0.012566370889544487,0.012566370889544487,0.012566370889544487,0.012566370889544487
-0.01967407576739788,0.011788386851549149,-0.009485634975135326,0.009485634975135326,0.009485634975135326,0.009485634975135326
-0.02742585726082325,0.020943952724337578,-0.020943952724337578,0.020943952724337578,0.020943952724337578,0.020943952724337578
-0.028643012046813965,0.025132743641734123,-0.025132743641734123,0.025132743641734123,0.025132743641734123,0.025132743641734123
-0.027025993913412094,0.02937849424779415,-0.026447776705026627,0.026447776705026627,0.026447776705026627,0.026447776705026627
-0.027244918048381805,0.024620098993182182,-0.022807778790593147,0.022807778790593147,0.022807778790593147,0.022807778790593147
-0.02637292630970478,0.03769911453127861,-0.03769911453127861,0.03769911453127861,0.03769911453127861,0.03769911453127861
-0.026650365442037582,0.0378384068608284,-0.03542099520564079,0.03542099520564079,0.03542099520564079,0.03542099520564079
-0.02517680637538433,0.0460766926407814,-0.0460766926407814,0.0460766926407814,0.0460766926407814,0.0460766926407814
-0.025007426738739014,0.0573882982134819,-0.058374349027872086,0.058374349027872086,0.058374349027872086,0.058374349027872086
-0.025115719065070152,0.05384083837270737,-0.05384083837270737,0.05384083837270737,0.05291937291622162,0.05384083837270737
-0.024830656126141548,0.07211867719888687,-0.07144533842802048,0.07183394581079483,0.05831475183367729,0.07183394581079483
-0.024933816865086555,0.06267975270748138,-0.05888095870614052,0.06267975270748138,0.05395293980836868,0.06267975270748138
-0.02498871274292469,0.06818471103906631,-0.055409763008356094,0.06509659439325333,0.052526600658893585,0.06509659439325333
-0.024310776963829994,0.08149359375238419,-0.06822537630796432,0.08149359375238419,0.05816763639450073,0.08149359375238419
-0.024877075105905533,0.07495322078466415,-0.05877485126256943,0.07224015146493912,0.05403219908475876,0.07495322078466415
-0.024656806141138077,0.07958701997995377,-0.062109217047691345,0.07510171085596085,0.055707648396492004,0.07958701997995377
-0.024670390412211418,0.09356770664453506,-0.057744089514017105,0.06762697547674179,0.05476131662726402,0.0942201167345047
-0.024716440588235855,0.08796460181474686,-0.06033501401543617,0.0720529556274414,0.05528448149561882,0.08796460181474686
-0.02466568537056446,0.0921533852815628,-0.05968401953577995,0.0705786719918251,0.05530938133597374,0.0921533852815628
-0.024691393598914146,0.07876425236463547,-0.05670338124036789,0.06843075156211853,0.05352464318275452,0.07803789526224136
-0.02465512976050377,0.09837668389081955,-0.06136193126440048,0.07178197056055069,0.056309327483177185,0.10053097456693649
-0.024629591032862663,0.09996247291564941,-0.06180984899401665,0.07182811945676804,0.05669371411204338,0.10471976548433304
-0.02469191700220108,0.10151401907205582,-0.06169692799448967,0.07268103957176208,0.05625402182340622,0.09700311720371246
-0.02452082745730877,0.09870415180921555,-0.062318041920661926,0.07109320908784866,0.057485707104206085,0.11309734731912613
-0.024436894804239273,0.09894959628582001,-0.06310276687145233,0.07061690092086792,0.058410655707120895,0.11992594599723816
-0.02456277795135975,0.10131024569272995,-0.06334822624921799,0.07153654843568802,0.05818324163556099,0.12147492170333862
-0.02479024976491928,0.10102134197950363,-0.06208299845457077,0.07241576910018921,0.05659102275967598,0.10814601182937622
-0.024372849613428116,0.0997818112373352,-0.06381969898939133,0.07048792392015457,0.059123847633600235,0.1298525035381317
-0.02443035878241062,0.1006670668721199,-0.06420852988958359,0.07068514823913574,0.059356965124607086,0.13404129445552826
-0.024418922141194344,0.09995708614587784,-0.06437297910451889,0.0703093558549881,0.059662871062755585,0.1382300853729248
-0.024352852255105972,0.10127075761556625,-0.06503447145223618,0.07040434330701828,0.060254063457250595,0.14241886138916016
-0.02438441663980484,0.10061904788017273,-0.064542256295681,0.07043960690498352,0.05977941304445267,0.1400473564863205
-0.024503933265805244,0.10108758509159088,-0.06599335372447968,0.07008559256792068,0.061214346438646317,0.160075843334198
-0.024548497051000595,0.10079224407672882,-0.06487322598695755,0.07061108201742172,0.059974879026412964,0.14591147005558014
-0.024593329057097435,0.10102977603673935,-0.06595386564731598,0.0702177956700325,0.06110202148556709,0.16493283212184906
-0.0246387030929327,0.10124611854553223,-0.06609751284122467,0.07039213180541992,0.061200328171253204,0.1633627712726593
-0.024498816579580307,0.10170673578977585,-0.06551595777273178,0.07087063044309616,0.060622233897447586,0.1531737744808197
-0.02483118139207363,0.1009330004453659,-0.06679821759462357,0.07004819810390472,0.061856575310230255,0.18138477206230164
-0.02481970749795437,0.10116412490606308,-0.06676851212978363,0.07024125009775162,0.06181137263774872,0.17439578473567963
-0.02489393576979637,0.10119610279798508,-0.06688614189624786,0.07032845169305801,0.06188489496707916,0.1801179051399231
-0.024930831044912338,0.10141061991453171,-0.06770901381969452,0.07006584107875824,0.0627535954117775,0.19101789593696594
-0.024974405765533447,0.10112174600362778,-0.06643591076135635,0.07068849354982376,0.0613396055996418,0.17951789498329163
-0.024959461763501167,0.10145010054111481,-0.06769153475761414,0.07015258073806763,0.06271634250879288,0.19268424808979034
-0.024959459900856018,0.10155697911977768,-0.06803052872419357,0.07002776116132736,0.06308537721633911,0.1968730390071869
-0.024982767179608345,0.10156290978193283,-0.06787190586328506,0.07012893259525299,0.06290756165981293,0.203675776720047
-0.025068387389183044,0.10138000547885895,-0.0671233981847763,0.07049120217561722,0.06206023320555687,0.2052506059408188
-0.024988271296024323,0.10173148661851883,-0.06811659038066864,0.0700889527797699,0.0631796270608902,0.2110464870929718
-0.024881253018975258,0.10241399705410004,-0.06980966031551361,0.06948456168174744,0.06507699936628342,0.21684236824512482
-0.02494603954255581,0.1021108329296112,-0.0689593106508255,0.06981086730957031,0.06412847340106964,0.21571411192417145
-0.025074874982237816,0.10178837180137634,-0.06761034578084946,0.07041630893945694,0.06262540817260742,0.22329223155975342
-0.024767909198999405,0.10282064974308014,-0.07052017748355865,0.06914662569761276,0.06593137979507446,0.22619451582431793
-0.02458644099533558,0.10347730666399002,-0.07225499302148819,0.0684022381901741,0.06790796667337418,0.23038330674171448
-0.024733848869800568,0.10305482894182205,-0.07079846411943436,0.06905102729797363,0.06627360731363297,0.23457209765911102
-0.024802502244710922,0.10280999541282654,-0.06978259235620499,0.06946419924497604,0.06515642255544662,0.23876085877418518
-0.024770429357886314,0.1029137596487999,-0.0698225274682045,0.06942646205425262,0.06522839516401291,0.24294964969158173
-0.024708200246095657,0.10321109741926193,-0.07045438885688782,0.06918269395828247,0.06595464050769806,0.24874481558799744
-0.024650221690535545,0.1034112200140953,-0.07076003402471542,0.06903161853551865,0.06632687896490097,0.2513272166252136
-0.024569429457187653,0.1034877598285675,-0.070408895611763,0.06903253495693207,0.06600967794656754,0.2576535940170288
-0.024542203173041344,0.10378938168287277,-0.0712902769446373,0.06876470148563385,0.06697449088096619,0.2607799470424652
-0.02448677457869053,0.1039537563920021,-0.07140932232141495,0.06867028772830963,0.06714490056037903,0.26389357447624207
-0.024358496069908142,0.10405450314283371,-0.07061836868524551,0.06871522217988968,0.06638820469379425,0.2803637385368347
-0.02441267855465412,0.1041264533996582,-0.07139654457569122,0.0685727447271347,0.06718208640813828,0.27227115631103516
-0.02457266114652157,0.10370763391256332,-0.07126909494400024,0.06881977617740631,0.06693743914365768,0.25616249442100525
-0.024325339123606682,0.10458195209503174,-0.07210224121809006,0.06825998425483704,0.06798559427261353,0.28805384039878845
-0.024185670539736748,0.10508394241333008,-0.0725712701678276,0.06794515997171402,0.06857579946517944,0.2975451946258545
-0.024183647707104683,0.10476755350828171,-0.07205836474895477,0.06807199865579605,0.06804042309522629,0.2886093556880951
-0.024197600781917572,0.1049705445766449,-0.07246604561805725,0.06797979772090912,0.06845282763242722,0.29321515560150146
-0.024209119379520416,0.10513467341661453,-0.07287483662366867,0.06781859695911407,0.06883487850427628,0.2974039614200592
-0.024194106459617615,0.10531479120254517,-0.07321508228778839,0.06765934824943542,0.06917576491832733,0.30159273743629456
-0.024089494720101357,0.10554179549217224,-0.07331567257642746,0.06748882681131363,0.06934956461191177,0.3057815730571747
-0.02411428466439247,0.10559231787919998,-0.07351371645927429,0.06743931025266647,0.06951679289340973,0.3098064661026001
-0.024037277325987816,0.10596057772636414,-0.07401396334171295,0.0671398863196373,0.07004581391811371,0.3141591548919678
-0.02409367635846138,0.10572975128889084,-0.07375696301460266,0.06732426583766937,0.06976635009050369,0.311305969953537
-0.024028366431593895,0.10677261650562286,-0.07551445066928864,0.06644861400127411,0.0714355856180191,0.33085280656814575
-0.024020418524742126,0.10655739158391953,-0.07506494224071503,0.06663153320550919,0.07101907581090927,0.3267255425453186
-0.024067861959338188,0.10671238601207733,-0.07549852132797241,0.06647917628288269,0.07137687504291534,0.32882001996040344
-0.02435947209596634,0.10672495514154434,-0.07622547447681427,0.06630435585975647,0.07165712118148804,0.32514655590057373
-0.024082228541374207,0.1069454699754715,-0.07613684237003326,0.06633805483579636,0.07216091454029083,0.3363465368747711
-0.024512965232133865,0.10689372569322586,-0.0769549086689949,0.06608428061008453,0.07216465473175049,0.32674655318260193
-0.02440691366791725,0.10751236975193024,-0.07807857543230057,0.06571312248706818,0.07358789443969727,0.3363465368747711
-0.02479381114244461,0.10677436739206314,-0.07755663245916367,0.06614220887422562,0.07253575325012207,0.32674655318260193
-0.024440092965960503,0.10730734467506409,-0.07772422581911087,0.06585361808538437,0.07316480576992035,0.3315465450286865
-0.02463836409151554,0.10714075714349747,-0.07790178805589676,0.06591466069221497,0.07307770103216171,0.3315465450286865
-0.024190735071897507,0.10749664157629013,-0.07737425714731216,0.06574346870183945,0.07303362339735031,0.3315465450286865
-0.024036208167672157,0.10749076306819916,-0.07688792049884796,0.06580513715744019,0.07267187535762787,0.3363465368747711
-0.024962591007351875,0.10707428306341171,-0.07878610491752625,0.06599120795726776,0.07372502237558365,0.32674655318260193
-0.024326369166374207,0.10737350583076477,-0.07758017629384995,0.06592246890068054,0.07316795736551285,0.3363465368747711
-0.0252832043915987,0.10690774023532867,-0.07944223284721375,0.06609904021024704,0.07413781434297562,0.32674655318260193
-0.02384970150887966,0.10775605589151382,-0.07707012444734573,0.06586305797100067,0.07317739725112915,0.3363465368747711
-0.025352880358695984,0.10690328478813171,-0.07969889789819717,0.06615147739648819,0.07438089698553085,0.32674655318260193
-0.022720573469996452,0.10850129276514053,-0.07539211958646774,0.06567283719778061,0.07263040542602539,0.3379465639591217
-0.026489533483982086,0.10623219609260559,-0.0816919133067131,0.06644075363874435,0.07534713298082352,0.32514655590057373
-0.0226226095110178,0.1086050495505333,-0.07543745636940002,0.0657297819852829,0.07286251336336136,0.3379465639591217
-0.02690710313618183,0.10590473562479019,-0.08234383910894394,0.06666148453950882,0.07570117712020874,0.32514655590057373
-0.022174879908561707,0.1090037077665329,-0.07503774017095566,0.06563033163547516,0.07294705510139465,0.3363465368747711
-0.0272035114467144,0.10564768314361572,-0.08275821059942245,0.06684017181396484,0.07590511441230774,0.32514655590057373
-0.021666496992111206,0.10952894389629364,-0.07477333396673203,0.06553848087787628,0.07325369864702225,0.3363465368747711
-0.027656856924295425,0.10523707419633865,-0.08333782851696014,0.06709598749876022,0.07615067809820175,0.32674655318260193
-0.02076473832130432,0.11034950613975525,-0.07389295846223831,0.06529170274734497,0.07323987036943436,0.3363465368747711
-0.02816527709364891,0.10476985573768616,-0.08397538214921951,0.06738685071468353,0.07641489803791046,0.32674655318260193
-0.020250409841537476,0.11086910963058472,-0.07366397231817245,0.06521652638912201,0.07364130765199661,0.3363465368747711
-0.0264484453946352,0.10607213526964188,-0.08164149522781372,0.06688536703586578,0.07567425817251205,0.32849010825157166
-0.026184944435954094,0.10626284033060074,-0.08008469641208649,0.06569012254476547,0.07347071915864944,0.32882001996040344
-0.028536422178149223,0.10428527742624283,-0.08392199873924255,0.06751400977373123,0.07592186331748962,0.3263745903968811
-0.026318097487092018,0.10612760484218597,-0.08185892552137375,0.06734773516654968,0.07637686282396317,0.32882001996040344
-0.026529202237725258,0.10594098269939423,-0.08148910850286484,0.06686549633741379,0.07534871250391006,0.3280654549598694
-0.027063539251685143,0.10550388693809509,-0.0825490802526474,0.06741660833358765,0.07622509449720383,0.3279649019241333
-0.026264918968081474,0.106167733669281,-0.08183376491069794,0.06736858934164047,0.07643146067857742,0.32882001996040344
-0.027018487453460693,0.10554017871618271,-0.08257260918617249,0.06747299432754517,0.07635156810283661,0.3280654549598694
-0.02614568918943405,0.10623390227556229,-0.08172830194234848,0.06746386736631393,0.07650499045848846,0.3288160264492035
-0.025217385962605476,0.1069439947605133,-0.0808243677020073,0.06753473728895187,0.07669492810964584,0.3295705020427704
-0.025983523577451706,0.10635638982057571,-0.08157751709222794,0.06749705970287323,0.07654836773872375,0.32887503504753113
-0.025262486189603806,0.10687584429979324,-0.08087591081857681,0.06763885170221329,0.07674414664506912,0.3294994533061981
-0.026003027334809303,0.10632401704788208,-0.08163149654865265,0.06757665425539017,0.07662893831729889,0.32890069484710693
-0.025048887357115746,0.1070077046751976,-0.08063016831874847,0.06776275485754013,0.07675103843212128,0.32943785190582275
-0.02579149790108204,0.10634301602840424,-0.08136572688817978,0.06809788197278976,0.0767250582575798,0.32847222685813904
-0.024990545585751534,0.10684063285589218,-0.08050685375928879,0.06845088303089142,0.07690206170082092,0.32882001996040344
-0.025650283321738243,0.10667046159505844,-0.08133798837661743,0.06744731217622757,0.07667627185583115,0.3293091058731079
-0.024829208850860596,0.10712404549121857,-0.08039069920778275,0.06794161349534988,0.07681252807378769,0.32942602038383484
-0.02562192641198635,0.1064937636256218,-0.08125443756580353,0.0681215450167656,0.07681813836097717,0.3286881744861603
-0.025012439116835594,0.10680418461561203,-0.08042170852422714,0.0683690682053566,0.07675518095493317,0.32882001996040344
-0.025386540219187737,0.106871597468853,-0.08122704923152924,0.06775403022766113,0.07694225013256073,0.3293091058731079
-0.02494003064930439,0.106849804520607,-0.08034908771514893,0.06842409074306488,0.07677511125802994,0.32882001996040344
-0.025392280891537666,0.10684534907341003,-0.08123559504747391,0.06782983243465424,0.0769752711057663,0.3293091058731079
-0.02608029544353485,0.10634085536003113,-0.08208361268043518,0.06801637262105942,0.07708205282688141,0.32882001996040344
-0.025696903467178345,0.10623916238546371,-0.08128165453672409,0.06878743320703506,0.076970674097538,0.328330934047699
-0.026041250675916672,0.10634683817625046,-0.08200868964195251,0.06807724386453629,0.07705847918987274,0.32882001996040344
-0.025638220831751823,0.10625461488962173,-0.08118412643671036,0.06886499375104904,0.07695290446281433,0.328330934047699
-0.025048084557056427,0.10653970390558243,-0.08037345856428146,0.06906800717115402,0.07692871242761612,0.32882001996040344
-0.025681616738438606,0.10621154308319092,-0.08120401203632355,0.06890062987804413,0.0769190788269043,0.328330934047699
-0.02503350004553795,0.1064886674284935,-0.08028768748044968,0.0691932812333107,0.07689869403839111,0.32882001996040344
-0.02571777254343033,0.10613071173429489,-0.08118350058794022,0.06900594383478165,0.07689407467842102,0.328330934047699
-0.02512858249247074,0.10636083781719208,-0.08036695420742035,0.06933032721281052,0.07693647593259811,0.32882001996040344
-0.02580958791077137,0.10602567344903946,-0.08122409135103226,0.06908846646547318,0.07684358954429626,0.328330934047699
-0.026548532769083977,0.1055678054690361,-0.08212083578109741,0.06898654252290726,0.07686932384967804,0.32882001996040344
-0.025855407118797302,0.10593382269144058,-0.0812036544084549,0.06921055912971497,0.07680708169937134,0.328330934047699
-0.0266642477363348,0.10542622953653336,-0.08221586793661118,0.06912500411272049,0.0768936425447464,0.32882001996040344
-0.025901703163981438,0.10590242594480515,-0.08122304826974869,0.0692124143242836,0.0767497792840004,0.328330934047699
-0.02677012048661709,0.10523901879787445,-0.08226420730352402,0.06935477256774902,0.07693420350551605,0.32882001996040344
-0.02633962221443653,0.10507660359144211,-0.08134925365447998,0.07030647993087769,0.07691200077533722,0.3293091058731079
-0.026900120079517365,0.10513810813426971,-0.08237919211387634,0.06939300894737244,0.07689410448074341,0.32882001996040344
-0.026402244344353676,0.10499194264411926,-0.08137109875679016,0.070407435297966,0.07688909024000168,0.3293091058731079
-0.0269908607006073,0.10502027720212936,-0.08242923766374588,0.06951267272233963,0.07688385993242264,0.32882001996040344
-0.02653980255126953,0.1048540249466896,-0.08151653409004211,0.0705181285738945,0.07693074643611908,0.3293091058731079
-0.02702992781996727,0.10493867844343185,-0.08239838480949402,0.06964422762393951,0.07683906704187393,0.32882001996040344
-0.02663056179881096,0.10499973595142365,-0.08156795799732208,0.07022038102149963,0.07651986926794052,0.328330934047699
-0.02712608128786087,0.10483679920434952,-0.08248591423034668,0.06974424421787262,0.07685498893260956,0.32882001996040344
-0.026653029024600983,0.10481563955545425,-0.08147940784692764,0.07064979523420334,0.07657637447118759,0.328330934047699
-0.027279652655124664,0.10482823103666306,-0.08273729681968689,0.06953597813844681,0.07684357464313507,0.32882001996040344
-0.027176592499017715,0.10437563806772232,-0.08224929124116898,0.07079976052045822,0.07701574265956879,0.3293091058731079
-0.027330022305250168,0.1047329306602478,-0.08274170011281967,0.06970307230949402,0.07684732228517532,0.32882001996040344
-0.027202405035495758,0.10432904958724976,-0.08226370811462402,0.07094142585992813,0.07704178243875504,0.3293091058731079
-0.02748267725110054,0.10460852831602097,-0.08294866234064102,0.06976723670959473,0.07692934572696686,0.32882001996040344
-0.027198975905776024,0.10428556054830551,-0.08220363408327103,0.07112766802310944,0.07702875137329102,0.3293091058731079
-0.026976563036441803,0.10389486700296402,-0.08138077706098557,0.07272151857614517,0.07689685374498367,0.32882001996040344
-0.027232209220528603,0.10422584414482117,-0.08221913874149323,0.07126575708389282,0.0770530179142952,0.3293091058731079
-0.027126796543598175,0.10377166420221329,-0.08158714324235916,0.07279133796691895,0.07698453217744827,0.32882001996040344
-0.02717168629169464,0.10425342619419098,-0.08207337558269501,0.07138248533010483,0.0769687294960022,0.3293091058731079
-0.027273541316390038,0.10468491166830063,-0.08257947862148285,0.07005807757377625,0.07689005881547928,0.3295225501060486
-0.0277585256844759,0.10388567298650742,-0.0828409492969513,0.0715617835521698,0.07708390802145004,0.32863685488700867
-0.027611974626779556,0.10454704612493515,-0.08301819860935211,0.06985076516866684,0.07679947465658188,0.32882001996040344
-0.02754320576786995,0.10400513559579849,-0.0826127752661705,0.07168956845998764,0.07721088081598282,0.3293091058731079
-0.027921337634325027,0.10306970775127411,-0.08262717723846436,0.07392770051956177,0.07757208496332169,0.32882001996040344
-0.028079206123948097,0.10367579758167267,-0.08325252681970596,0.07180054485797882,0.07718026638031006,0.328330934047699
-0.027873313054442406,0.10408083349466324,-0.08321002125740051,0.07097591459751129,0.07711964845657349,0.32882001996040344
-0.02815922163426876,0.103594109416008,-0.08334405720233917,0.07193949818611145,0.07723630219697952,0.328330934047699
-0.027963848784565926,0.10402785986661911,-0.08336491882801056,0.07100332528352737,0.07719997316598892,0.32882001996040344
-0.0280348788946867,0.10369064658880234,-0.08334905654191971,0.07207222282886505,0.07756511121988297,0.3293091058731079
-0.028358370065689087,0.10318297892808914,-0.08350539952516556,0.07310885190963745,0.07766939699649811,0.32882001996040344
-0.02853415720164776,0.10331280529499054,-0.08385802805423737,0.07226350903511047,0.07748088240623474,0.328330934047699
-0.028399338945746422,0.10318853706121445,-0.08353129029273987,0.07314835488796234,0.07763155549764633,0.32882001996040344
-0.028843658044934273,0.10303948074579239,-0.08423791825771332,0.07244300097227097,0.0776280015707016,0.328330934047699
-0.02922644279897213,0.10302548855543137,-0.08490800857543945,0.07176900655031204,0.07772669941186905,0.32882001996040344
-0.029634086415171623,0.10230899602174759,-0.08507712185382843,0.0729002133011818,0.07783874124288559,0.328330934047699
-0.030369501560926437,0.10207455605268478,-0.08610521256923676,0.07219834625720978,0.07790039479732513,0.3289382755756378
-0.03165379911661148,0.10032287985086441,-0.0870392918586731,0.07435669749975204,0.07824646681547165,0.3281484544277191
-0.033700402826070786,0.09776481240987778,-0.08865176886320114,0.07737574726343155,0.07879936695098877,0.32755789160728455
-0.03505133464932442,0.09785949438810349,-0.0907803624868393,0.07483454048633575,0.07868485897779465,0.32920315861701965
-0.035834185779094696,0.09704165905714035,-0.09160337597131729,0.07530076056718826,0.07888320088386536,0.3286084532737732
-0.036394838243722916,0.09687536209821701,-0.09220728278160095,0.0751953199505806,0.07887113839387894,0.3299810290336609
-0.0374126099050045,0.09539907425642014,-0.09334008395671844,0.07620842754840851,0.07938532531261444,0.32746484875679016
-0.03457578644156456,0.09844686836004257,-0.09049329906702042,0.07390950620174408,0.0785740315914154,0.32882001996040344
-0.03952077031135559,0.0936066284775734,-0.09550399333238602,0.07726530730724335,0.07978459447622299,0.32811373472213745
-0.04064492881298065,0.0924341082572937,-0.09661630541086197,0.07816316187381744,0.08008218556642532,0.32780134677886963
-0.04190118983387947,0.09160753339529037,-0.09798742830753326,0.07832429558038712,0.08023793250322342,0.32876691222190857
-0.0427388921380043,0.09107781201601028,-0.09892310947179794,0.07835590839385986,0.08034226298332214,0.32942327857017517
-0.04358876124024391,0.09020190685987473,-0.09991510212421417,0.07889039814472198,0.08070596307516098,0.3288576006889343
-0.04441533610224724,0.08955369889736176,-0.10082994401454926,0.07915360480546951,0.08091309666633606,0.3293505012989044
-0.045244861394166946,0.08888912945985794,-0.10175592452287674,0.07944385707378387,0.08114214986562729,0.32980403304100037
-0.046146590262651443,0.0879564881324768,-0.10279874503612518,0.08000888675451279,0.08151225000619888,0.32916271686553955
-0.04715758189558983,0.08699210733175278,-0.10395469516515732,0.08052601665258408,0.08188260346651077,0.328896701335907
-0.04793937876820564,0.0862157940864563,-0.10484880208969116,0.08096154034137726,0.08218232542276382,0.3285515010356903
-0.04870680347084999,0.08556666225194931,-0.10572676360607147,0.08126143366098404,0.08242268115282059,0.32867109775543213
-0.04957560822367668,0.08473958820104599,-0.10677492618560791,0.08169697970151901,0.08283691853284836,0.3287385404109955
-0.050159987062215805,0.08433659374713898,-0.10750354826450348,0.08180670440196991,0.08299922198057175,0.32877326011657715
-0.05074853077530861,0.08415526151657104,-0.10821675509214401,0.08167163282632828,0.08295300602912903,0.3289252817630768
-0.051842644810676575,0.08308015763759613,-0.10952708125114441,0.0822574719786644,0.08349823206663132,0.329059362411499
-0.05206197872757912,0.08238670229911804,-0.1098792776465416,0.08286590129137039,0.08406045287847519,0.32873985171318054
-0.05258220434188843,0.08129104226827621,-0.11060009896755219,0.08375024795532227,0.08486607670783997,0.32840168476104736
-0.05311259254813194,0.08133053034543991,-0.11122380197048187,0.0834120362997055,0.08466358482837677,0.32875415682792664
-0.05347621813416481,0.08060883730649948,-0.1117962971329689,0.08395983278751373,0.08526954799890518,0.3285388648509979
-0.05416589602828026,0.08076714724302292,-0.11254015564918518,0.08340238034725189,0.08484023064374924,0.3291035592556
-0.05312711372971535,0.0800703838467598,-0.1115666925907135,0.08470576256513596,0.08600877970457077,0.32794976234436035
-0.05516308173537254,0.08057823032140732,-0.11369067430496216,0.08303000032901764,0.08460652828216553,0.32963281869888306
-0.05252191796898842,0.08023074269294739,-0.11085952073335648,0.0848727896809578,0.08609787374734879,0.3276723027229309
-0.055888544768095016,0.07971779257059097,-0.11472416669130325,0.0834890678524971,0.08522221446037292,0.3295753598213196
-0.05298348888754845,0.07956770807504654,-0.11165715008974075,0.08526302129030228,0.08676978200674057,0.3275867998600006
-0.056745316833257675,0.0793093666434288,-0.1157567948102951,0.08340375125408173,0.0852537602186203,0.329900324344635
-0.058344900608062744,0.07700389623641968,-0.11840689927339554,0.08479335904121399,0.08742224425077438,0.3295387327671051
-0.05728352442383766,0.07833433896303177,-0.1167033314704895,0.08405318111181259,0.08619041740894318,0.32967036962509155
-0.055015306919813156,0.07786773890256882,-0.11456438899040222,0.085724838078022,0.0879712626338005,0.3279336392879486
-0.056585751473903656,0.07538428902626038,-0.11750663816928864,0.08726074546575546,0.09071600437164307,0.3274529278278351
-0.059296831488609314,0.07594701647758484,-0.12006489187479019,0.08519915491342545,0.08859576284885406,0.3296193480491638
-0.05769706144928932,0.07601900398731232,-0.11828946322202682,0.08599003404378891,0.0891910120844841,0.3286339342594147
-0.05820506811141968,0.07612239569425583,-0.11873045563697815,0.08575431257486343,0.0887400433421135,0.32886549830436707
-0.05725082382559776,0.07598565518856049,-0.11793708056211472,0.0862504318356514,0.08959649503231049,0.32831650972366333
-0.05876493081450462,0.07575246691703796,-0.11946062743663788,0.08579372614622116,0.08888931572437286,0.32899999618530273
-0.05712661147117615,0.07564955949783325,-0.11807828396558762,0.08653479814529419,0.09028748422861099,0.32814741134643555
-0.05936853215098381,0.07555916905403137,-0.12013015896081924,0.08567671477794647,0.08873271197080612,0.3292143940925598
-0.05919581651687622,0.07453228533267975,-0.12087542563676834,0.08631978183984756,0.0908784419298172,0.3289562463760376
-0.05895369127392769,0.07504056394100189,-0.12025933712720871,0.08614663034677505,0.09012249112129211,0.3288826048374176
-0.05852886661887169,0.07453057914972305,-0.12035250663757324,0.08662714809179306,0.09150362014770508,0.3285534977912903
-0.05957074463367462,0.07429393380880356,-0.12134763598442078,0.08635206520557404,0.09093503654003143,0.3290046155452728
-0.05826033279299736,0.07429777085781097,-0.12029115110635757,0.08689022809267044,0.09216149151325226,0.3283501863479614
-0.060101792216300964,0.07406982034444809,-0.1219598799943924,0.08626744896173477,0.09086186438798904,0.32919782400131226
-0.05954081937670708,0.07338126748800278,-0.12205619364976883,0.08690989017486572,0.09270837903022766,0.3287724256515503
-0.059355802834033966,0.0727202445268631,-0.12242861092090607,0.08738042414188385,0.09414684772491455,0.328536719083786
-0.05959775298833847,0.07307843118906021,-0.12238116562366486,0.08705117553472519,0.09331078082323074,0.32874003052711487
-0.05965540185570717,0.07236897200345993,-0.1228950023651123,0.08746062964200974,0.09451136738061905,0.3286150097846985
-0.059252310544252396,0.0728662982583046,-0.12223581969738007,0.08733568340539932,0.0939677432179451,0.32851818203926086
-0.06014420464634895,0.07232009619474411,-0.1233941912651062,0.08724913746118546,0.0942293182015419,0.3288246989250183
-0.059418611228466034,0.07247047871351242,-0.1226305440068245,0.08748383074998856,0.09452319145202637,0.32851648330688477
-0.06046140566468239,0.0720575824379921,-0.12383642792701721,0.08725077658891678,0.09443651139736176,0.32892584800720215
-0.05909470468759537,0.07233212888240814,-0.1225205510854721,0.08766806870698929,0.09518352150917053,0.32835057377815247
-0.060017138719558716,0.07115978002548218,-0.12416020780801773,0.08787846565246582,0.09664633870124817,0.3285665214061737
-0.05838039889931679,0.07239505648612976,-0.12190447747707367,0.08792664110660553,0.09572873264551163,0.32802826166152954
-0.060409318655729294,0.07093925774097443,-0.12457065284252167,0.08782738447189331,0.09662585705518723,0.3287138342857361
-0.060475047677755356,0.07106003910303116,-0.12455970048904419,0.08771951496601105,0.09636261314153671,0.3287663161754608
-0.06061013042926788,0.07063048332929611,-0.12489160150289536,0.08789661526679993,0.09692349284887314,0.3287450671195984
-0.06105257198214531,0.07035420835018158,-0.12551657855510712,0.08777698129415512,0.09721187502145767,0.32893043756484985
-0.060710564255714417,0.07038890570402145,-0.12509402632713318,0.08797642588615417,0.09722926467657089,0.3287508189678192
-0.060504455119371414,0.07049351185560226,-0.12495392560958862,0.08792009949684143,0.0975801944732666,0.3287515640258789
-0.06073305010795593,0.07024462521076202,-0.12540552020072937,0.08784548938274384,0.09812282770872116,0.32887178659439087
-0.06093418970704079,0.07004668563604355,-0.12571673095226288,0.08784319460391998,0.09830271452665329,0.3289244472980499
-0.06087278202176094,0.06988031417131424,-0.12564821541309357,0.08801773935556412,0.09836795181035995,0.3288218379020691
-0.06094759330153465,0.06981378048658371,-0.12584103643894196,0.08792529255151749,0.09875237941741943,0.3289182186126709
-0.060755498707294464,0.0694757029414177,-0.1257334202528,0.0882885754108429,0.09903959184885025,0.3286682069301605
-0.06036868318915367,0.06891108304262161,-0.1254197210073471,0.08899758756160736,0.09931977838277817,0.32816824316978455
-0.060950517654418945,0.06919228285551071,-0.12618903815746307,0.08815784007310867,0.09995095431804657,0.3288555443286896
-0.06058933213353157,0.06891556829214096,-0.12576228380203247,0.0886918380856514,0.09987200051546097,0.3284587264060974
-0.06093427911400795,0.06903664767742157,-0.12627777457237244,0.08821167796850204,0.10034197568893433,0.3288477659225464
-0.06126963347196579,0.06921624392271042,-0.12666720151901245,0.08775106817483902,0.10053818672895432,0.32921943068504333
-0.060890380293130875,0.06898124516010284,-0.12638293206691742,0.0882171019911766,0.10068465024232864,0.3288344740867615
-0.06121382489800453,0.06913751363754272,-0.12689802050590515,0.08771934360265732,0.10117755085229874,0.3292207419872284
-0.060726772993803024,0.06866759061813354,-0.12701402604579926,0.08821874856948853,0.10244737565517426,0.32878074049949646
-0.060462649911642075,0.06850279867649078,-0.1265227049589157,0.08869597315788269,0.10189668834209442,0.3284361958503723
-0.06090298667550087,0.06889508664608002,-0.12666507065296173,0.08817458152770996,0.10120362788438797,0.32886114716529846
-0.060427796095609665,0.06842450052499771,-0.12676015496253967,0.08864980936050415,0.10253621637821198,0.3284570276737213
-0.06090586632490158,0.06886976212263107,-0.1266915202140808,0.08817183971405029,0.10131210088729858,0.328874409198761
-0.060318101197481155,0.06838493049144745,-0.1269950419664383,0.08860786259174347,0.10327842831611633,0.32844170928001404
-0.06060321629047394,0.06861814856529236,-0.12739607691764832,0.08811197429895401,0.1036260724067688,0.3288191854953766
-0.06089208275079727,0.06886056810617447,-0.1277676224708557,0.08761999011039734,0.10390806198120117,0.32919707894325256
-0.06055527180433273,0.06853019446134567,-0.1276586353778839,0.08807791024446487,0.10428811609745026,0.3288172483444214
-0.060825932770967484,0.06872904300689697,-0.12795038521289825,0.08761756867170334,0.10465680807828903,0.32920247316360474
-0.06056526303291321,0.06856075674295425,-0.12770141661167145,0.08805686235427856,0.10423235595226288,0.3288137912750244
-0.06016051024198532,0.06817096471786499,-0.12780164182186127,0.0884767547249794,0.10526096820831299,0.32843491435050964
-0.060493528842926025,0.0685296431183815,-0.12785840034484863,0.08800309151411057,0.10485602170228958,0.32883214950561523
-0.060058627277612686,0.06804049015045166,-0.12794163823127747,0.08849693834781647,0.10602372884750366,0.328414648771286
-0.060538213700056076,0.06858449429273605,-0.12794636189937592,0.0879543125629425,0.1046881452202797,0.32883596420288086
-0.06063254177570343,0.06861987709999084,-0.1286427229642868,0.0874156728386879,0.10662835091352463,0.329227089881897
-0.060090404003858566,0.06795237958431244,-0.12881043553352356,0.08794339001178741,0.1086893230676651,0.32880866527557373
-0.0599365234375,0.06790608912706375,-0.1282583624124527,0.08842874318361282,0.10722237825393677,0.32841840386390686
-0.06003009155392647,0.06790386885404587,-0.12893415987491608,0.08789501339197159,0.10930703580379486,0.3288351595401764
-0.05988335981965065,0.06775717437267303,-0.12842458486557007,0.08845799416303635,0.10781874507665634,0.3283933997154236
-0.060045987367630005,0.06789366155862808,-0.1289759874343872,0.08787623792886734,0.10934347659349442,0.3288379907608032
-0.05980922281742096,0.06766051799058914,-0.1285647749900818,0.08844991773366928,0.10848721861839294,0.3283950984477997
-0.060170549899339676,0.0681072399020195,-0.12893739342689514,0.08782272785902023,0.10826867818832397,0.328798770904541
-0.059752486646175385,0.0676254853606224,-0.12870612740516663,0.08840285986661911,0.10906120389699936,0.3284132480621338
-0.0599367618560791,0.06779961287975311,-0.12933163344860077,0.08780046552419662,0.11045751720666885,0.3288275897502899
-0.05969016253948212,0.0675777941942215,-0.12885825335979462,0.08835531026124954,0.1097104549407959,0.3284372389316559
-0.05999964475631714,0.06781729310750961,-0.1294642835855484,0.0877542570233345,0.11035177856683731,0.32883504033088684
-0.05994197353720665,0.06728478521108627,-0.12950970232486725,0.08852694928646088,0.10953255742788315,0.3282373547554016
-0.059669531881809235,0.06772606819868088,-0.12894657254219055,0.08802255988121033,0.11056086421012878,0.3286994397640228
-0.05998845770955086,0.06753144413232803,-0.1297304779291153,0.08805987238883972,0.11036209762096405,0.32857006788253784
-0.06031692400574684,0.06769903749227524,-0.130624458193779,0.08752311021089554,0.1110863983631134,0.32886019349098206
-0.05999187380075455,0.06756899505853653,-0.12990495562553406,0.08791929483413696,0.11085868626832962,0.32866188883781433
-0.060260970145463943,0.06762924045324326,-0.1306867152452469,0.0874987244606018,0.11168629676103592,0.32890281081199646
-0.05979301407933235,0.06765053421258926,-0.13015636801719666,0.0874980166554451,0.11302489042282104,0.3290054202079773
-0.06027599424123764,0.06763862073421478,-0.13087540864944458,0.08738120645284653,0.11216427385807037,0.3289797902107239
-0.0598716177046299,0.06756698340177536,-0.13035574555397034,0.08752896636724472,0.11304454505443573,0.32896852493286133
-0.06018981337547302,0.0676903948187828,-0.13083018362522125,0.08727997541427612,0.11266706883907318,0.3290727138519287
-0.059894874691963196,0.06747014075517654,-0.13059817254543304,0.0876760184764862,0.11290254443883896,0.32880493998527527
-0.05959099531173706,0.06725263595581055,-0.13035020232200623,0.08804034441709518,0.11327766627073288,0.3285732865333557
-0.05981810763478279,0.06738488376140594,-0.1307707577943802,0.08766938000917435,0.1136692687869072,0.3288169205188751
-0.05959804356098175,0.067402184009552,-0.13094472885131836,0.08782365918159485,0.11365868151187897,0.3285858631134033
-0.059943921864032745,0.06715895980596542,-0.13049721717834473,0.08770506829023361,0.11411941051483154,0.32897618412971497
-0.06018516793847084,0.06721071898937225,-0.13114085793495178,0.08729904890060425,0.11509083211421967,0.32925426959991455
-0.06004975736141205,0.06715075671672821,-0.1306992918252945,0.08754638582468033,0.11463482677936554,0.3291168212890625
-0.059955764561891556,0.06727943569421768,-0.1313362419605255,0.08740868419408798,0.115208201110363,0.32905030250549316
-0.05971819907426834,0.06704983860254288,-0.13085626065731049,0.08783923834562302,0.11505221575498581,0.32880955934524536
-0.05912861227989197,0.0671834722161293,-0.13159418106079102,0.08811435103416443,0.11550559103488922,0.3282495141029358
-0.05967864394187927,0.06740979105234146,-0.13221608102321625,0.08736545592546463,0.11607068032026291,0.32882001996040344
-0.06023821979761124,0.06725048273801804,-0.13180291652679443,0.0870390236377716,0.11624199151992798,0.3293831944465637
-0.05964937061071396,0.06699955463409424,-0.1313864290714264,0.08776313066482544,0.11621536314487457,0.3288150131702423
-0.060236796736717224,0.06718388944864273,-0.13199938833713531,0.08702510595321655,0.11668411642313004,0.3293890357017517
-0.05961920693516731,0.06698022782802582,-0.13140186667442322,0.08778207749128342,0.11641284823417664,0.3288080096244812
-0.06025231257081032,0.06715644150972366,-0.1322742998600006,0.08697035908699036,0.11701331287622452,0.3293967843055725
-0.059623949229717255,0.06687753647565842,-0.13138209283351898,0.08783339709043503,0.1166607141494751,0.3288145363330841
-0.05899650603532791,0.06680107116699219,-0.1320497691631317,0.08823848515748978,0.11774937808513641,0.3282488286495209
-0.05973820760846138,0.06693527102470398,-0.13191665709018707,0.08755911886692047,0.11738625168800354,0.3289508521556854
-0.058811187744140625,0.06664194166660309,-0.13204807043075562,0.08846524357795715,0.11820710450410843,0.3280796408653259
-0.05968868359923363,0.0669301226735115,-0.13173682987689972,0.087624192237854,0.11735823005437851,0.3289267122745514
-0.058824557811021805,0.06660948693752289,-0.1321033239364624,0.08842669427394867,0.11862832307815552,0.3281228840351105
-0.05939140543341637,0.06661899387836456,-0.13292349874973297,0.08767609298229218,0.1202646791934967,0.32872405648231506
-0.05876662954688072,0.06653987616300583,-0.13214927911758423,0.08848188817501068,0.11900592595338821,0.32808274030685425
-0.059538379311561584,0.06650849431753159,-0.1327967494726181,0.08763401955366135,0.12043775618076324,0.32885369658470154
-0.058639902621507645,0.06648845970630646,-0.13233089447021484,0.08856016397476196,0.1194746270775795,0.32797831296920776
-0.0595075748860836,0.06650960445404053,-0.13174821436405182,0.08790912479162216,0.11907228827476501,0.32880306243896484
-0.05863017216324806,0.06639932096004486,-0.1323823183774948,0.08858879655599594,0.11991602927446365,0.3279780149459839
-0.05951886996626854,0.06640377640724182,-0.1316247135400772,0.08798837661743164,0.11913218349218369,0.32879403233528137
-0.06040460616350174,0.0662049725651741,-0.13167192041873932,0.08725590258836746,0.12034042924642563,0.329651415348053
-0.05951826646924019,0.06610487401485443,-0.1324150115251541,0.08788684010505676,0.12146778404712677,0.3288382291793823
-0.05863470956683159,0.06616250425577164,-0.13230778276920319,0.08868402242660522,0.12071669846773148,0.3279820382595062
-0.05950907617807388,0.06604991853237152,-0.1324687898159027,0.08788730949163437,0.12190919369459152,0.3288474977016449
-0.05864458531141281,0.06605704873800278,-0.13246922194957733,0.08868614584207535,0.1212523877620697,0.32798779010772705
-0.05952468141913414,0.06598365306854248,-0.13223311305046082,0.08795792609453201,0.12184716761112213,0.32885101437568665
-0.06041007488965988,0.06595267355442047,-0.13192418217658997,0.08722646534442902,0.1222333014011383,0.3297230899333954
-0.059570834040641785,0.06572069227695465,-0.13163799047470093,0.08820604532957077,0.12162066251039505,0.32882001996040344
-0.0604175366461277,0.06584921479225159,-0.13170237839221954,0.08733604848384857,0.12211515009403229,0.3296971023082733
-0.0595669150352478,0.06563419848680496,-0.13179324567317963,0.08819831162691116,0.12220209836959839,0.32882001996040344
-0.06040075421333313,0.06580508500337601,-0.13168875873088837,0.08733927458524704,0.12250535935163498,0.3296971023082733
-0.05958367884159088,0.06558416038751602,-0.13176500797271729,0.08822161704301834,0.1222665086388588,0.3288224935531616
-0.05874733254313469,0.06523381918668747,-0.1319006085395813,0.08910764008760452,0.12291114032268524,0.3279463052749634
-0.05959179997444153,0.06547357141971588,-0.13178059458732605,0.08824470639228821,0.12271783500909805,0.32882001996040344
-0.05876969173550606,0.06511083990335464,-0.13191279768943787,0.08913551270961761,0.12331434339284897,0.3279478847980499
-0.05966079235076904,0.06499773263931274,-0.1318722814321518,0.0883461982011795,0.1244339868426323,0.32882001996040344
-0.060474760830402374,0.06538949906826019,-0.13173168897628784,0.08744983375072479,0.12385480105876923,0.32969215512275696
-0.05955411121249199,0.06531748175621033,-0.13180968165397644,0.08835387229919434,0.12322279810905457,0.3287495970726013
-0.06074173003435135,0.0649104043841362,-0.13177619874477386,0.08754979074001312,0.12428246438503265,0.3297794461250305
-0.06041340529918671,0.06355280429124832,-0.1319829374551773,0.08872327953577042,0.12592297792434692,0.3290487229824066
-0.06089765578508377,0.06425745040178299,-0.13182897865772247,0.08791153877973557,0.12496435642242432,0.32971611618995667
-0.06025479733943939,0.0635148361325264,-0.13187842071056366,0.0893123522400856,0.12460514158010483,0.32879015803337097
-0.05997278541326523,0.062103673815727234,-0.13205328583717346,0.09072299301624298,0.12563802301883698,0.3280368149280548
-0.06033012643456459,0.06280077993869781,-0.13195493817329407,0.08987503498792648,0.1251465082168579,0.32861459255218506
-0.06133165955543518,0.06212785467505455,-0.13205069303512573,0.08952201157808304,0.12645766139030457,0.32937759160995483
-0.061595842242240906,0.06068674102425575,-0.13224132359027863,0.09057677537202835,0.12767601013183594,0.32913991808891296
-0.06095531955361366,0.060235925018787384,-0.13228106498718262,0.09185127168893814,0.12706051766872406,0.32832738757133484
-0.061486005783081055,0.060090675950050354,-0.1323152482509613,0.0912744551897049,0.1279149353504181,0.32882001996040344
-0.06153295189142227,0.05975215509533882,-0.13233661651611328,0.09213145822286606,0.1279381811618805,0.3287389874458313
-0.06173478066921234,0.05927300825715065,-0.1323770433664322,0.09307847917079926,0.12817040085792542,0.32876521348953247
-0.06191101670265198,0.058823954313993454,-0.13247379660606384,0.0929776057600975,0.1288188099861145,0.32880616188049316
-0.06186209246516228,0.058851972222328186,-0.1324319839477539,0.09362640976905823,0.12840242683887482,0.32875388860702515
-0.062215615063905716,0.057916466146707535,-0.13260094821453094,0.09376375377178192,0.12973558902740479,0.32882389426231384
-0.062093306332826614,0.0580277293920517,-0.13247473537921906,0.09479792416095734,0.1286524534225464,0.3287319839000702
-0.06232905387878418,0.0575408972799778,-0.13269692659378052,0.0936182513833046,0.13049030303955078,0.32885709404945374
-0.06258735805749893,0.05643738806247711,-0.13274028897285461,0.09579271078109741,0.13045141100883484,0.3287924528121948
-0.06273406744003296,0.0558791384100914,-0.13285547494888306,0.09579628705978394,0.13138695061206818,0.32883360981941223
-0.06274036318063736,0.05545682832598686,-0.13284753262996674,0.0969591811299324,0.13124346733093262,0.32878196239471436
-0.06288415193557739,0.05490074306726456,-0.13298682868480682,0.09616924077272415,0.1323164403438568,0.328872948884964
-0.06357133388519287,0.05016230419278145,-0.1333637684583664,0.10066806524991989,0.13532723486423492,0.3287995755672455
-0.06189044564962387,0.057934604585170746,-0.13247644901275635,0.09211426973342896,0.12889732420444489,0.32884371280670166
-0.06311661005020142,0.05226881802082062,-0.13318397104740143,0.09916483610868454,0.1341480165719986,0.3288477659225464
-0.06117954105138779,0.05300167575478554,-0.1325555443763733,0.09968600422143936,0.13236184418201447,0.32869818806648254
-0.0612468458712101,0.04984711855649948,-0.13272793591022491,0.1032407358288765,0.1345200389623642,0.32866400480270386
-0.06203769892454147,0.051201511174440384,-0.13290873169898987,0.100722536444664,0.1343175321817398,0.32877761125564575
-0.06173548474907875,0.049463387578725815,-0.1329030692577362,0.10253070294857025,0.13550010323524475,0.32876095175743103
-0.06144697219133377,0.05081990733742714,-0.132751926779747,0.10192431509494781,0.13404932618141174,0.328698068857193
-0.0615900456905365,0.048758622258901596,-0.1328412890434265,0.10226497054100037,0.13627685606479645,0.32882922887802124
-0.06030998006463051,0.04807994142174721,-0.13253572583198547,0.10373912751674652,0.13632416725158691,0.32873672246932983
-0.05888618156313896,0.046522267162799835,-0.13223102688789368,0.10564793646335602,0.13719633221626282,0.3286727964878082
-0.06040078401565552,0.04652184247970581,-0.13254302740097046,0.10389994829893112,0.13795167207717896,0.32884570956230164
-0.060216024518013,0.04706094413995743,-0.13269679248332977,0.10438072681427002,0.13754113018512726,0.3287608325481415
-0.05846643075346947,0.04547598958015442,-0.1320163607597351,0.10608798265457153,0.13793279230594635,0.32870984077453613
-0.0592319592833519,0.04587922245264053,-0.13229012489318848,0.10528835654258728,0.13802596926689148,0.32875731587409973
-0.059143178164958954,0.044350720942020416,-0.13210202753543854,0.10522592812776566,0.13949395716190338,0.32888150215148926
-0.05826938897371292,0.04472343251109123,-0.131943941116333,0.10634636133909225,0.138626366853714,0.32874345779418945
-0.05872487276792526,0.04307105019688606,-0.13191045820713043,0.10559247434139252,0.14070577919483185,0.3289473354816437
-0.05186067521572113,0.03736941143870354,-0.12971322238445282,0.11204207688570023,0.14242549240589142,0.32864490151405334
-0.059704918414354324,0.04365411028265953,-0.1321842074394226,0.10445771366357803,0.14060960710048676,0.32901108264923096
-0.0565660335123539,0.043617770075798035,-0.1313939243555069,0.10821006447076797,0.13859358429908752,0.328643798828125
-0.057433079928159714,0.04083556309342384,-0.1313510686159134,0.1066889762878418,0.14253471791744232,0.32902613282203674
-0.05555997043848038,0.04105379059910774,-0.13093416392803192,0.10900794714689255,0.1409374624490738,0.3287666440010071
-0.055355943739414215,0.039761293679475784,-0.13078922033309937,0.1090107262134552,0.14238137006759644,0.32886776328086853
-0.05465438961982727,0.0403488427400589,-0.13063876330852509,0.10988975316286087,0.14111964404582977,0.32873332500457764
-0.055153343826532364,0.038763970136642456,-0.13064244389533997,0.10900602489709854,0.14343717694282532,0.3289410471916199
-0.053261589258909225,0.03602408990263939,-0.12994274497032166,0.11062957346439362,0.1455058753490448,0.32899045944213867
-0.0560910739004612,0.03940741717815399,-0.13096846640110016,0.10800101608037949,0.1434229612350464,0.32899025082588196
-0.053065333515405655,0.04046430438756943,-0.1303509920835495,0.11152251809835434,0.14033429324626923,0.32856419682502747
-0.0536663718521595,0.03739190846681595,-0.13019941747188568,0.11035890877246857,0.14428147673606873,0.32891425490379333
-0.05167000740766525,0.03979041427373886,-0.12998372316360474,0.11290738731622696,0.14028407633304596,0.3284803628921509
-0.04808938130736351,0.02567698061466217,-0.1278095543384552,0.11448528617620468,0.15573708713054657,0.32940441370010376
-0.05058332905173302,0.03503667190670967,-0.12927745282649994,0.11316609382629395,0.1459483802318573,0.32885685563087463
-0.05017944425344467,0.0342998169362545,-0.1291760951280594,0.11348707973957062,0.14599639177322388,0.32884079217910767
-0.04964887350797653,0.03382900357246399,-0.12902672588825226,0.11389454454183578,0.14624284207820892,0.3288334012031555
-0.04919419437646866,0.03353492170572281,-0.12893173098564148,0.11421634256839752,0.14641761779785156,0.3288207948207855
-0.048668913543224335,0.03283996134996414,-0.12881477177143097,0.11462260037660599,0.1471318155527115,0.3288349211215973
-0.048216819763183594,0.032968681305646896,-0.1286391019821167,0.11483652144670486,0.14615079760551453,0.3287866413593292
-0.04932286590337753,0.03308065980672836,-0.1289883553981781,0.11419853568077087,0.14741410315036774,0.32886791229248047
-0.04733278229832649,0.03219227120280266,-0.12842421233654022,0.11543434858322144,0.1466083526611328,0.32877886295318604
-0.04689730331301689,0.03129080310463905,-0.128396138548851,0.11577810347080231,0.14807170629501343,0.32882019877433777
-0.04644618555903435,0.031363166868686676,-0.12825456261634827,0.11601448059082031,0.1473160684108734,0.3287786543369293
-0.0466642901301384,0.030817685648798943,-0.1283629983663559,0.11592967808246613,0.1486709713935852,0.32884201407432556
-0.04546571895480156,0.029070360586047173,-0.128197580575943,0.11674965918064117,0.15091344714164734,0.3288953900337219
-0.04559618979692459,0.02987048216164112,-0.12815584242343903,0.11657505482435226,0.14934000372886658,0.32883819937705994
-0.04447842761874199,0.028384728357195854,-0.12804436683654785,0.11729608476161957,0.15127874910831451,0.3288804292678833
-0.04571208357810974,0.02960323542356491,-0.1282082051038742,0.11652667075395584,0.150000661611557,0.32887032628059387
-0.04354115203022957,0.028644220903515816,-0.12779849767684937,0.11761155724525452,0.1495184600353241,0.3287917673587799
-0.044820915907621384,0.028869448229670525,-0.12810735404491425,0.11699015647172928,0.1505909115076065,0.32886967062950134
-0.03667284548282623,0.02475929632782936,-0.12693993747234344,0.12089118361473083,0.1508275866508484,0.32865065336227417
-0.04206420108675957,0.027231795713305473,-0.12773913145065308,0.11832492053508759,0.15105660259723663,0.3288138210773468
-0.04162494093179703,0.026505568996071815,-0.12786541879177094,0.11843640357255936,0.15222421288490295,0.3288532495498657
-0.04337931051850319,0.027616627514362335,-0.12801261246204376,0.11768704652786255,0.151718407869339,0.3288775384426117
-0.04068414121866226,0.0264667347073555,-0.12768739461898804,0.11880819499492645,0.15135395526885986,0.3287922143936157
-0.03804212808609009,0.024863552302122116,-0.1276598423719406,0.11977638304233551,0.15239591896533966,0.328763484954834
-0.03977249935269356,0.025933489203453064,-0.12779366970062256,0.11905045062303543,0.1518627107143402,0.32878854870796204
-0.036658450961112976,0.02413203939795494,-0.1278144270181656,0.1201309785246849,0.15301889181137085,0.3287498950958252
-0.03871665894985199,0.02553064562380314,-0.12773996591567993,0.11943172663450241,0.15177381038665771,0.32875603437423706
-0.041405271738767624,0.026943417266011238,-0.12932088971138,0.11734174937009811,0.1537889838218689,0.3289010524749756
-0.03773436322808266,0.024661708623170853,-0.13048432767391205,0.11773793399333954,0.15726809203624725,0.32893985509872437
-0.03534555435180664,0.023706799373030663,-0.12883059680461884,0.11972855031490326,0.15445497632026672,0.32877132296562195
-0.03681330010294914,0.024593988433480263,-0.12930753827095032,0.118879035115242,0.15463867783546448,0.3288160264492035
-0.03623189032077789,0.024695347994565964,-0.1311308890581131,0.11775092035531998,0.15683521330356598,0.3288794755935669
-0.03844799846410751,0.02565208077430725,-0.13024140894412994,0.11765488982200623,0.15538930892944336,0.32888421416282654
-0.03530081361532211,0.0238785482943058,-0.12970714271068573,0.11902327835559845,0.15520066022872925,0.3288041651248932
-0.03533324599266052,0.024110794067382812,-0.13046146929264069,0.11845488846302032,0.15598855912685394,0.32883110642433167
-0.034355051815509796,0.023873107507824898,-0.13137108087539673,0.11809320002794266,0.15703846514225006,0.32884207367897034
-0.03393523395061493,0.023427441716194153,-0.13057547807693481,0.11877013742923737,0.15598949790000916,0.32879894971847534
-0.03477940708398819,0.024084342643618584,-0.1313641518354416,0.11796308308839798,0.15700845420360565,0.32885172963142395
-0.03319677710533142,0.023311417549848557,-0.13150975108146667,0.1182510107755661,0.1568528711795807,0.32881441712379456
-0.034198105335235596,0.02403276041150093,-0.13209758698940277,0.11758442968130112,0.15760402381420135,0.328856498003006
-0.03240928053855896,0.0229488555341959,-0.1316557675600052,0.11829649657011032,0.15675193071365356,0.3287977874279022
-0.03261920437216759,0.023476099595427513,-0.13280248641967773,0.11739224195480347,0.15786872804164886,0.32883429527282715
-0.03171117976307869,0.022772615775465965,-0.13209426403045654,0.11809079349040985,0.15692399442195892,0.3287895917892456
-0.032456446439027786,0.023810189217329025,-0.1336877942085266,0.11665968596935272,0.15852831304073334,0.32885080575942993
-0.030997805297374725,0.0240614116191864,-0.13605238497257233,0.1150248795747757,0.16015371680259705,0.3288724720478058
-0.02980261854827404,0.023054873570799828,-0.13477355241775513,0.11606612056493759,0.15845879912376404,0.3288049101829529
-0.030280787497758865,0.02291075885295868,-0.13325466215610504,0.1169106513261795,0.15702004730701447,0.3287719190120697
-0.029146727174520493,0.022942151874303818,-0.13526755571365356,0.11572585999965668,0.15866263210773468,0.3288015127182007
-0.029449453577399254,0.02354590967297554,-0.13592514395713806,0.11500906199216843,0.15924584865570068,0.3288213014602661
-0.028582803905010223,0.023460805416107178,-0.13626466691493988,0.11463193595409393,0.1591179221868515,0.32880422472953796
-0.029600629583001137,0.023971443995833397,-0.13679547607898712,0.11443036049604416,0.16014790534973145,0.3288455605506897
-0.028432369232177734,0.02300996333360672,-0.13573727011680603,0.11516768485307693,0.15865887701511383,0.32879242300987244
-0.028696002438664436,0.02418520674109459,-0.13761785626411438,0.11356067657470703,0.16035382449626923,0.3288382589817047
-0.027661707252264023,0.024513859301805496,-0.13866494596004486,0.11246496438980103,0.16066883504390717,0.32883167266845703
-0.027252063155174255,0.023720545694231987,-0.13790740072727203,0.11339502036571503,0.16008390486240387,0.3288101851940155
-0.028306126594543457,0.024919584393501282,-0.1389523446559906,0.11224847286939621,0.16118842363357544,0.32885369658470154
-0.02629154548048973,0.023992959409952164,-0.13904307782649994,0.11246457695960999,0.1606532633304596,0.32880958914756775
-0.026202905923128128,0.024671683087944984,-0.14006273448467255,0.1114058643579483,0.16132427752017975,0.3288280665874481
-0.025413911789655685,0.02521396428346634,-0.1414015144109726,0.11014743149280548,0.16202412545681,0.3288368284702301
-0.025346320122480392,0.02477649599313736,-0.14091026782989502,0.1107550859451294,0.16171126067638397,0.32882627844810486
-0.024498729035258293,0.02513384446501732,-0.14210358262062073,0.10974764823913574,0.16233451664447784,0.3288309574127197
-0.023948971182107925,0.02405395545065403,-0.14136533439159393,0.1110515296459198,0.161868155002594,0.32880479097366333
-0.02552078478038311,0.02557249367237091,-0.1417515128850937,0.10966721922159195,0.16225366294384003,0.32884645462036133
-0.023077473044395447,0.025222012773156166,-0.14344748854637146,0.10877250134944916,0.16294555366039276,0.32882869243621826
-0.02264617383480072,0.024196811020374298,-0.14278322458267212,0.10997895151376724,0.16258014738559723,0.3288075923919678
-0.024299006909132004,0.025788776576519012,-0.14303810894489288,0.10864390432834625,0.16285042464733124,0.3288460969924927
-0.021684223785996437,0.024741504341363907,-0.14421920478343964,0.10861918330192566,0.16330425441265106,0.32881593704223633
-0.0211209524422884,0.024864474311470985,-0.1448502093553543,0.10809429734945297,0.16361810266971588,0.32881706953048706
-0.02082686871290207,0.02492651343345642,-0.14524102210998535,0.10777904093265533,0.16389617323875427,0.3288205862045288
-0.02036106213927269,0.024762406945228577,-0.1454036384820938,0.10777962952852249,0.16385674476623535,0.3288124203681946
-0.02063160389661789,0.025102762505412102,-0.14557583630084991,0.10719982534646988,0.16412018239498138,0.3288319706916809
-0.01966828666627407,0.02425653673708439,-0.14539922773838043,0.10822973400354385,0.16367313265800476,0.32879146933555603
-0.0176303219050169,0.02423742599785328,-0.14713501930236816,0.1068488135933876,0.16451433300971985,0.32879021763801575
-0.019029807299375534,0.024198438972234726,-0.14587953686714172,0.10778005421161652,0.1639600247144699,0.32879382371902466
-0.019877757877111435,0.02483895607292652,-0.14588449895381927,0.10663742572069168,0.16445443034172058,0.3288426697254181
-0.01840190775692463,0.0247387383133173,-0.14700621366500854,0.10551805794239044,0.16507171094417572,0.3288489878177643
-0.01697348617017269,0.023805053904652596,-0.1470692753791809,0.10646217316389084,0.16458459198474884,0.32880017161369324
-0.0178980715572834,0.024549076333642006,-0.1472107321023941,0.10539659112691879,0.1651466190814972,0.3288453221321106
-0.01823599636554718,0.024056360125541687,-0.14631502330303192,0.10629595816135406,0.16457991302013397,0.32883262634277344
-0.01734413579106331,0.023182082921266556,-0.14600026607513428,0.10719034075737,0.16405977308750153,0.32879769802093506
-0.016550594940781593,0.0234223585575819,-0.14697186648845673,0.10609471052885056,0.16466426849365234,0.3288107216358185
-0.016869405284523964,0.023014210164546967,-0.146203875541687,0.10710587352514267,0.16410432755947113,0.32879236340522766
-0.016508905217051506,0.023305529728531837,-0.14692580699920654,0.1059260442852974,0.16474853456020355,0.32881781458854675
-0.01693466305732727,0.02319851517677307,-0.14641661942005157,0.1073201596736908,0.16423574090003967,0.3287855088710785
-0.01615866646170616,0.022873539477586746,-0.1466323435306549,0.10573288053274155,0.1644672304391861,0.32882001996040344
-0.015615787357091904,0.022720402106642723,-0.14686399698257446,0.10439334809780121,0.16471973061561584,0.32885032892227173
-0.01578363962471485,0.022817624732851982,-0.14704781770706177,0.1055583655834198,0.16480250656604767,0.32881858944892883
-0.01545256283134222,0.022621046751737595,-0.14693805575370789,0.10427586734294891,0.164777472615242,0.32885128259658813
-0.015416867099702358,0.022320743650197983,-0.14691129326820374,0.10542041808366776,0.16470734775066376,0.32881927490234375
-0.015318411402404308,0.022494986653327942,-0.1469978243112564,0.10412001609802246,0.1648169904947281,0.32885342836380005
-0.015306148678064346,0.02219254896044731,-0.14691103994846344,0.10530822724103928,0.16472990810871124,0.32882148027420044
-0.015097127296030521,0.022226186469197273,-0.1471235603094101,0.1041443943977356,0.16495181620121002,0.3288503885269165
-0.015249774791300297,0.022124629467725754,-0.14688919484615326,0.10519245266914368,0.16471439599990845,0.32882386445999146
-0.015064257197082043,0.02167985402047634,-0.14697156846523285,0.10616204887628555,0.1647702157497406,0.32879483699798584
-0.014815560542047024,0.021594537422060966,-0.14716890454292297,0.10510549694299698,0.1650020033121109,0.3288209140300751
-0.014835979789495468,0.02131166309118271,-0.14703966677188873,0.10612726211547852,0.16487903892993927,0.32879406213760376
-0.014851783402264118,0.021594570949673653,-0.14707791805267334,0.10503607243299484,0.1648888885974884,0.3288224935531616
-0.014661758206784725,0.020984042435884476,-0.1470664143562317,0.10612799972295761,0.1649278998374939,0.32879236340522766
-0.014859815128147602,0.021578194573521614,-0.1470433622598648,0.1049722209572792,0.16485336422920227,0.3288242220878601
-0.014474919997155666,0.020648857578635216,-0.14711275696754456,0.10612013936042786,0.16499383747577667,0.3287905156612396
-0.013561136089265347,0.019359545782208443,-0.14741814136505127,0.1049162968993187,0.16539819538593292,0.328813761472702
-0.014288054779171944,0.020306065678596497,-0.1471349447965622,0.10603838413953781,0.1650194227695465,0.3287905752658844
-0.014508306980133057,0.020871542394161224,-0.14707113802433014,0.10484200716018677,0.16487672924995422,0.32882434129714966
-0.014064723625779152,0.019932860508561134,-0.1472194492816925,0.10594966262578964,0.16509033739566803,0.3287903964519501
-0.014498681761324406,0.02086385153234005,-0.1470964103937149,0.10474029183387756,0.16485488414764404,0.3288266956806183
-0.0138408737257123,0.0195778775960207,-0.14732985198497772,0.10592188686132431,0.16514351963996887,0.3287878930568695
-0.012678775005042553,0.01795581541955471,-0.14788085222244263,0.10456965863704681,0.16558167338371277,0.3288102149963379
-0.013611147180199623,0.01929200254380703,-0.14749735593795776,0.10576622933149338,0.16522958874702454,0.32878899574279785
-0.01254509948194027,0.017917439341545105,-0.14808493852615356,0.10436727851629257,0.16561833024024963,0.32881268858909607
-0.013404909521341324,0.019027452915906906,-0.14762252569198608,0.10572055727243423,0.16524691879749298,0.32878637313842773
-0.013464593328535557,0.019871992990374565,-0.14806143939495087,0.10408195108175278,0.16504870355129242,0.32882389426231384
-0.012331102043390274,0.018823621794581413,-0.1489575207233429,0.10203894972801208,0.16540472209453583,0.3288596570491791
-0.0120155680924654,0.017828231677412987,-0.14874953031539917,0.10373057425022125,0.16563260555267334,0.32881343364715576
-0.01220631506294012,0.018685566261410713,-0.14897559583187103,0.10244491696357727,0.16541363298892975,0.3288455009460449
-0.012496115639805794,0.01943703182041645,-0.14881166815757751,0.10326459258794785,0.1651146560907364,0.3288205564022064
-0.01198857557028532,0.018613088876008987,-0.14911647140979767,0.10197415202856064,0.16533051431179047,0.32885119318962097
-0.011067187413573265,0.01768479496240616,-0.1493276208639145,0.10273391753435135,0.16531062126159668,0.32880768179893494
-0.011152436956763268,0.018547117710113525,-0.1493014246225357,0.10344355553388596,0.16493231058120728,0.3287777006626129
-0.01089887972921133,0.017618807032704353,-0.14946579933166504,0.10218333452939987,0.16529813408851624,0.3288183808326721
-0.01085282675921917,0.018504705280065536,-0.14939069747924805,0.10346309095621109,0.1647849678993225,0.3287663459777832
-0.010927114635705948,0.01933748461306095,-0.14962252974510193,0.10158097743988037,0.1644807755947113,0.32881253957748413
-0.010645942762494087,0.018456021323800087,-0.14940683543682098,0.10355956107378006,0.1646239310503006,0.32875561714172363
-0.009986164048314095,0.017500489950180054,-0.14978215098381042,0.10097464919090271,0.1647433042526245,0.3288205862045288
-0.00987403467297554,0.018397418782114983,-0.1500428318977356,0.09918959438800812,0.1643124371767044,0.3288571238517761
-0.009790098294615746,0.017463579773902893,-0.14987033605575562,0.10045916587114334,0.16465142369270325,0.32882922887802124
-0.009591355919837952,0.018317846581339836,-0.1497742235660553,0.10114795714616776,0.16403822600841522,0.3287913501262665
-0.009503357112407684,0.017388561740517616,-0.14988316595554352,0.09992238134145737,0.1644395887851715,0.3288360834121704
-0.009383950382471085,0.018186844885349274,-0.1496901661157608,0.10117121785879135,0.16388538479804993,0.32878583669662476
-0.009166237898170948,0.01739281229674816,-0.1498216688632965,0.09936536848545074,0.16404376924037933,0.32883989810943604
-0.008516818284988403,0.01793467439711094,-0.14975188672542572,0.09854795038700104,0.16317252814769745,0.32883530855178833
-0.008942678570747375,0.017398826777935028,-0.14982472360134125,0.09881585091352463,0.16382922232151031,0.3288481533527374
-0.008066592738032341,0.01799040101468563,-0.14962650835514069,0.09849020093679428,0.16274935007095337,0.3288220167160034
-0.007798012346029282,0.017219452187418938,-0.14954885840415955,0.09777255356311798,0.16285833716392517,0.3288425803184509
-0.008723066188395023,0.017926644533872604,-0.14978106319904327,0.09886134415864944,0.16338494420051575,0.32883381843566895
-0.007196749094873667,0.017388705164194107,-0.14940348267555237,0.09723319113254547,0.16218651831150055,0.3288351893424988
-0.008667831309139729,0.017953496426343918,-0.1497916877269745,0.09873776882886887,0.16338273882865906,0.3288358747959137
-0.006560088135302067,0.01856060139834881,-0.14931969344615936,0.09711107611656189,0.16125546395778656,0.32880690693855286
-0.007278595119714737,0.01631118357181549,-0.14948824048042297,0.0965198427438736,0.16312165558338165,0.3288758397102356
-0.007172508630901575,0.020280245691537857,-0.14946001768112183,0.09852920472621918,0.16097845137119293,0.3287665843963623
-0.0061498358845710754,0.017098674550652504,-0.14923372864723206,0.09575139731168747,0.161789208650589,0.3288520872592926
-0.005325278267264366,0.018368735909461975,-0.14904820919036865,0.09560131281614304,0.16051417589187622,0.3288158178329468
-0.004234988242387772,0.019455377012491226,-0.14881440997123718,0.09506401419639587,0.1591499149799347,0.3287848234176636
-0.004356768447905779,0.01835332065820694,-0.1488521844148636,0.09451174736022949,0.15997086465358734,0.32882046699523926
-0.004259141627699137,0.019310839474201202,-0.1487807184457779,0.09501683712005615,0.15913285315036774,0.32878708839416504
-0.003997947089374065,0.018266817554831505,-0.14872750639915466,0.09407585114240646,0.15985409915447235,0.32882586121559143
-0.003563781501725316,0.019837528467178345,-0.14864888787269592,0.09454601258039474,0.1585230529308319,0.32877612113952637
-0.004283507354557514,0.018690193071961403,-0.1487191766500473,0.09466160088777542,0.15951776504516602,0.32880735397338867
-0.0026241722516715527,0.019322486594319344,-0.14842239022254944,0.09310796856880188,0.15860386192798615,0.328804612159729
-0.004421668127179146,0.018878303468227386,-0.14874735474586487,0.09493597596883774,0.15940140187740326,0.3287990391254425
-0.002480058930814266,0.018643638119101524,-0.14832371473312378,0.09248393774032593,0.15899060666561127,0.32882922887802124
-0.0019891231786459684,0.020034082233905792,-0.14824268221855164,0.09287608414888382,0.15785841643810272,0.32878464460372925
-0.0029902018141001463,0.01685318723320961,-0.14827781915664673,0.09182614088058472,0.1603187471628189,0.3288872241973877
0.0009331151377409697,0.02300289459526539,-0.1478157490491867,0.0929817408323288,0.15333595871925354,0.3286304175853729
-0.0028393135871738195,0.019365383312106133,-0.148397296667099,0.09338565915822983,0.15856555104255676,0.32879921793937683
0.000684760045260191,0.02185603231191635,-0.147531196475029,0.09087252616882324,0.15562644600868225,0.32875117659568787
-0.0010459134355187416,0.019564786925911903,-0.1478259265422821,0.09108094125986099,0.15773989260196686,0.32881447672843933
0.0002194573316955939,0.020650550723075867,-0.14749419689178467,0.09015844762325287,0.1565326750278473,0.3287910223007202
0.0005609022337011993,0.019752977415919304,-0.14723101258277893,0.08871498703956604,0.15693123638629913,0.32883018255233765
0.0006903160829097033,0.02081787958741188,-0.14730927348136902,0.08953060954809189,0.15620362758636475,0.3287918269634247
0.0005528651527129114,0.01997338980436325,-0.14719152450561523,0.0887044370174408,0.1567288190126419,0.3288239538669586
0.0003374982625246048,0.021114613860845566,-0.14728088676929474,0.08945787698030472,0.1559290885925293,0.3287853002548218
0.0011030539171770215,0.020217854529619217,-0.14712148904800415,0.08849513530731201,0.15645591914653778,0.32881829142570496
0.0006520262104459107,0.020843183621764183,-0.14715707302093506,0.08879131823778152,0.15599900484085083,0.32879894971847534
0.00039774063043296337,0.02062537521123886,-0.14698104560375214,0.08781791478395462,0.15596002340316772,0.32881540060043335
0.0009311973117291927,0.020832765847444534,-0.14699921011924744,0.0880947858095169,0.15582242608070374,0.3288058936595917
0.0004528967838268727,0.02074739709496498,-0.1467588245868683,0.08705314993858337,0.15560945868492126,0.3288201689720154
0.0011342450743541121,0.021052246913313866,-0.1469874083995819,0.08804591745138168,0.15561702847480774,0.32880017161369324
0.0003850885259453207,0.02086082100868225,-0.14659123122692108,0.08628074079751968,0.15530160069465637,0.3288254737854004
0.0012490571243688464,0.021170783787965775,-0.1464705467224121,0.08582364022731781,0.15488336980342865,0.3288203775882721
0.00046642450615763664,0.021196359768509865,-0.1463860422372818,0.08544844388961792,0.15475663542747498,0.3288250267505646
0.0013187127187848091,0.021226298063993454,-0.14639799296855927,0.08569154888391495,0.15476326644420624,0.3288203477859497
0.0022529440466314554,0.021841969341039658,-0.14605915546417236,0.08453480899333954,0.153826043009758,0.32881468534469604
0.0013548143906518817,0.021632423624396324,-0.14615605771541595,0.08470632135868073,0.15410608053207397,0.3288201689720154
0.0022894837893545628,0.022197598591446877,-0.14583459496498108,0.08367267996072769,0.1532418578863144,0.32881462574005127
0.0014412861783057451,0.022847257554531097,-0.1453319489955902,0.08169721066951752,0.15206153690814972,0.32882004976272583
0.0006767261656932533,0.022183125838637352,-0.14557214081287384,0.08278530091047287,0.1529722511768341,0.3288256525993347
0.0016417467268183827,0.021728066727519035,-0.14575456082820892,0.08401980996131897,0.15366870164871216,0.32882067561149597
0.0008739533950574696,0.022440852597355843,-0.14533808827400208,0.08212649822235107,0.1524936556816101,0.3288247883319855
0.0018519286531955004,0.022515451535582542,-0.1450180858373642,0.08196308463811874,0.15218915045261383,0.32882004976272583
0.002868977375328541,0.022718258202075958,-0.14456991851329803,0.08145495504140854,0.15163716673851013,0.3288152515888214
0.0020970753394067287,0.02267301455140114,-0.1445879191160202,0.08131732791662216,0.15167593955993652,0.3288198411464691
0.0031007034704089165,0.022806301712989807,-0.1439247578382492,0.08084690570831299,0.1510467231273651,0.3288155496120453
0.0024114465340971947,0.02267218939960003,-0.144583061337471,0.08142584562301636,0.15168850123882294,0.3288179934024811
0.0021387143060564995,0.022796660661697388,-0.1434566080570221,0.08024708181619644,0.15067988634109497,0.32882267236709595
0.002692577661946416,0.022716553881764412,-0.1440407931804657,0.08114375919103622,0.15124185383319855,0.3288173973560333
0.0022225864231586456,0.022834012284874916,-0.14254528284072876,0.0796535536646843,0.14995954930782318,0.3288242518901825
0.002999461954459548,0.02301955595612526,-0.14028413593769073,0.07811176776885986,0.14807282388210297,0.3288247883319855
0.002586922375485301,0.022847838699817657,-0.14206291735172272,0.07956849038600922,0.14960147440433502,0.3288227617740631
0.001878966111689806,0.02296731248497963,-0.1412741094827652,0.07820262759923935,0.14882400631904602,0.32883018255233765
0.0033524043392390013,0.022951703518629074,-0.14021170139312744,0.0786767229437828,0.14812858402729034,0.3288215696811676
0.002577416831627488,0.022878991439938545,-0.1409812569618225,0.07912840694189072,0.1487637460231781,0.3288240432739258
0.00392520846799016,0.022765064612030983,-0.13974229991436005,0.08004692196846008,0.14806264638900757,0.3288149833679199
0.002284879330545664,0.022899474948644638,-0.14084166288375854,0.07889148592948914,0.14862288534641266,0.32882606983184814
0.00792864803224802,0.02265324257314205,-0.1324622929096222,0.07983598113059998,0.14318083226680756,0.328796923160553
-0.004205589182674885,0.02328607439994812,-0.1496829241514206,0.0767490416765213,0.15337388217449188,0.32886233925819397
0.0033045548480004072,0.022902697324752808,-0.13754050433635712,0.07848448306322098,0.1466185748577118,0.3288222551345825
0.005796165205538273,0.02273094467818737,-0.13703379034996033,0.07959354668855667,0.14617089927196503,0.3288083076477051
0.003738861531019211,0.022890526801347733,-0.13357877731323242,0.0779024139046669,0.14335069060325623,0.32882070541381836
0.004107213579118252,0.02283845841884613,-0.13578587770462036,0.07857111841440201,0.1450507640838623,0.3288179636001587
0.0043867710046470165,0.02284916676580906,-0.13500066101551056,0.07844463735818863,0.14447394013404846,0.32881689071655273
0.0037131081335246563,0.0228666253387928,-0.1340709775686264,0.0781387984752655,0.14373895525932312,0.32882022857666016
0.003320360789075494,0.022874709218740463,-0.13374605774879456,0.07801318913698196,0.14347244799137115,0.3288220763206482
0.0036628437228500843,0.02284909598529339,-0.1331128180027008,0.07811289280653,0.14305201172828674,0.3288201093673706
0.003279899014160037,0.022880785167217255,-0.13250984251499176,0.0779023990035057,0.14255209267139435,0.32882189750671387
0.0030925017781555653,0.022909067571163177,-0.1316838413476944,0.07773897796869278,0.1419011801481247,0.32882264256477356
0.003422882640734315,0.0228586383163929,-0.1310577690601349,0.07787027209997177,0.1415136754512787,0.32882073521614075
0.003351145423948765,0.0228324756026268,-0.13024064898490906,0.0778212696313858,0.1409347951412201,0.3288208246231079
0.003390795551240444,0.022789310663938522,-0.1296030580997467,0.07785078883171082,0.14051499962806702,0.32882043719291687
0.00346558541059494,0.02278474159538746,-0.12894968688488007,0.07781795412302017,0.14003784954547882,0.32881975173950195
0.0032859141938388348,0.02277459390461445,-0.12829230725765228,0.07769617438316345,0.13954436779022217,0.32882025837898254
0.0033414987847208977,0.022688157856464386,-0.12743796408176422,0.07776258140802383,0.13900241255760193,0.3288193941116333
0.0026006819680333138,0.022826913744211197,-0.12681473791599274,0.07717078924179077,0.13831035792827606,0.32882222533226013
0.005068324040621519,0.021876109763979912,-0.12610670924186707,0.07938060909509659,0.13901613652706146,0.32881036400794983
-0.00447801360860467,0.023329531773924828,-0.12015160173177719,0.0735960379242897,0.1322670578956604,0.32883772253990173
0.005175648722797632,0.022343114018440247,-0.12537415325641632,0.07756964862346649,0.1376979947090149,0.32881960272789
0.0027058455161750317,0.021909164264798164,-0.1236177310347557,0.07778134942054749,0.13655276596546173,0.328817754983902
0.0020822975784540176,0.02195899933576584,-0.12310026586055756,0.0773283839225769,0.13618192076683044,0.3288201093673706
0.0005801047082059085,0.02220408245921135,-0.12218347191810608,0.07613658905029297,0.13502152264118195,0.3288259506225586
0.001694939099252224,0.02156577631831169,-0.12085618823766708,0.07734468579292297,0.13471440970897675,0.3288193345069885
-0.0005455074133351445,0.021773364394903183,-0.12062130868434906,0.07563475519418716,0.13379070162773132,0.3288288414478302
0.0015321295941248536,0.02162248268723488,-0.12095809727907181,0.07812760770320892,0.13509120047092438,0.328814297914505
0.0004815037245862186,0.02123434469103813,-0.11926263570785522,0.07669301331043243,0.13334599137306213,0.3288227319717407
0.0015136103611439466,0.02100987173616886,-0.1185920462012291,0.07749812304973602,0.13321349024772644,0.3288176953792572
-0.0014050278114154935,0.02088732272386551,-0.11777856200933456,0.0756497010588646,0.13186125457286835,0.3288290798664093
0.0005987556069158018,0.0214630588889122,-0.1199038028717041,0.07663056254386902,0.1337401419878006,0.328823059797287
0.0013085117097944021,0.02049592137336731,-0.11660750955343246,0.07761313021183014,0.1317918598651886,0.32881641387939453
0.0003001029836013913,0.020179713144898415,-0.11538536846637726,0.07711537927389145,0.1306927353143692,0.3288193643093109
0.00015491210797335953,0.020023811608552933,-0.11493459343910217,0.07718701660633087,0.13060329854488373,0.32881906628608704
-0.0006536904256790876,0.02004033327102661,-0.11481133848428726,0.07658267766237259,0.13009731471538544,0.32882267236709595
-0.00019444945792201906,0.01982174813747406,-0.11415950208902359,0.07700148224830627,0.12961244583129883,0.3288203477859497
0.00026258121943101287,0.0195419080555439,-0.11337917298078537,0.07749806344509125,0.12913018465042114,0.32881778478622437
-0.0004872949211858213,0.019352329894900322,-0.1129220575094223,0.0772172138094902,0.12882353365421295,0.3288201689720154
1.3792623576591723e-05,0.019090982154011726,-0.11218211054801941,0.07770879566669464,0.1283041387796402,0.32881754636764526
-0.0008208537474274635,0.01921350695192814,-0.11258330196142197,0.07713440805673599,0.12856942415237427,0.3288211226463318
-0.0023549541365355253,0.016964243724942207,-0.10809381306171417,0.07802045345306396,0.12446051090955734,0.3288211524486542
-0.0020525630097836256,0.018332576379179955,-0.1103137880563736,0.07712286710739136,0.12700285017490387,0.32882359623908997
-0.0012788086896762252,0.01737317256629467,-0.10774444043636322,0.07830261439085007,0.12512843310832977,0.3288182020187378
-0.0027220798656344414,0.01788076013326645,-0.10913559049367905,0.07710236310958862,0.1261974573135376,0.3288249671459198
-0.0015435548266395926,0.01773064211010933,-0.10872982442378998,0.07790431380271912,0.12577243149280548,0.328820139169693
-0.0029733742121607065,0.017471615225076675,-0.10809273272752762,0.07727918028831482,0.12539097666740417,0.328824907541275
-0.0018340343376621604,0.017737412825226784,-0.10875687748193741,0.07773327827453613,0.12579786777496338,0.32882124185562134
-0.002892161486670375,0.01702743023633957,-0.10695493966341019,0.07766493409872055,0.12445025891065598,0.3288235366344452
-0.002083003055304289,0.0167839415371418,-0.10633762180805206,0.07831139117479324,0.12386588007211685,0.3288199305534363
-0.0012116305297240615,0.016642257571220398,-0.10598281025886536,0.0789070725440979,0.12350349128246307,0.32881632447242737
-0.0023228193167597055,0.016392774879932404,-0.1053541898727417,0.07849399000406265,0.12302197515964508,0.3288198709487915
-0.0015711711021140218,0.016208205372095108,-0.10491219162940979,0.07903175801038742,0.12258677184581757,0.32881665229797363
-0.0025618509389460087,0.01638765260577202,-0.10533702373504639,0.07836676388978958,0.12301690876483917,0.32882076501846313
-0.003946234937757254,0.01584293320775032,-0.10399548709392548,0.07801245898008347,0.12192647904157639,0.3288246691226959
-0.0028112505096942186,0.01601972058415413,-0.1044493094086647,0.07850055396556854,0.1222606971859932,0.3288208544254303
-0.003990266937762499,0.01550731249153614,-0.10317031294107437,0.07827494293451309,0.12119709700345993,0.3288240432739258
-0.0030224910005927086,0.016040747985243797,-0.10451135039329529,0.07837303727865219,0.12233461439609528,0.32882168889045715
-0.00229825172573328,0.015111383982002735,-0.10228772461414337,0.07951118797063828,0.12035045027732849,0.32881683111190796
-0.0032586222514510155,0.01415285374969244,-0.09993477910757065,0.07978644967079163,0.11832883954048157,0.32881811261177063
-0.004224754869937897,0.014828300103545189,-0.1015508770942688,0.07875766605138779,0.11978995054960251,0.3288232088088989
-0.003463649656623602,0.014428368769586086,-0.10061495006084442,0.07948121428489685,0.11894100159406662,0.3288194537162781
-0.0030883029103279114,0.014488262124359608,-0.10080892592668533,0.07979217171669006,0.119083933532238,0.3288179337978363
-0.003687648568302393,0.014662251807749271,-0.10122382640838623,0.07947392761707306,0.11945553869009018,0.3288203179836273
-0.004037749022245407,0.01426964532583952,-0.1002238318324089,0.07946736365556717,0.11860101670026779,0.3288209140300751
-0.0034622633829712868,0.014094129204750061,-0.09990619868040085,0.08023814111948013,0.11826734989881516,0.328817754983902
-0.004054408520460129,0.014598634093999863,-0.10103338211774826,0.07927428930997849,0.1193045899271965,0.3288216292858124
-0.0042862375266849995,0.013838411308825016,-0.09919440001249313,0.07981856167316437,0.11767959594726562,0.32882052659988403
-0.0042712795548141,0.013630704022943974,-0.09885511547327042,0.08041935414075851,0.11735032498836517,0.32881906628608704
-0.0037090384867042303,0.01468548271805048,-0.10164415836334229,0.08013544976711273,0.11983010917901993,0.3288189470767975
-0.004845512565225363,0.013532635755836964,-0.09817322343587875,0.07935860753059387,0.11677148193120956,0.3288227319717407
-0.00533308694139123,0.012421299703419209,-0.09556269645690918,0.08037757873535156,0.11442727595567703,0.32882097363471985
-0.005040399264544249,0.013267891481518745,-0.09753351658582687,0.07954057306051254,0.11619406938552856,0.32882264256477356
-0.005532832350581884,0.012175114825367928,-0.09499840438365936,0.08061689138412476,0.11390743404626846,0.32882076501846313
-0.005258205812424421,0.013019119389355183,-0.09683875739574432,0.07950331270694733,0.11557232588529587,0.3288230895996094
-0.004774243570864201,0.013653392903506756,-0.09918984770774841,0.08081471920013428,0.11758479475975037,0.32881927490234375
-0.0070152305997908115,0.010168787091970444,-0.08864106237888336,0.08002321422100067,0.1087266206741333,0.32882460951805115
-0.005580401513725519,0.012433844618499279,-0.0959012433886528,0.08099478483200073,0.11465123295783997,0.328820139169693
-0.006630224641412497,0.01179883535951376,-0.09560730308294296,0.08346530795097351,0.11426575481891632,0.32881617546081543
-0.006929468829184771,0.010641349479556084,-0.09099537879228592,0.08123383671045303,0.1102757453918457,0.3288222551345825
-0.007239297032356262,0.011352097615599632,-0.09504307806491852,0.08461124449968338,0.11369428038597107,0.3288145363330841
-0.006246592383831739,0.011748827993869781,-0.09424573183059692,0.08144021779298782,0.11311087757349014,0.32882019877433777
-0.0062226345762610435,0.011807446368038654,-0.09441877901554108,0.08146430552005768,0.11325648427009583,0.3288201093673706
-0.0064389961771667,0.011684366501867771,-0.09422537684440613,0.08180353790521622,0.1130249872803688,0.32881975173950195
-0.006655869074165821,0.011517045088112354,-0.09386301040649414,0.08205977827310562,0.1126536950469017,0.3288195729255676
-0.0066049485467374325,0.01147311832755804,-0.09364664554595947,0.08178746700286865,0.11250805854797363,0.32882001996040344
-0.006607317831367254,0.011382415890693665,-0.09332186728715897,0.08155467361211777,0.1122579351067543,0.32882046699523926
-0.0069101122207939625,0.011189194396138191,-0.09296006709337234,0.08196939527988434,0.11185339838266373,0.32882004976272583
-0.007126772776246071,0.011073444038629532,-0.09277902543544769,0.08232194185256958,0.11162208020687103,0.3288196623325348
-0.007148040924221277,0.011007050983607769,-0.09255468845367432,0.0822070762515068,0.11143858730792999,0.3288199007511139
-0.007335806265473366,0.010867833159863949,-0.09223933517932892,0.08237756043672562,0.11111480742692947,0.3288198411464691
-0.0072541809640824795,0.010836858302354813,-0.09204675257205963,0.08202888816595078,0.111020527780056,0.3288203477859497
-0.007218530867248774,0.010706034488976002,-0.09153145551681519,0.08153071254491806,0.11066148430109024,0.32882118225097656
-0.007689218968153,0.010526425205171108,-0.09134308248758316,0.08245854079723358,0.11027704179286957,0.3288200795650482
-0.007446744944900274,0.010556167922914028,-0.09122610092163086,0.0817989781498909,0.11033239215612411,0.32882094383239746
-0.007966140285134315,0.010299752466380596,-0.09080971777439117,0.08262255787849426,0.10977417975664139,0.32882004976272583
-0.00786849670112133,0.010348177514970303,-0.09069176763296127,0.08226913213729858,0.10965491086244583,0.32882076501846313
-0.00807423610240221,0.010170022957026958,-0.09070786088705063,0.0827818512916565,0.1097809374332428,0.32881954312324524
-0.00793412420898676,0.010317458771169186,-0.0902889296412468,0.08201754838228226,0.10917995125055313,0.32882165908813477
-0.008789114654064178,0.009837991558015347,-0.08920971304178238,0.08295707404613495,0.10792429745197296,0.328821063041687
-0.008206897415220737,0.010166237130761147,-0.08983305096626282,0.0821988433599472,0.10864974558353424,0.3288217782974243
-0.008931499905884266,0.009706047363579273,-0.08906422555446625,0.08312900364398956,0.10786151885986328,0.3288206160068512
-0.00832756981253624,0.010167374275624752,-0.08947459608316422,0.08212973177433014,0.10810567438602448,0.32882261276245117
-0.009041315875947475,0.009561436250805855,-0.08899645507335663,0.08327896147966385,0.1079571396112442,0.3288199007511139
-0.009806374087929726,0.008946509100496769,-0.08840761333703995,0.08443083614110947,0.10764673352241516,0.32881736755371094
-0.009315945208072662,0.00939992442727089,-0.08855772018432617,0.08341965079307556,0.10748858004808426,0.3288199305534363
-0.010081800632178783,0.008788405917584896,-0.08792939782142639,0.08452330529689789,0.10712755471467972,0.3288174867630005
-0.009381387382745743,0.009334271773695946,-0.08852655440568924,0.08354246616363525,0.10750975459814072,0.3288195729255676
-0.00935443677008152,0.009511291980743408,-0.08791366219520569,0.08273182064294815,0.10655383765697479,0.32882213592529297
-0.009668645448982716,0.009175032377243042,-0.08808457106351852,0.08368267118930817,0.10703511536121368,0.32881954312324524
-0.009623775258660316,0.009378178976476192,-0.08743050694465637,0.08275491744279861,0.10601744800806046,0.32882237434387207
-0.01088388729840517,0.008563224226236343,-0.08584881573915482,0.08379144221544266,0.10453646630048752,0.3288207948207855
-0.009921231307089329,0.009217428974807262,-0.08697553724050522,0.08286981284618378,0.10553248226642609,0.32882237434387207
-0.010971343144774437,0.00851618591696024,-0.0857989564538002,0.08387517929077148,0.1045013964176178,0.32882052659988403
-0.010169340297579765,0.009101804345846176,-0.08649744093418121,0.08285387605428696,0.10498559474945068,0.3288227319717407
-0.011058107018470764,0.008479625917971134,-0.08578120917081833,0.08393154293298721,0.10450907051563263,0.32882022857666016
-0.011110768653452396,0.007913324050605297,-0.08486776798963547,0.08449124544858932,0.10398276895284653,0.32882028818130493
-0.011945942416787148,0.0081293024122715,-0.08560056984424591,0.08479542285203934,0.10440860688686371,0.32881733775138855
-0.011244526132941246,0.00817055907100439,-0.08493173867464066,0.08399822562932968,0.10375488549470901,0.3288209140300751
-0.011616270989179611,0.00782024022191763,-0.08511757105588913,0.08502084016799927,0.10424403101205826,0.32881808280944824
-0.012027072720229626,0.00831376202404499,-0.08509407192468643,0.08401496708393097,0.10356694459915161,0.3288193941116333
-0.012124632485210896,0.00866047851741314,-0.08474902808666229,0.08299528807401657,0.10275182873010635,0.32882165908813477
-0.012110422365367413,0.00821476336568594,-0.08477021753787994,0.08401484042406082,0.1032509058713913,0.32881972193717957
-0.012364822439849377,0.008552692830562592,-0.08436103910207748,0.08297913521528244,0.1023314893245697,0.3288217782974243
-0.012214282527565956,0.008230285719037056,-0.0847449079155922,0.0839773640036583,0.10317918658256531,0.3288196325302124
-0.012730023823678493,0.007411147467792034,-0.0835065022110939,0.08491962403059006,0.1024191603064537,0.3288184702396393
-0.012228147126734257,0.008302188478410244,-0.08487238734960556,0.08391547203063965,0.10325820744037628,0.32881954312324524
-0.013036849908530712,0.0072832549922168255,-0.08305010944604874,0.08489211648702621,0.10193270444869995,0.32881850004196167
-0.01226341724395752,0.008367761969566345,-0.08492670208215714,0.08380062133073807,0.10326142609119415,0.32881954312324524
-0.013077110052108765,0.008567617274820805,-0.08383054286241531,0.08261990547180176,0.10153414309024811,0.3288215696811676
-0.012180321849882603,0.008490046486258507,-0.08519238233566284,0.08370380103588104,0.10349016636610031,0.32881948351860046
-0.013374390080571175,0.00845926534384489,-0.08340714126825333,0.0825643539428711,0.10108081251382828,0.3288215696811676
-0.013537582010030746,0.007859839126467705,-0.08291417360305786,0.08353564143180847,0.1010904312133789,0.32881999015808105
-0.013949711807072163,0.007160294335335493,-0.08202395588159561,0.08445383608341217,0.1006745994091034,0.3288184702396393
-0.013798901811242104,0.007834208197891712,-0.08256557583808899,0.0833282470703125,0.10067296028137207,0.32882004976272583
-0.014206641353666782,0.0070996712893247604,-0.0816790908575058,0.08435849100351334,0.10028786212205887,0.3288183808326721
-0.013785281218588352,0.007941899821162224,-0.08262717723846436,0.08309582620859146,0.10067658126354218,0.32882025837898254
-0.014478744938969612,0.0069932276383042336,-0.08123065531253815,0.08425374329090118,0.09986922144889832,0.328818142414093
-0.01373264566063881,0.008128849789500237,-0.08272726088762283,0.08270922303199768,0.10067050158977509,0.3288206458091736
-0.014696666039526463,0.008624081499874592,-0.08149559795856476,0.0805860161781311,0.09881438314914703,0.32882192730903625
-0.013522390276193619,0.00844868179410696,-0.08309250324964523,0.08220066130161285,0.10087639093399048,0.3288212716579437
-0.014826375991106033,0.008476677350699902,-0.08110550045967102,0.0805734321475029,0.09859883785247803,0.32882145047187805
-0.015085277147591114,0.007684369571506977,-0.08018600940704346,0.08164980262517929,0.09838419407606125,0.3288193643093109
-0.014991859905421734,0.008512117899954319,-0.08081471920013428,0.080230712890625,0.09828966110944748,0.32882145047187805
-0.015135195106267929,0.007958435453474522,-0.08019504696130753,0.08098457008600235,0.09819630533456802,0.3288199305534363
-0.015406358055770397,0.00814538449048996,-0.08016234636306763,0.08066076040267944,0.09772884845733643,0.3288209140300751
-0.01497918926179409,0.008116677403450012,-0.08017818629741669,0.08042995631694794,0.09834244847297668,0.3288196921348572
-0.015666212886571884,0.00836368277668953,-0.07991979271173477,0.07994906604290009,0.0972374826669693,0.3288215100765228
-0.015213838778436184,0.008040264248847961,-0.08001482486724854,0.0806032121181488,0.09800995886325836,0.3288199305534363
-0.015491591766476631,0.008530707098543644,-0.07978224754333496,0.07921601831912994,0.09737710654735565,0.32882097363471985
-0.015392455272376537,0.008030887693166733,-0.07994036376476288,0.08066387474536896,0.09775042533874512,0.32882028818130493
-0.015103821642696857,0.008571935817599297,-0.07954324036836624,0.07851408421993256,0.09784107655286789,0.32881948351860046
-0.015456965193152428,0.008282670751214027,-0.0796746239066124,0.07973182946443558,0.09746463596820831,0.3288203775882721
-0.015050814487040043,0.008736074902117252,-0.0793299749493599,0.07777473330497742,0.09778060019016266,0.32881924510002136
-0.015344648621976376,0.008928230032324791,-0.07905914634466171,0.07719343155622482,0.09715991467237473,0.32881999015808105
-0.015619349665939808,0.009007640182971954,-0.07894715666770935,0.07702180743217468,0.09672819077968597,0.32882067561149597
-0.015150021761655807,0.0090286610648036,-0.07889343053102493,0.0766599252820015,0.09725037217140198,0.3288194537162781
-0.015065071173012257,0.009378812275826931,-0.07833985984325409,0.07525606453418732,0.09676600247621536,0.32881924510002136
-0.014661665074527264,0.00914869736880064,-0.07867196947336197,0.07591480761766434,0.097611203789711,0.3288181722164154
-0.015336006879806519,0.009343720972537994,-0.07844234257936478,0.07556451112031937,0.09650953114032745,0.3288201093673706
-0.014517496339976788,0.009371849708259106,-0.0783676952123642,0.07502582669258118,0.09739256650209427,0.32881811261177063
-0.014837104827165604,0.00978505052626133,-0.07784923911094666,0.07374370843172073,0.09630494564771652,0.32881948351860046
-0.014411075972020626,0.009576462209224701,-0.0780988484621048,0.07424972951412201,0.097149558365345,0.3288181722164154
-0.014767466112971306,0.009901139885187149,-0.07776447385549545,0.07345172762870789,0.0960959792137146,0.3288198709487915
-0.013868436217308044,0.009923232719302177,-0.07783032208681107,0.07323092967271805,0.09686613827943802,0.32881850004196167
-0.01378041785210371,0.010361811146140099,-0.07746987044811249,0.07213142514228821,0.0959225669503212,0.3288200795650482
-0.01422859076410532,0.010054592043161392,-0.07757572829723358,0.07270248979330063,0.09639748930931091,0.3288189768791199
-0.013269579038023949,0.01046435721218586,-0.07747041434049606,0.07186564058065414,0.09612103551626205,0.32881981134414673
-0.014357089065015316,0.010455237701535225,-0.07704823464155197,0.07126497477293015,0.09569522738456726,0.32881951332092285
-0.013542870990931988,0.010185902938246727,-0.07763722538948059,0.07251457870006561,0.0965534895658493,0.32881900668144226
-0.013207080774009228,0.010892616584897041,-0.07692405581474304,0.07028642296791077,0.09555753320455551,0.3288200795650482
-0.013227418065071106,0.011074532754719257,-0.07675524801015854,0.06979911029338837,0.09515205770730972,0.32882067561149597
-0.013215695507824421,0.011227727867662907,-0.07657546550035477,0.06927796453237534,0.09491678327322006,0.3288208544254303
-0.012699361890554428,0.011329617351293564,-0.07647824287414551,0.06874803453683853,0.09531272202730179,0.32881996035575867
-0.012214978225529194,0.011451826430857182,-0.07638978213071823,0.06824088841676712,0.09559471160173416,0.3288193345069885
-0.012327414937317371,0.011652174405753613,-0.07621806114912033,0.06776297837495804,0.09505320340394974,0.32882025837898254
-0.01158899161964655,0.011714110150933266,-0.07617302983999252,0.06728515774011612,0.0957588404417038,0.32881876826286316
-0.01245070993900299,0.01160101406276226,-0.07625532150268555,0.06793302297592163,0.09503425657749176,0.3288203477859497
-0.011956796981394291,0.012178533710539341,-0.07577406615018845,0.06621108949184418,0.09440027177333832,0.3288211226463318
-0.011365342885255814,0.011600158177316189,-0.07624168694019318,0.06741160899400711,0.09629400074481964,0.3288177251815796
-0.012593933381140232,0.014279885217547417,-0.07407483458518982,0.05887811258435249,0.08929383009672165,0.3288297653198242
-0.008671478368341923,0.009392154403030872,-0.07806355506181717,0.07186661660671234,0.10544658452272415,0.3288038671016693
-0.009953695349395275,0.01144416257739067,-0.07638707756996155,0.06718583405017853,0.09490549564361572,0.3288138508796692
-0.008264204487204552,0.012475510127842426,-0.07558813691139221,0.06379003077745438,0.09815149009227753,0.3288131058216095
-0.012172880582511425,0.011958328075706959,-0.07593445479869843,0.06686374545097351,0.0945696011185646,0.328821063041687
-0.012337721884250641,0.013555780984461308,-0.07463850826025009,0.06282994896173477,0.09109971672296524,0.32882675528526306
-0.003907592501491308,0.012576368637382984,-0.0755830705165863,0.061538439244031906,0.1039838045835495,0.32880261540412903
-0.010210617445409298,0.013565941713750362,-0.07469119131565094,0.06187954172492027,0.09438587725162506,0.3288215398788452
-0.011529582552611828,0.013994415290653706,-0.07433251291513443,0.06138183921575546,0.09117613732814789,0.3288262188434601
-0.009628770872950554,0.01359755452722311,-0.07467819005250931,0.06153528392314911,0.09425036609172821,0.3288201689720154
-0.009367231279611588,0.013976520858705044,-0.07439244538545609,0.06045311316847801,0.09380362927913666,0.32882076501846313
-0.008506620302796364,0.014044495299458504,-0.07435993105173111,0.059888772666454315,0.09470359981060028,0.3288187086582184
-0.00985743012279272,0.013581962324678898,-0.07468606531620026,0.06168140470981598,0.09400498121976852,0.32882070541381836
-0.00844897236675024,0.014400843530893326,-0.07410887628793716,0.05897439271211624,0.09406973421573639,0.32881975173950195
-0.008405005559325218,0.014574459753930569,-0.07398628443479538,0.05850381404161453,0.09379615634679794,0.32882019877433777
-0.00791927520185709,0.014726665802299976,-0.07390278577804565,0.057931989431381226,0.09406443685293198,0.3288194239139557
-0.007256852462887764,0.014813045039772987,-0.07387318462133408,0.05746842920780182,0.09465674310922623,0.32881802320480347
-0.007486049085855484,0.015222078189253807,-0.07356241345405579,0.05647093057632446,0.09363079816102982,0.3288198709487915
-0.007483673747628927,0.015278806909918785,-0.07356724143028259,0.05630621686577797,0.0935579314827919,0.3288200795650482
-0.0069890315644443035,0.01535204891115427,-0.07341109961271286,0.055943649262189865,0.09392143040895462,0.3288188874721527
-0.007496512029320002,0.01534492801874876,-0.07361003011465073,0.05617069453001022,0.09344099462032318,0.32882046699523926
-0.006524128373712301,0.015601522289216518,-0.07317356020212173,0.055086925625801086,0.09396887570619583,0.3288183808326721
-0.006008609663695097,0.01627200096845627,-0.07271513342857361,0.05310967192053795,0.09331834316253662,0.3288191556930542
-0.006163307465612888,0.015885571017861366,-0.07294344902038574,0.05419139564037323,0.09383755922317505,0.32881826162338257
-0.006031665951013565,0.016345886513590813,-0.07277005165815353,0.05295195430517197,0.09318558126688004,0.32881960272789
-0.005526417400687933,0.016162743791937828,-0.07253372669219971,0.05321061983704567,0.09395241737365723,0.328817218542099
-0.005874833557754755,0.01650407165288925,-0.07271068543195724,0.052500028163194656,0.09307947009801865,0.32881975173950195
-0.0054261088371276855,0.016428520902991295,-0.07261870056390762,0.05238655209541321,0.09376126527786255,0.3288179934024811
-0.005645979195833206,0.016620390117168427,-0.07242974638938904,0.05222160369157791,0.09295129776000977,0.3288193941116333
-0.0050748917274177074,0.016680488362908363,-0.07264997810125351,0.05142740532755852,0.09390510618686676,0.32881787419319153
-0.005135403014719486,0.01739828661084175,-0.07278626412153244,0.049547404050827026,0.09281326830387115,0.32882094383239746
-0.004908499773591757,0.016962343826889992,-0.07269773632287979,0.050526395440101624,0.09375612437725067,0.3288184702396393
-0.0049656834453344345,0.017475945875048637,-0.07251441478729248,0.049389779567718506,0.09268908947706223,0.3288206160068512
-0.004568703472614288,0.017016679048538208,-0.07223272323608398,0.05051121115684509,0.09367886930704117,0.32881754636764526
-0.004931450821459293,0.017431633546948433,-0.0728859007358551,0.049193333834409714,0.09317493438720703,0.32882043719291687
-0.004440870136022568,0.017406048253178596,-0.07207494229078293,0.04950148984789848,0.0931192934513092,0.32881858944892883
-0.003980690613389015,0.017962245270609856,-0.07116614282131195,0.04835550859570503,0.09205188602209091,0.32881903648376465
-0.00424141576513648,0.017712406814098358,-0.07190098613500595,0.04863814637064934,0.09279592335224152,0.32881906628608704
-0.00377952610142529,0.018236299976706505,-0.07114031165838242,0.04753425717353821,0.09187877178192139,0.3288194537162781
-0.0041046906262636185,0.017724545672535896,-0.0717482641339302,0.048607323318719864,0.09283290803432465,0.3288186490535736
-0.003555865725502372,0.018528198823332787,-0.07112107425928116,0.046586792916059494,0.09175989776849747,0.3288198411464691
-0.003610906656831503,0.018478035926818848,-0.07158970087766647,0.046350833028554916,0.09226321429014206,0.3288199007511139
-0.0032949261367321014,0.018800020217895508,-0.07097887247800827,0.0457184724509716,0.09163027256727219,0.3288199305534363
-0.00345029984600842,0.018601061776280403,-0.0724015012383461,0.04519093781709671,0.09320603311061859,0.32881996035575867
-0.0036665897350758314,0.018384242430329323,-0.07135942578315735,0.04686744883656502,0.0920572578907013,0.32881972193717957
-0.002996309194713831,0.019045120105147362,-0.0715009868144989,0.04439513385295868,0.09227306395769119,0.32882001996040344
-0.002727384911850095,0.01929660700261593,-0.07089420408010483,0.04398002102971077,0.09169097244739532,0.32881996035575867
-0.0028533427976071835,0.019167615100741386,-0.07209693640470505,0.043470676988363266,0.09293262660503387,0.3288201093673706
-0.002957983175292611,0.019076718017458916,-0.07103835046291351,0.044649966061115265,0.09180792421102524,0.3288199305534363
-0.002241054316982627,0.01975448615849018,-0.07049138844013214,0.042653508484363556,0.09136238694190979,0.32881996035575867
-0.0027406897861510515,0.01927734725177288,-0.0709739476442337,0.04396733269095421,0.09179466217756271,0.3288199305534363
-0.0019228534074500203,0.02004843018949032,-0.07034292817115784,0.04172011464834213,0.09126827865839005,0.3284316062927246
